;FLAVOR:UltiGCode
;TIME:8458
;MATERIAL:19803
;MATERIAL2:0

;Layer count: 35
;LAYER:0
M107
G0 F9000 X29.444 Y60.675 Z0.300
;TYPE:SKIRT
G1 F1200 X36.084 Y60.675 E0.79680
G1 X37.465 Y61.457 E0.98724
G1 X38.054 Y61.831 E1.07097
G1 X40.060 Y63.230 E1.36445
G1 X40.067 Y65.429 E1.62833
G1 X40.062 Y69.967 E2.17289
G1 X38.791 Y69.967 E2.32541
G1 X38.789 Y72.228 E2.59673
G1 X38.788 Y78.084 E3.29945
G1 X38.790 Y80.343 E3.57053
G1 X41.499 Y80.343 E3.89561
G1 X41.499 Y90.891 E5.16137
G1 X24.005 Y90.891 E7.26065
G1 X24.005 Y80.343 E8.52641
G1 X26.714 Y80.343 E8.85149
G1 X26.716 Y78.081 E9.12293
G1 X26.716 Y73.862 E9.62921
G1 X26.717 Y72.224 E9.82577
G1 X26.715 Y69.967 E10.09661
G1 X25.448 Y69.967 E10.24865
G1 X25.448 Y65.431 E10.79297
G1 X25.441 Y63.226 E11.05757
G1 X27.472 Y61.825 E11.35365
G1 X28.062 Y61.450 E11.43754
G1 X29.444 Y60.675 E11.62768
G0 F9000 X29.549 Y61.075
G1 F1200 X35.979 Y61.075 E12.39928
G1 X37.259 Y61.800 E12.57581
G1 X37.833 Y62.164 E12.65737
G1 X39.661 Y63.439 E12.92482
G1 X39.667 Y65.430 E13.16374
G1 X39.663 Y69.567 E13.66018
G1 X38.391 Y69.567 E13.81282
G1 X38.389 Y72.228 E14.13214
G1 X38.388 Y78.084 E14.83486
G1 X38.391 Y80.743 E15.15394
G1 X41.099 Y80.743 E15.47890
G1 X41.099 Y90.491 E16.64866
G1 X24.405 Y90.491 E18.65194
G1 X24.405 Y80.743 E19.82170
G1 X27.114 Y80.743 E20.14678
G1 X27.116 Y78.081 E20.46622
G1 X27.116 Y73.862 E20.97250
G1 X27.117 Y72.224 E21.16906
G1 X27.114 Y69.567 E21.48790
G1 X25.848 Y69.567 E21.63982
G1 X25.848 Y65.431 E22.13614
G1 X25.842 Y63.436 E22.37554
G1 X27.693 Y62.158 E22.64546
G1 X28.268 Y61.794 E22.72712
G1 X29.549 Y61.075 E22.90340
G10
G0 F9000 X30.227 Y65.052
;TYPE:WALL-INNER
G11
G1 F1200 X30.542 Y64.875 E22.94676
G1 X30.897 Y64.875 E22.98936
G1 X30.897 Y65.767 E23.09640
G1 X29.648 Y65.767 E23.24628
G1 X29.648 Y65.427 E23.28708
G1 X30.227 Y65.052 E23.36986
G0 F9000 X30.897 Y65.026
G0 X30.956 Y76.533
G0 X34.548 Y76.533
G0 X34.605 Y64.888
G0 X34.978 Y64.875
G1 F1200 X35.732 Y65.331 E23.47560
G1 X35.867 Y65.425 E23.49534
G1 X35.867 Y65.767 E23.53638
G1 X34.607 Y65.767 E23.68758
G1 X34.607 Y64.875 E23.79462
G1 X34.978 Y64.875 E23.83914
G0 F9000 X34.652 Y65.826
G0 X34.589 Y76.592
G1 F1200 X34.588 Y78.084 E24.01818
G1 X34.594 Y83.581 E24.67782
G1 X34.589 Y84.543 E24.79326
G1 X37.299 Y84.543 E25.11846
G1 X37.299 Y86.691 E25.37622
G1 X28.205 Y86.691 E26.46750
G1 X28.205 Y84.543 E26.72526
G1 X30.910 Y84.543 E27.04986
G1 X30.915 Y76.592 E28.00398
G1 X34.589 Y76.592 E28.44486
G0 F9000 X34.207 Y76.192
;TYPE:WALL-OUTER
G1 F1200 X34.207 Y64.475 E29.85090
G1 X35.083 Y64.475 E29.95602
G1 X35.952 Y64.997 E30.07767
G1 X36.266 Y65.216 E30.12361
G1 X36.266 Y66.167 E30.23773
G1 X34.993 Y66.167 E30.39049
G1 X34.992 Y84.143 E32.54761
G1 X37.699 Y84.143 E32.87245
G1 X37.699 Y87.091 E33.22621
G1 X27.805 Y87.091 E34.41349
G1 X27.805 Y84.143 E34.76725
G1 X30.511 Y84.143 E35.09197
G1 X30.511 Y66.477 E37.21189
G1 X30.514 Y66.167 E37.24909
G1 X29.248 Y66.167 E37.40101
G1 X29.247 Y65.218 E37.51489
G1 X30.016 Y64.711 E37.62542
G1 X30.437 Y64.475 E37.68334
G1 X31.297 Y64.475 E37.78654
G1 X31.297 Y76.192 E39.19258
G1 X34.207 Y76.192 E39.54178
G0 F9000 X34.406 Y75.984
;TYPE:SKIN
G1 F1200 X34.792 Y76.087 E39.60722
G1 X34.599 Y75.328 E39.67253
G1 X34.599 Y74.762 E39.73790
G1 X34.599 Y74.197 E39.80316
G1 X34.599 Y73.631 E39.86853
G1 X34.599 Y73.065 E39.93391
G1 X34.599 Y72.500 E39.99917
G1 X34.599 Y71.934 E40.06454
G1 X34.599 Y71.368 E40.12991
G1 X34.599 Y70.803 E40.19517
G1 X34.599 Y70.237 E40.26054
G1 X34.599 Y69.671 E40.32591
G1 X34.599 Y69.106 E40.39117
G1 X34.599 Y68.540 E40.45655
G1 X34.599 Y67.974 E40.52192
G1 X34.599 Y67.408 E40.58729
G1 X34.599 Y66.843 E40.65255
G1 X34.599 Y66.277 E40.71792
G1 X34.550 Y65.946 E40.75807
G0 F9000 X34.548 Y76.533
G0 X30.956 Y76.533
G0 X30.899 Y66.480
G0 X31.097 Y66.452
G1 F1200 X30.715 Y66.353 E40.82295
G1 X30.906 Y67.110 E40.88759
G1 X30.905 Y67.674 E40.95223
G1 X30.905 Y68.240 E41.01709
G1 X30.905 Y68.806 E41.08196
G1 X30.905 Y69.371 E41.14670
G1 X30.905 Y69.937 E41.21174
G1 X30.905 Y70.503 E41.27677
G1 X30.905 Y71.068 E41.34169
G1 X30.905 Y71.634 E41.40672
G1 X30.904 Y72.199 E41.47181
G1 X30.904 Y72.765 E41.53701
G1 X30.904 Y73.330 E41.60210
G1 X30.904 Y73.896 E41.66748
G1 X30.904 Y74.462 E41.73285
G1 X30.904 Y75.027 E41.79811
G1 X30.904 Y75.593 E41.86348
G1 X30.985 Y76.240 E41.92881
G1 X30.711 Y76.248 E41.96171
G0 F9000 X31.193 Y76.730
G1 F1200 X34.449 Y79.987 E42.51436
G0 F9000 X34.449 Y80.552
G1 F1200 X31.054 Y77.157 E43.09051
G0 F9000 X31.054 Y77.723
G1 F1200 X34.449 Y81.118 E43.66666
G0 F9000 X34.449 Y81.684
G1 F1200 X31.053 Y78.288 E44.24298
G0 F9000 X31.053 Y78.853
G1 F1200 X34.449 Y82.249 E44.81930
G0 F9000 X34.449 Y82.815
G1 F1200 X31.052 Y79.418 E45.39579
G0 F9000 X31.052 Y79.984
G1 F1200 X34.449 Y83.381 E45.97228
G0 F9000 X34.449 Y83.947
G1 F1200 X31.051 Y80.549 E46.54894
G0 F9000 X31.051 Y81.115
G1 F1200 X34.449 Y84.512 E47.12551
G0 F9000 X34.619 Y84.682
G1 F1200 X36.486 Y86.549 E47.44235
G0 F9000 X35.921 Y86.549
G1 F1200 X31.051 Y81.680 E48.26873
G0 F9000 X31.051 Y82.245
G1 F1200 X35.355 Y86.549 E48.99915
G0 F9000 X34.789 Y86.549
G1 F1200 X31.050 Y82.810 E49.63368
G0 F9000 X31.050 Y83.376
G1 F1200 X34.223 Y86.549 E50.17215
G0 F9000 X33.658 Y86.549
G1 F1200 X31.049 Y83.941 E50.61483
G0 F9000 X31.049 Y84.507
G1 F1200 X33.092 Y86.549 E50.96145
G0 F9000 X32.526 Y86.549
G1 F1200 X30.659 Y84.682 E51.27829
G0 F9000 X30.093 Y84.682
G1 F1200 X31.961 Y86.549 E51.59522
G0 F9000 X31.395 Y86.549
G1 F1200 X29.528 Y84.682 E51.91206
G0 F9000 X28.962 Y84.682
G1 F1200 X30.829 Y86.549 E52.22890
G0 F9000 X30.264 Y86.549
G1 F1200 X28.396 Y84.682 E52.54582
G0 F9000 X28.345 Y85.196
G1 F1200 X29.698 Y86.549 E52.77544
G0 F9000 X29.132 Y86.549
G1 F1200 X28.345 Y85.762 E52.90899
G0 F9000 X28.345 Y86.327
G1 F1200 X28.567 Y86.549 E52.94667
G0 F9000 X35.184 Y84.682
G1 F1200 X37.052 Y86.549 E53.26359
G0 F9000 X37.159 Y86.090
G1 F1200 X35.750 Y84.682 E53.50262
G0 F9000 X36.316 Y84.682
G1 F1200 X37.159 Y85.525 E53.64569
G0 F9000 X37.159 Y84.959
G1 F1200 X36.881 Y84.682 E53.69278
G0 F9000 X34.649 Y84.484
G0 X34.449 Y79.421
G1 F1200 X31.758 Y76.730 E54.14946
G0 F9000 X32.324 Y76.730
G1 F1200 X34.449 Y78.855 E54.51008
G0 F9000 X34.449 Y78.290
G1 F1200 X32.890 Y76.730 E54.77474
G0 F9000 X33.456 Y76.730
G1 F1200 X34.449 Y77.724 E54.94334
G0 F9000 X34.449 Y77.158
G1 F1200 X34.021 Y76.730 E55.01597
;LAYER:1
M106 S10
G0 F9000 X34.607 Y76.592 Z0.500
;TYPE:WALL-INNER
G1 F1620 X34.607 Y64.875 E55.95333
G1 X35.255 Y64.875 E56.00517
G1 X36.035 Y65.399 E56.08035
G1 X36.052 Y65.412 E56.08206
G1 X36.053 Y65.767 E56.11046
G1 X34.847 Y65.767 E56.20694
G1 X34.849 Y67.039 E56.30870
G1 X34.844 Y78.084 E57.19230
G1 X34.848 Y84.543 E57.70902
G1 X37.299 Y84.543 E57.90510
G1 X37.299 Y86.691 E58.07694
G1 X28.205 Y86.691 E58.80446
G1 X28.205 Y84.543 E58.97630
G1 X30.657 Y84.543 E59.17246
G1 X30.654 Y81.991 E59.37662
G1 X30.658 Y72.226 E60.15782
G1 X30.656 Y65.767 E60.67454
G1 X29.461 Y65.767 E60.77014
G1 X29.460 Y65.419 E60.79798
G1 X30.266 Y64.875 E60.87577
G1 X30.897 Y64.875 E60.92625
G1 X30.897 Y76.592 E61.86361
G1 X34.607 Y76.592 E62.16041
G0 F9000 X34.207 Y76.192
;TYPE:WALL-OUTER
G1 F1620 X34.207 Y64.475 E63.09777
G1 X35.370 Y64.475 E63.19081
G1 X35.744 Y64.709 E63.22611
G1 X36.275 Y65.079 E63.27788
G1 X36.452 Y65.212 E63.29559
G1 X36.453 Y66.167 E63.37200
G1 X35.248 Y66.167 E63.46840
G1 X35.248 Y84.143 E64.90648
G1 X37.699 Y84.143 E65.10256
G1 X37.699 Y87.091 E65.33840
G1 X27.805 Y87.091 E66.12992
G1 X27.805 Y84.143 E66.36576
G1 X30.256 Y84.143 E66.56184
G1 X30.256 Y66.167 E67.99992
G1 X29.061 Y66.167 E68.09552
G1 X29.060 Y65.214 E68.17176
G1 X29.529 Y64.877 E68.21796
G1 X30.149 Y64.475 E68.27707
G1 X31.297 Y64.475 E68.36891
G1 X31.297 Y76.192 E69.30627
G1 X34.207 Y76.192 E69.53907
G0 F9000 X34.426 Y76.730
;TYPE:SKIN
G1 F1620 X30.797 Y80.359 E69.94964
G0 F9000 X30.797 Y80.925
G1 F1620 X34.707 Y77.015 E70.39201
G0 F9000 X34.707 Y77.580
G1 F1620 X30.797 Y81.491 E70.83443
G0 F9000 X30.797 Y82.056
G1 F1620 X34.707 Y78.146 E71.27680
G0 F9000 X34.707 Y78.712
G1 F1620 X30.797 Y82.622 E71.71917
G0 F9000 X30.797 Y83.188
G1 F1620 X34.707 Y79.277 E72.16159
G0 F9000 X34.707 Y79.843
G1 F1620 X30.797 Y83.753 E72.60395
G0 F9000 X30.797 Y84.319
G1 F1620 X34.707 Y80.409 E73.04632
G0 F9000 X34.707 Y80.975
G1 F1620 X29.132 Y86.550 E73.67706
G0 F9000 X29.697 Y86.550
G1 F1620 X34.707 Y81.540 E74.24388
G0 F9000 X34.707 Y82.106
G1 F1620 X30.263 Y86.550 E74.74666
G0 F9000 X30.829 Y86.550
G1 F1620 X34.707 Y82.672 E75.18540
G0 F9000 X34.707 Y83.237
G1 F1620 X31.394 Y86.550 E75.56023
G0 F9000 X31.960 Y86.550
G1 F1620 X34.707 Y83.803 E75.87101
G0 F9000 X34.707 Y84.369
G1 F1620 X32.526 Y86.550 E76.11777
G0 F9000 X33.091 Y86.550
G1 F1620 X34.960 Y84.682 E76.32916
G0 F9000 X35.525 Y84.682
G1 F1620 X33.657 Y86.550 E76.54050
G0 F9000 X34.223 Y86.550
G1 F1620 X36.091 Y84.682 E76.75184
G0 F9000 X36.657 Y84.682
G1 F1620 X34.788 Y86.550 E76.96324
G0 F9000 X35.354 Y86.550
G1 F1620 X37.159 Y84.746 E77.16739
G0 F9000 X37.159 Y85.311
G1 F1620 X35.920 Y86.550 E77.30757
G0 F9000 X36.486 Y86.550
G1 F1620 X37.159 Y85.877 E77.38371
G0 F9000 X37.159 Y86.443
G1 F1620 X37.051 Y86.550 E77.39588
G0 F9000 X30.435 Y84.681
G1 F1620 X28.566 Y86.550 E77.60733
G0 F9000 X28.345 Y86.206
G1 F1620 X29.869 Y84.681 E77.77981
G0 F9000 X29.303 Y84.681
G1 F1620 X28.345 Y85.640 E77.88825
G0 F9000 X28.345 Y85.074
G1 F1620 X28.738 Y84.681 E77.93271
G0 F9000 X30.597 Y84.484
G0 X30.797 Y79.794
G1 F1620 X33.860 Y76.730 E78.27931
G0 F9000 X33.294 Y76.730
G1 F1620 X30.797 Y79.228 E78.56187
G0 F9000 X30.797 Y78.662
G1 F1620 X32.729 Y76.730 E78.78045
G0 F9000 X32.163 Y76.730
G1 F1620 X30.797 Y78.097 E78.93505
G0 F9000 X30.797 Y77.531
G1 F1620 X31.597 Y76.730 E79.02562
G0 F9000 X31.032 Y76.730
G1 F1620 X30.797 Y76.965 E79.05220
G0 F9000 X30.597 Y65.826
G0 X30.257 Y65.625
G1 F1620 X30.757 Y65.126 E79.10871
G0 F9000 X30.292 Y65.025
G1 F1620 X29.692 Y65.625 E79.17660
G0 F9000 X30.897 Y65.497
G0 X30.956 Y76.533
G0 X34.548 Y76.533
G0 X34.747 Y65.096
G1 F1620 X35.075 Y65.050 E79.18574
G1 X35.065 Y65.626 E79.24669
G1 X35.660 Y65.314 E79.30044
;LAYER:2
M106 S20
G0 F9000 X35.066 Y65.767 Z0.700
;TYPE:WALL-INNER
G1 F2100 X35.069 Y68.445 E79.51468
G1 X35.065 Y78.084 E80.28580
G1 X35.067 Y84.543 E80.80252
G1 X37.299 Y84.543 E80.98108
G1 X37.299 Y86.691 E81.15292
G1 X28.205 Y86.691 E81.88044
G1 X28.205 Y84.543 E82.05228
G1 X30.437 Y84.543 E82.23084
G1 X30.434 Y78.303 E82.73004
G1 X30.433 Y77.918 E82.76084
G1 X30.434 Y72.225 E83.21628
G1 X30.433 Y72.008 E83.23364
G1 X30.439 Y65.767 E83.73292
G1 X29.290 Y65.767 E83.82484
G1 X29.289 Y65.409 E83.85348
G1 X30.031 Y64.875 E83.92661
G1 X30.897 Y64.875 E83.99589
G1 X30.897 Y76.592 E84.93325
G1 X34.607 Y76.592 E85.23005
G1 X34.607 Y64.875 E86.16741
G1 X35.487 Y64.875 E86.23781
G1 X36.222 Y65.408 E86.31044
G1 X36.223 Y65.767 E86.33916
G1 X35.066 Y65.767 E86.43172
G0 F9000 X35.467 Y66.167
;TYPE:WALL-OUTER
G1 F2100 X35.467 Y84.143 E87.86980
G1 X37.699 Y84.143 E88.04836
G1 X37.699 Y87.091 E88.28420
G1 X27.805 Y87.091 E89.07572
G1 X27.805 Y84.143 E89.31156
G1 X30.037 Y84.143 E89.49012
G1 X30.038 Y66.167 E90.92820
G1 X28.890 Y66.167 E91.02004
G1 X28.889 Y65.211 E91.09652
G1 X29.904 Y64.475 E91.19682
G1 X31.297 Y64.475 E91.30826
G1 X31.297 Y76.192 E92.24562
G1 X34.207 Y76.192 E92.47842
G1 X34.207 Y64.475 E93.41578
G1 X35.613 Y64.475 E93.52826
G1 X36.060 Y64.785 E93.57178
G1 X36.541 Y65.147 E93.61994
G1 X36.622 Y65.210 E93.62815
G1 X36.623 Y66.167 E93.70471
G1 X35.467 Y66.167 E93.79719
G0 F9000 X35.361 Y65.625
;TYPE:SKIN
G1 F2100 X34.750 Y65.014 E93.86632
G0 F9000 X34.747 Y65.577
G1 F2100 X34.836 Y65.949 E93.88651
G1 X34.836 Y66.515 E93.90666
G1 X34.836 Y67.081 E93.92681
G1 X34.836 Y67.646 E93.94704
G1 X34.836 Y68.212 E93.96719
G1 X34.836 Y68.778 E93.98734
G1 X34.836 Y69.343 E94.00757
G1 X34.836 Y69.909 E94.02772
G1 X34.836 Y70.475 E94.04787
G1 X34.836 Y71.040 E94.06809
G1 X34.836 Y71.606 E94.08824
G1 X34.836 Y72.172 E94.10839
G1 X34.836 Y72.737 E94.12862
G1 X34.836 Y73.303 E94.14877
G1 X34.836 Y73.869 E94.16892
G1 X34.836 Y74.434 E94.18915
G1 X34.836 Y75.000 E94.20930
G1 X34.837 Y75.566 E94.22967
G1 X34.837 Y76.132 E94.24993
G1 X34.757 Y76.618 E94.27023
G1 X34.927 Y77.071 E94.30893
G0 F9000 X34.927 Y77.636
G1 F2100 X34.022 Y76.731 E94.41132
G0 F9000 X33.456 Y76.731
G1 F2100 X34.927 Y78.202 E94.57775
G0 F9000 X34.927 Y78.768
G1 F2100 X32.891 Y76.731 E94.80815
G0 F9000 X32.325 Y76.731
G1 F2100 X34.927 Y79.333 E95.10253
G0 F9000 X34.927 Y79.899
G1 F2100 X31.759 Y76.731 E95.46095
G0 F9000 X31.194 Y76.731
G1 F2100 X34.927 Y80.465 E95.88335
G0 F9000 X34.927 Y81.030
G1 F2100 X30.577 Y76.680 E96.37550
G0 F9000 X30.757 Y76.294
G1 F2100 X30.667 Y75.922 E96.39571
G1 X30.667 Y75.356 E96.41597
G1 X30.667 Y74.790 E96.43612
G1 X30.667 Y74.224 E96.45627
G1 X30.667 Y73.659 E96.47638
G1 X30.667 Y73.093 E96.49653
G1 X30.667 Y72.527 E96.51668
G1 X30.667 Y71.962 E96.53679
G1 X30.667 Y71.396 E96.55694
G1 X30.667 Y70.830 E96.57709
G1 X30.667 Y70.265 E96.59732
G1 X30.667 Y69.699 E96.61747
G1 X30.667 Y69.133 E96.63762
G1 X30.667 Y68.568 E96.65785
G1 X30.667 Y68.002 E96.67800
G1 X30.667 Y67.436 E96.69815
G1 X30.667 Y66.871 E96.71837
G1 X30.667 Y66.305 E96.73852
G1 X30.667 Y65.739 E96.75867
G1 X30.029 Y65.101 E96.81876
G1 X29.987 Y65.625 E96.86818
G1 X29.504 Y65.425 E96.91000
G0 F9000 X30.896 Y65.325
G0 X30.956 Y76.533
G0 X34.548 Y76.533
G0 X35.315 Y65.014
G1 F2100 X35.927 Y65.625 E96.97918
G0 F9000 X34.548 Y64.816
G0 X34.548 Y76.533
G0 X30.956 Y76.533
G0 X30.577 Y77.246
G1 F2100 X34.927 Y81.596 E97.47133
G0 F9000 X34.927 Y82.162
G1 F2100 X30.577 Y77.812 E97.96347
G0 F9000 X30.577 Y78.377
G1 F2100 X34.927 Y82.727 E98.45562
G0 F9000 X34.927 Y83.293
G1 F2100 X30.577 Y78.943 E98.94777
G0 F9000 X30.577 Y79.509
G1 F2100 X34.927 Y83.859 E99.43991
G0 F9000 X34.927 Y84.425
G1 F2100 X30.577 Y80.074 E99.93212
G0 F9000 X30.577 Y80.640
G1 F2100 X36.486 Y86.549 E100.60064
G0 F9000 X35.921 Y86.549
G1 F2100 X30.577 Y81.206 E101.20519
G0 F9000 X30.577 Y81.771
G1 F2100 X35.355 Y86.549 E101.74576
G0 F9000 X34.789 Y86.549
G1 F2100 X30.577 Y82.337 E102.22229
G0 F9000 X30.577 Y82.903
G1 F2100 X34.223 Y86.549 E102.63479
G0 F9000 X33.658 Y86.549
G1 F2100 X30.577 Y83.469 E102.98331
G0 F9000 X30.577 Y84.034
G1 F2100 X33.092 Y86.549 E103.26785
G0 F9000 X32.526 Y86.549
G1 F2100 X30.577 Y84.600 E103.48835
G0 F9000 X30.093 Y84.682
G1 F2100 X31.961 Y86.549 E103.69964
G0 F9000 X31.395 Y86.549
G1 F2100 X29.528 Y84.682 E103.91087
G0 F9000 X28.962 Y84.682
G1 F2100 X30.829 Y86.549 E104.12209
G0 F9000 X30.264 Y86.549
G1 F2100 X28.396 Y84.682 E104.33338
G0 F9000 X28.345 Y85.196
G1 F2100 X29.698 Y86.549 E104.48645
G0 F9000 X29.132 Y86.549
G1 F2100 X28.345 Y85.762 E104.57549
G0 F9000 X28.345 Y86.327
G1 F2100 X28.567 Y86.549 E104.60061
G0 F9000 X35.184 Y84.682
G1 F2100 X37.052 Y86.549 E104.81189
G0 F9000 X37.159 Y86.090
G1 F2100 X35.750 Y84.682 E104.97124
G0 F9000 X36.316 Y84.682
G1 F2100 X37.159 Y85.525 E105.06662
G0 F9000 X37.159 Y84.959
G1 F2100 X36.881 Y84.682 E105.09801
;LAYER:3
M106 S30
G0 F9000 X36.939 Y84.682 Z0.900
;TYPE:FILL
G1 F2520 X35.071 Y86.550 E105.30935
G0 F9000 X32.809 Y86.549
G1 F2520 X30.385 Y84.125 E105.58360
G0 F9000 X29.414 Y86.550
G1 F2520 X35.117 Y80.848 E106.22876
G0 F9000 X35.117 Y83.201
G1 F2520 X30.385 Y78.469 E106.76413
G0 F9000 X30.386 Y79.922
G1 F2520 X33.577 Y76.730 E107.12520
G0 F9000 X34.305 Y76.731
G1 F2520 X35.117 Y77.544 E107.21713
G0 F9000 X34.747 Y75.561
G1 F2520 X35.117 Y75.191 E107.25899
G0 F9000 X35.117 Y71.887
G1 F2520 X34.747 Y71.516 E107.30090
G0 F9000 X34.747 Y69.904
G1 F2520 X35.117 Y69.534 E107.34277
G0 F9000 X35.117 Y66.230
G1 F2520 X34.747 Y65.859 E107.38468
G0 F9000 X34.548 Y76.533
G0 X30.956 Y76.533
G0 X30.757 Y67.526
G1 F2520 X30.385 Y67.155 E107.42671
G0 F9000 X30.757 Y68.237
G1 F2520 X30.386 Y68.608 E107.46869
G0 F9000 X30.385 Y72.812
G1 F2520 X30.757 Y73.538 E107.51062
G1 X30.386 Y74.265 E107.57591
G0 F9000 X30.956 Y76.533
G0 X34.548 Y76.533
G0 X34.548 Y64.816
G0 X35.317 Y84.484
G0 X36.599 Y84.682
G1 F2520 X37.159 Y85.242 E107.63927
