;FLAVOR:UltiGCode
;TIME:4600
;MATERIAL:5913
;MATERIAL2:0

;Layer count: 18
;LAYER:0
M107
G0 F9000 X25.229 Y52.492 Z0.300
;TYPE:SKIRT
G1 F1200 X26.232 Y52.098 E0.12931
G1 X27.368 Y51.916 E0.26737
G1 X28.165 Y51.944 E0.36307
G1 X28.650 Y52.002 E0.42169
G1 X29.327 Y52.175 E0.50554
G1 X29.823 Y52.349 E0.56861
G1 X30.781 Y52.860 E0.69890
G1 X31.652 Y53.604 E0.83636
G1 X32.242 Y54.341 E0.94965
G1 X32.756 Y55.295 E1.07969
G1 X33.031 Y56.166 E1.18930
G1 X33.154 Y56.891 E1.27754
G1 X33.167 Y70.140 E2.86742
G1 X33.167 Y79.430 E3.98222
G1 X38.295 Y79.439 E4.59758
G1 X42.221 Y79.439 E5.06870
G1 X42.230 Y72.170 E5.94098
G1 X42.230 Y65.398 E6.75362
G1 X42.288 Y64.718 E6.83552
G1 X42.359 Y64.271 E6.88983
G1 X42.524 Y63.651 E6.96682
G1 X42.755 Y63.051 E7.04397
G1 X43.083 Y62.409 E7.13049
G1 X43.734 Y61.513 E7.26339
G1 X44.245 Y61.002 E7.35011
G1 X44.775 Y60.574 E7.43186
G1 X45.443 Y60.164 E7.52591
G1 X45.858 Y59.958 E7.58151
G1 X46.518 Y59.703 E7.66641
G1 X47.602 Y59.475 E7.79934
G1 X48.324 Y59.434 E7.88612
G1 X49.175 Y59.481 E7.98840
G1 X50.007 Y59.612 E8.08947
G1 X50.828 Y59.831 E8.19143
G1 X51.621 Y60.136 E8.29339
G1 X52.375 Y60.521 E8.39498
G1 X53.085 Y60.982 E8.49656
G1 X53.745 Y61.515 E8.59837
G1 X54.346 Y62.116 E8.70036
G1 X54.879 Y62.776 E8.80216
G1 X55.340 Y63.486 E8.90374
G1 X55.725 Y64.240 E9.00534
G1 X56.030 Y65.033 E9.10729
G1 X56.249 Y65.854 E9.20926
G1 X56.380 Y66.686 E9.31033
G1 X56.422 Y67.447 E9.40179
G1 X56.422 Y70.249 E9.73803
G1 X56.367 Y70.882 E9.81427
G1 X56.162 Y71.635 E9.90792
G1 X55.837 Y72.323 E9.99923
G1 X55.399 Y72.948 E10.09081
G1 X54.850 Y73.493 E10.18364
G1 X54.223 Y73.929 E10.27529
G1 X53.523 Y74.255 E10.36795
G1 X52.772 Y74.452 E10.46112
G1 X52.014 Y74.515 E10.55239
G1 X51.253 Y74.447 E10.64407
G1 X50.295 Y74.192 E10.76304
G1 X50.295 Y80.495 E11.51940
G1 X50.259 Y81.152 E11.59836
G1 X50.144 Y81.882 E11.68704
G1 X49.951 Y82.603 E11.77660
G1 X49.683 Y83.297 E11.86588
G1 X49.348 Y83.956 E11.95459
G1 X48.944 Y84.578 E12.04359
G1 X48.477 Y85.157 E12.13285
G1 X47.914 Y85.720 E12.22840
G1 X47.093 Y86.343 E12.35207
G1 X46.143 Y86.871 E12.48250
G1 X45.394 Y87.160 E12.57883
G1 X44.673 Y87.353 E12.66840
G1 X43.863 Y87.481 E12.76681
G1 X37.114 Y87.504 E13.57669
G1 X32.113 Y87.504 E14.17681
G1 X31.454 Y87.468 E14.25601
G1 X30.724 Y87.353 E14.34469
G1 X29.958 Y87.148 E14.43984
G1 X29.103 Y86.789 E14.55112
G1 X28.644 Y86.553 E14.61306
G1 X28.028 Y86.153 E14.70119
G1 X27.410 Y85.654 E14.79651
G1 X26.704 Y84.903 E14.92020
G1 X26.076 Y84.009 E15.05130
G1 X25.712 Y83.293 E15.14769
G1 X25.446 Y82.600 E15.23676
G1 X25.255 Y81.885 E15.32557
G1 X25.124 Y81.073 E15.42427
G1 X25.093 Y62.248 E17.68328
G1 X25.051 Y62.228 E17.68886
G1 X24.473 Y61.868 E17.77057
G1 X23.649 Y61.153 E17.90149
G1 X22.964 Y60.235 E18.03893
G1 X22.614 Y59.511 E18.13543
G1 X22.428 Y59.016 E18.19889
G1 X22.223 Y58.047 E18.31774
G1 X22.188 Y57.316 E18.40556
G1 X22.264 Y56.503 E18.50355
G1 X22.470 Y55.669 E18.60664
G1 X22.716 Y55.066 E18.68479
G1 X23.037 Y54.470 E18.76602
G1 X23.654 Y53.670 E18.88726
G1 X24.183 Y53.172 E18.97444
G1 X24.772 Y52.756 E19.06097
G1 X25.229 Y52.492 E19.12430
G10
G0 F9000 X26.819 Y55.963
;TYPE:WALL-INNER
G11
G1 F1200 X26.889 Y55.922 E19.13404
G1 X27.238 Y55.785 E19.17903
G1 X27.601 Y55.727 E19.22314
G1 X27.952 Y55.746 E19.26532
G1 X28.294 Y55.840 E19.30788
G1 X28.629 Y56.018 E19.35341
G1 X28.906 Y56.255 E19.39715
G1 X29.061 Y56.449 E19.42695
G1 X29.241 Y56.783 E19.47248
G1 X29.327 Y57.056 E19.50683
G1 X29.354 Y57.214 E19.52606
G1 X29.367 Y80.424 E22.31126
G1 X29.382 Y80.715 E22.34623
G1 X29.504 Y81.281 E22.41571
G1 X29.616 Y81.575 E22.45346
G1 X29.905 Y82.075 E22.52276
G1 X30.301 Y82.515 E22.59380
G1 X30.781 Y82.864 E22.66502
G1 X31.307 Y83.097 E22.73405
G1 X31.608 Y83.178 E22.77146
G1 X31.917 Y83.228 E22.80902
G1 X38.288 Y83.239 E23.57354
G1 X43.213 Y83.239 E24.16454
G1 X43.511 Y83.225 E24.20034
G1 X44.060 Y83.107 E24.26772
G1 X44.351 Y82.996 E24.30510
G1 X44.629 Y82.854 E24.34256
G1 X45.097 Y82.515 E24.41190
G1 X45.483 Y82.086 E24.48115
G1 X45.661 Y81.811 E24.52046
G1 X45.888 Y81.299 E24.58767
G1 X45.969 Y80.998 E24.62508
G1 X46.019 Y80.690 E24.66252
G1 X46.030 Y65.563 E26.47776
G1 X46.083 Y65.055 E26.53905
G1 X46.143 Y64.828 E26.56723
G1 X46.231 Y64.599 E26.59667
G1 X46.331 Y64.403 E26.62307
G1 X46.633 Y63.988 E26.68466
G1 X46.967 Y63.687 E26.73862
G1 X47.288 Y63.490 E26.78381
G1 X47.386 Y63.442 E26.79691
G1 X47.604 Y63.358 E26.82494
G1 X48.103 Y63.252 E26.88616
G1 X48.327 Y63.240 E26.91308
G1 X48.769 Y63.264 E26.96619
G1 X49.219 Y63.335 E27.02086
G1 X49.654 Y63.451 E27.07489
G1 X50.067 Y63.610 E27.12799
G1 X50.478 Y63.820 E27.18338
G1 X50.854 Y64.064 E27.23716
G1 X51.198 Y64.342 E27.29024
G1 X51.519 Y64.663 E27.34472
G1 X51.797 Y65.007 E27.39779
G1 X52.041 Y65.383 E27.45158
G1 X52.251 Y65.794 E27.50696
G1 X52.410 Y66.207 E27.56007
G1 X52.526 Y66.642 E27.61409
G1 X52.597 Y67.092 E27.66876
G1 X52.622 Y70.082 E28.02757
G1 X52.611 Y70.214 E28.04347
G1 X52.583 Y70.314 E28.05593
G1 X52.541 Y70.404 E28.06785
G1 X52.480 Y70.491 E28.08060
G1 X52.405 Y70.566 E28.09333
G1 X52.323 Y70.622 E28.10524
G1 X52.227 Y70.667 E28.11796
G1 X52.146 Y70.688 E28.12801
G1 X52.152 Y69.530 E28.26697
G1 X52.157 Y67.521 E28.50805
G1 X52.138 Y67.135 E28.55443
G1 X52.075 Y66.738 E28.60266
G1 X51.970 Y66.350 E28.65090
G1 X51.827 Y65.976 E28.69894
G1 X51.645 Y65.618 E28.74714
G1 X51.426 Y65.282 E28.79527
G1 X51.173 Y64.970 E28.84347
G1 X50.891 Y64.688 E28.89133
G1 X50.579 Y64.435 E28.93953
G1 X50.243 Y64.216 E28.98766
G1 X49.885 Y64.034 E29.03585
G1 X49.511 Y63.891 E29.08390
G1 X49.123 Y63.786 E29.13213
G1 X48.726 Y63.723 E29.18037
G1 X48.323 Y63.703 E29.22879
G1 X48.087 Y63.718 E29.25717
G1 X47.850 Y63.764 E29.28614
G1 X47.624 Y63.842 E29.31483
G1 X47.408 Y63.947 E29.34365
G1 X47.192 Y64.092 E29.37486
G1 X46.867 Y64.417 E29.43002
G1 X46.639 Y64.815 E29.48506
G1 X46.555 Y65.060 E29.51614
G1 X46.505 Y65.315 E29.54732
G1 X46.495 Y80.394 E31.35680
G1 X46.476 Y80.745 E31.39899
G1 X46.421 Y81.093 E31.44126
G1 X46.332 Y81.426 E31.48263
G1 X46.208 Y81.746 E31.52381
G1 X46.050 Y82.057 E31.56567
G1 X45.865 Y82.342 E31.60644
G1 X45.644 Y82.616 E31.64868
G1 X45.413 Y82.847 E31.68789
G1 X45.006 Y83.156 E31.74921
G1 X44.532 Y83.419 E31.81426
G1 X44.217 Y83.541 E31.85479
G1 X43.884 Y83.630 E31.89616
G1 X43.554 Y83.682 E31.93624
G1 X37.107 Y83.704 E32.70989
G1 X32.212 Y83.704 E33.29729
G1 X31.861 Y83.685 E33.33947
G1 X31.513 Y83.630 E33.38175
G1 X31.185 Y83.542 E33.42250
G1 X30.722 Y83.348 E33.48274
G1 X30.546 Y83.258 E33.50646
G1 X30.264 Y83.074 E33.54687
G1 X30.000 Y82.861 E33.58757
G1 X29.659 Y82.498 E33.64734
G1 X29.341 Y82.045 E33.71376
G1 X29.188 Y81.744 E33.75427
G1 X29.067 Y81.430 E33.79465
G1 X28.975 Y81.086 E33.83739
G1 X28.924 Y80.767 E33.87615
G1 X28.888 Y58.985 E36.49000
G1 X28.183 Y59.031 E36.57478
G1 X27.749 Y59.091 E36.62735
G1 X27.496 Y59.079 E36.65774
G1 X27.202 Y59.023 E36.69366
G1 X26.871 Y58.885 E36.73669
G1 X26.737 Y58.801 E36.75567
G1 X26.451 Y58.553 E36.80110
G1 X26.226 Y58.252 E36.84619
G1 X26.086 Y57.946 E36.88657
G1 X26.004 Y57.556 E36.93440
G1 X25.996 Y57.402 E36.95290
G1 X26.020 Y57.146 E36.98376
G1 X26.094 Y56.849 E37.02049
G1 X26.237 Y56.543 E37.06102
G1 X26.477 Y56.231 E37.10825
G1 X26.593 Y56.122 E37.12735
G1 X26.819 Y55.963 E37.16051
G0 F9000 X26.343 Y55.809
;TYPE:WALL-OUTER
G1 F1200 X26.709 Y55.563 E37.21343
G1 X27.134 Y55.396 E37.26823
G1 X27.578 Y55.326 E37.32217
G1 X28.023 Y55.352 E37.37566
G1 X28.456 Y55.473 E37.42961
G1 X28.853 Y55.685 E37.48362
G1 X29.199 Y55.980 E37.53818
G1 X29.394 Y56.224 E37.57566
G1 X29.610 Y56.625 E37.63032
G1 X29.719 Y56.968 E37.67351
G1 X29.754 Y57.176 E37.69882
G1 X29.767 Y80.413 E40.48726
G1 X29.780 Y80.666 E40.51766
G1 X29.885 Y81.159 E40.57814
G1 X29.978 Y81.402 E40.60937
G1 X30.230 Y81.838 E40.66980
G1 X30.570 Y82.216 E40.73081
G1 X30.982 Y82.515 E40.79189
G1 X31.441 Y82.719 E40.85217
G1 X31.692 Y82.787 E40.88337
G1 X31.949 Y82.828 E40.91460
G1 X43.204 Y82.839 E42.26521
G1 X43.459 Y82.827 E42.29584
G1 X43.946 Y82.722 E42.35562
G1 X44.188 Y82.630 E42.38669
G1 X44.420 Y82.512 E42.41792
G1 X44.828 Y82.216 E42.47841
G1 X45.164 Y81.842 E42.53874
G1 X45.308 Y81.620 E42.57050
G1 X45.510 Y81.165 E42.63024
G1 X45.578 Y80.914 E42.66144
G1 X45.619 Y80.658 E42.69255
G1 X45.630 Y65.535 E44.50731
G1 X45.665 Y65.136 E44.55538
G1 X45.692 Y64.965 E44.57615
G1 X45.866 Y64.436 E44.64298
G1 X45.988 Y64.196 E44.67528
G1 X46.332 Y63.723 E44.74547
G1 X46.738 Y63.358 E44.81098
G1 X47.225 Y63.075 E44.87857
G1 X47.489 Y62.973 E44.91254
G1 X48.050 Y62.855 E44.98133
G1 X48.326 Y62.840 E45.01450
G1 X48.815 Y62.866 E45.07326
G1 X49.306 Y62.944 E45.13292
G1 X49.772 Y63.068 E45.19078
G1 X50.238 Y63.248 E45.25073
G1 X50.670 Y63.468 E45.30891
G1 X51.088 Y63.739 E45.36869
G1 X51.470 Y64.048 E45.42765
G1 X51.813 Y64.391 E45.48585
G1 X52.121 Y64.772 E45.54465
G1 X52.393 Y65.191 E45.60459
G1 X52.613 Y65.623 E45.66277
G1 X52.793 Y66.089 E45.72271
G1 X52.917 Y66.555 E45.78058
G1 X52.995 Y67.046 E45.84024
G1 X53.022 Y67.546 E45.90032
G1 X53.022 Y70.111 E46.20812
G1 X53.007 Y70.282 E46.22872
G1 X52.961 Y70.450 E46.24963
G1 X52.886 Y70.608 E46.27061
G1 X52.787 Y70.750 E46.29139
G1 X52.663 Y70.873 E46.31234
G1 X52.521 Y70.972 E46.33312
G1 X52.365 Y71.044 E46.35373
G1 X52.197 Y71.088 E46.37457
G1 X52.026 Y71.103 E46.39517
G1 X51.843 Y71.086 E46.41723
G1 X51.746 Y71.061 E46.42925
G1 X51.757 Y67.531 E46.85285
G1 X51.739 Y67.176 E46.89551
G1 X51.683 Y66.821 E46.93863
G1 X51.589 Y66.474 E46.98177
G1 X51.461 Y66.139 E47.02481
G1 X51.298 Y65.819 E47.06790
G1 X51.102 Y65.517 E47.11111
G1 X50.876 Y65.238 E47.15419
G1 X50.623 Y64.985 E47.19713
G1 X50.344 Y64.759 E47.24021
G1 X50.042 Y64.563 E47.28342
G1 X49.722 Y64.400 E47.32651
G1 X49.387 Y64.272 E47.36955
G1 X49.040 Y64.178 E47.41269
G1 X48.685 Y64.122 E47.45581
G1 X48.325 Y64.104 E47.49907
G1 X48.138 Y64.115 E47.52155
G1 X47.954 Y64.151 E47.54404
G1 X47.777 Y64.212 E47.56651
G1 X47.609 Y64.294 E47.58894
G1 X47.447 Y64.403 E47.61237
G1 X47.188 Y64.662 E47.65633
G1 X47.005 Y64.981 E47.70046
G1 X46.942 Y65.164 E47.72368
G1 X46.905 Y65.354 E47.74691
G1 X46.895 Y80.397 E49.55207
G1 X46.874 Y80.792 E49.59954
G1 X46.812 Y81.180 E49.64669
G1 X46.715 Y81.545 E49.69201
G1 X46.572 Y81.914 E49.73950
G1 X46.400 Y82.252 E49.78501
G1 X46.189 Y82.577 E49.83151
G1 X45.938 Y82.888 E49.87947
G1 X45.676 Y83.150 E49.92393
G1 X45.232 Y83.487 E49.99082
G1 X44.699 Y83.783 E50.06398
G1 X44.336 Y83.924 E50.11071
G1 X43.971 Y84.021 E50.15603
G1 X43.586 Y84.082 E50.20281
G1 X32.210 Y84.104 E51.56793
G1 X31.814 Y84.083 E51.61552
G1 X31.426 Y84.021 E51.66267
G1 X31.057 Y83.923 E51.70848
G1 X30.549 Y83.709 E51.77463
G1 X30.029 Y83.398 E51.84734
G1 X29.727 Y83.154 E51.89393
G1 X29.348 Y82.751 E51.96032
G1 X28.996 Y82.249 E52.03389
G1 X28.825 Y81.914 E52.07902
G1 X28.683 Y81.545 E52.12647
G1 X28.584 Y81.172 E52.17278
G1 X28.524 Y80.800 E52.21800
G1 X28.489 Y59.412 E54.78456
G1 X28.223 Y59.429 E54.81654
G1 X27.770 Y59.491 E54.87141
G1 X27.445 Y59.476 E54.91045
G1 X27.100 Y59.410 E54.95260
G1 X26.684 Y59.239 E55.00658
G1 X26.496 Y59.122 E55.03315
G1 X26.155 Y58.825 E55.08741
G1 X25.884 Y58.462 E55.14177
G1 X25.742 Y58.169 E55.18084
G1 X25.703 Y58.064 E55.19429
G1 X25.606 Y57.609 E55.25011
G1 X25.596 Y57.391 E55.27630
G1 X25.626 Y57.072 E55.31475
G1 X25.711 Y56.725 E55.35762
G1 X25.795 Y56.519 E55.38432
G1 X25.900 Y56.324 E55.41089
G1 X26.178 Y55.963 E55.46557
G1 X26.343 Y55.809 E55.49265
G0 F9000 X26.604 Y56.303
;TYPE:SKIN
G1 F1200 X29.215 Y58.914 E55.93575
G0 F9000 X29.028 Y59.293
G1 F1200 X29.122 Y59.669 E55.96726
G1 X29.123 Y60.235 E55.99885
G1 X29.123 Y60.801 E56.03026
G1 X29.124 Y61.368 E56.06156
G1 X29.124 Y61.934 E56.09263
G1 X29.124 Y62.500 E56.12371
G1 X29.126 Y63.067 E56.15466
G1 X29.126 Y63.633 E56.18540
G1 X29.127 Y64.199 E56.21630
G1 X29.128 Y64.766 E56.24709
G1 X29.128 Y65.332 E56.27765
G1 X29.129 Y65.898 E56.30822
G1 X29.129 Y66.465 E56.33867
G1 X29.130 Y67.031 E56.36889
G1 X29.130 Y67.597 E56.39894
G1 X29.131 Y68.163 E56.42900
G1 X29.132 Y68.730 E56.45894
G1 X29.133 Y69.296 E56.48882
G1 X29.133 Y69.862 E56.51854
G1 X29.134 Y70.429 E56.54813
G1 X29.134 Y70.995 E56.57751
G1 X29.135 Y71.561 E56.60688
G1 X29.136 Y72.128 E56.63614
G1 X29.136 Y72.694 E56.66518
G1 X29.137 Y73.260 E56.69421
G1 X29.137 Y73.826 E56.72308
G1 X29.138 Y74.393 E56.75217
G1 X29.139 Y74.959 E56.78103
G1 X29.139 Y75.526 E56.80995
G1 X29.140 Y76.092 E56.83848
G1 X29.140 Y76.658 E56.86683
G1 X29.141 Y77.224 E56.89519
G1 X29.142 Y77.791 E56.92343
G1 X29.142 Y78.357 E56.95161
G1 X29.143 Y78.923 E56.97980
G1 X29.144 Y79.490 E57.00787
G1 X29.144 Y80.056 E57.03554
G1 X29.151 Y80.629 E57.06322
G1 X29.302 Y81.345 E57.10405
G1 X29.734 Y82.060 E57.20430
G0 F9000 X30.521 Y82.847
G1 F1200 X31.260 Y83.303 E57.28115
G1 X31.970 Y83.447 E57.31853
G1 X32.553 Y83.465 E57.35143
G1 X33.118 Y83.464 E57.38397
G1 X33.684 Y83.464 E57.41640
G1 X34.249 Y83.464 E57.44844
G1 X34.815 Y83.464 E57.48019
G1 X35.380 Y83.463 E57.51172
G1 X35.945 Y83.463 E57.54291
G1 X36.511 Y83.463 E57.57381
G1 X37.076 Y83.462 E57.60432
G1 X37.642 Y83.462 E57.63471
G1 X38.208 Y83.462 E57.66494
G1 X38.772 Y83.462 E57.69455
G1 X39.338 Y83.461 E57.72426
G1 X39.903 Y83.461 E57.75359
G1 X40.469 Y83.461 E57.78245
G1 X41.034 Y83.461 E57.81110
G1 X41.600 Y83.460 E57.83929
G1 X42.165 Y83.460 E57.86742
G1 X42.730 Y83.460 E57.89522
G1 X43.289 Y83.453 E57.92289
G1 X43.799 Y83.397 E57.94967
G1 X44.245 Y83.278 E57.97529
G1 X44.634 Y83.101 E57.99786
G1 X45.044 Y82.945 E58.01957
G1 X45.224 Y82.560 E58.04099
G1 X45.632 Y82.401 E58.06411
G1 X45.801 Y82.005 E58.08607
G1 X45.993 Y81.631 E58.10940
G1 X46.146 Y81.218 E58.13306
G1 X46.234 Y80.741 E58.15969
G1 X46.257 Y80.198 E58.19115
G1 X46.257 Y79.632 E58.22426
G1 X46.257 Y79.067 E58.25749
G1 X46.257 Y78.501 E58.29077
G1 X46.258 Y77.936 E58.32399
G1 X46.259 Y77.371 E58.35721
G1 X46.259 Y76.806 E58.39043
G1 X46.260 Y76.241 E58.42349
G1 X46.260 Y75.675 E58.45660
G1 X46.260 Y75.110 E58.48982
G1 X46.260 Y74.544 E58.52310
G1 X46.261 Y73.979 E58.55632
G1 X46.262 Y73.414 E58.58954
G1 X46.262 Y72.849 E58.62277
G1 X46.262 Y72.284 E58.65599
G1 X46.262 Y71.718 E58.68910
G1 X46.263 Y71.153 E58.72232
G1 X46.263 Y70.587 E58.75543
G1 X46.264 Y70.022 E58.78865
G1 X46.264 Y69.457 E58.82188
G1 X46.264 Y68.892 E58.85493
G1 X46.265 Y68.327 E58.88781
G1 X46.265 Y67.761 E58.92092
G1 X46.266 Y67.196 E58.95381
G1 X46.266 Y66.630 E58.98692
G1 X46.266 Y66.065 E59.01997
G1 X46.266 Y65.500 E59.05302
G1 X46.344 Y65.011 E59.07872
G1 X46.500 Y64.602 E59.10275
G1 X46.661 Y64.197 E59.12459
G1 X47.066 Y64.036 E59.14642
G1 X47.267 Y63.672 E59.16813
G1 X47.734 Y63.573 E59.19147
G1 X48.210 Y63.484 E59.21588
G1 X48.802 Y63.510 E59.24841
G1 X49.522 Y63.664 E59.28707
G1 X50.152 Y64.012 E59.37343
G0 F9000 X51.847 Y65.706
G1 F1200 X52.195 Y66.337 E59.43418
G1 X52.349 Y67.057 E59.47305
G1 X52.377 Y67.650 E59.50280
G1 X52.379 Y68.218 E59.53159
G1 X52.380 Y68.784 E59.56131
G1 X52.381 Y69.352 E59.59232
G1 X52.383 Y69.919 E59.62430
G1 X52.449 Y70.268 E59.66692
G0 F9000 X51.799 Y65.009
G0 X48.103 Y63.251
G0 X46.029 Y65.566
G0 X45.887 Y81.298
G0 X44.628 Y82.853
G0 X43.212 Y83.239
G0 X31.307 Y83.096
G0 X29.907 Y82.073
G0 X29.367 Y80.423
G0 X29.214 Y58.347
G1 F1200 X26.928 Y56.061 E60.05487
G0 F9000 X27.343 Y55.910
G1 F1200 X29.214 Y57.781 E60.37239
G0 F9000 X29.212 Y57.214
G1 F1200 X27.881 Y55.882 E60.59835
G0 F9000 X26.354 Y56.618
G1 F1200 X28.598 Y58.863 E60.97926
G0 F9000 X28.074 Y58.904
G1 F1200 X26.194 Y57.023 E61.29839
G0 F9000 X26.143 Y57.538
G1 F1200 X27.543 Y58.939 E61.53606
;LAYER:1
M106 S5
G0 F9000 X27.536 Y59.175 Z0.400
;TYPE:WALL-INNER
G1 F1620 X27.369 Y59.156 E61.54279
G1 X26.993 Y59.042 E61.55850
G1 X26.654 Y58.855 E61.57399
G1 X26.516 Y58.745 E61.58105
G1 X26.250 Y58.452 E61.59688
G1 X26.052 Y58.107 E61.61279
G1 X25.990 Y57.941 E61.61988
G1 X25.943 Y57.769 E61.62701
G1 X25.914 Y57.583 E61.63454
G1 X25.906 Y57.396 E61.64202
G1 X25.922 Y57.184 E61.65053
G1 X25.955 Y57.007 E61.65773
G1 X26.083 Y56.636 E61.67343
G1 X26.159 Y56.494 E61.67987
G1 X26.399 Y56.184 E61.69555
