;FLAVOR:UltiGCode
;TIME:9973
;MATERIAL:11475
;MATERIAL2:0

;Layer count: 354
;LAYER:0
M107
G0 F9000 X24.745 Y36.341 Z0.300
;TYPE:SKIRT
G1 F1200 X64.635 Y36.341 E4.78680
G1 X68.017 Y39.723 E5.36074
G1 X68.017 Y49.067 E6.48202
G1 X64.635 Y52.449 E7.05597
G1 X60.380 Y52.449 E7.56657
G1 X60.380 Y56.351 E8.03481
G1 X29.000 Y56.351 E11.80041
G1 X29.000 Y52.449 E12.26865
G1 X24.745 Y52.449 E12.77925
G1 X21.363 Y49.067 E13.35319
G1 X21.363 Y39.723 E14.47447
G1 X24.745 Y36.341 E15.04842
G0 F9000 X24.911 Y36.741
G1 F1200 X64.469 Y36.741 E19.79538
G1 X67.617 Y39.889 E20.32961
G1 X67.617 Y48.901 E21.41105
G1 X64.469 Y52.049 E21.94528
G1 X59.980 Y52.049 E22.48396
G1 X59.980 Y55.951 E22.95220
G1 X29.400 Y55.951 E26.62180
G1 X29.400 Y52.049 E27.09004
G1 X24.911 Y52.049 E27.62872
G1 X21.763 Y48.901 E28.16296
G1 X21.763 Y39.889 E29.24440
G1 X24.911 Y36.741 E29.77863
G10
G0 F9000 X26.952 Y40.680
;TYPE:FILL
G11
G1 F1200 X27.338 Y41.066 E29.84414
G0 F9000 X26.468 Y41.811
G1 F1200 X25.939 Y41.282 E29.93391
G0 F9000 X25.702 Y42.660
G1 F1200 X25.839 Y42.796 E29.95708
G0 F9000 X25.716 Y45.903
G1 F1200 X25.865 Y46.053 E29.98245
G0 F9000 X27.746 Y47.934
G1 F1200 X27.891 Y48.079 E30.00706
G0 F9000 X52.206 Y48.174
G0 X60.400 Y48.151
G0 X61.654 Y47.926
G1 F1200 X61.837 Y48.109 E30.03811
G0 F9000 X62.615 Y47.272
G1 F1200 X63.145 Y47.802 E30.12806
G0 F9000 X63.676 Y46.718
G1 F1200 X63.336 Y46.378 E30.18576
G0 F9000 X63.741 Y44.328
G0 X63.676 Y41.873
G1 F1200 X62.484 Y40.681 E30.38804
G0 F9000 X62.896 Y40.541
;TYPE:WALL-INNER
G1 F1200 X63.817 Y41.462 E30.54434
G1 X63.817 Y47.328 E31.24826
G1 X62.896 Y48.249 E31.40456
G1 X54.711 Y48.249 E32.38676
G1 X54.711 Y49.392 E32.52392
G1 X56.180 Y51.938 E32.87665
G1 X56.180 Y52.151 E32.90221
G1 X33.200 Y52.151 E35.65981
G1 X33.200 Y51.937 E35.68549
G1 X34.570 Y49.562 E36.01451
G1 X34.669 Y49.400 E36.03729
G1 X34.669 Y48.249 E36.17541
G1 X26.484 Y48.249 E37.15761
G1 X25.563 Y47.328 E37.31391
G1 X25.563 Y41.462 E38.01783
G1 X26.484 Y40.541 E38.17413
G1 X62.896 Y40.541 E42.54357
G0 F9000 X62.356 Y41.467
G1 F1200 X61.940 Y41.169 E42.60497
G1 X61.442 Y40.913 E42.67217
G1 X60.912 Y40.734 E42.73930
G1 X60.363 Y40.634 E42.80626
G1 X59.863 Y40.616 E42.86630
G1 X59.784 Y40.618 E42.87578
G1 X59.245 Y40.681 E42.94090
G1 X58.705 Y40.828 E43.00806
G1 X58.227 Y41.033 E43.07047
G1 X57.746 Y41.329 E43.13825
G1 X57.303 Y41.707 E43.20813
G1 X56.934 Y42.132 E43.27567
G1 X56.656 Y42.558 E43.33671
G1 X56.434 Y43.028 E43.39909
G1 X56.265 Y43.599 E43.47055
G1 X56.189 Y44.115 E43.53313
G1 X56.187 Y44.638 E43.59589
G1 X56.271 Y45.227 E43.66729
G1 X56.435 Y45.767 E43.73501
G1 X56.681 Y46.278 E43.80307
G1 X57.004 Y46.751 E43.87180
G1 X57.353 Y47.134 E43.93398
G1 X57.789 Y47.491 E44.00160
G1 X58.230 Y47.758 E44.06346
G1 X58.748 Y47.978 E44.13100
G1 X59.322 Y48.120 E44.20195
G1 X59.841 Y48.175 E44.26458
G1 X60.401 Y48.153 E44.33183
G1 X60.953 Y48.046 E44.39931
G1 X61.484 Y47.857 E44.46694
G1 X61.944 Y47.617 E44.52920
G1 X62.408 Y47.280 E44.59802
G1 X62.818 Y46.874 E44.66726
G1 X63.125 Y46.470 E44.72815
G1 X63.396 Y45.983 E44.79503
G1 X63.590 Y45.463 E44.86163
G1 X63.705 Y44.953 E44.92437
G1 X63.745 Y44.408 E44.98994
G1 X63.697 Y43.799 E45.06325
G1 X63.580 Y43.290 E45.12592
G1 X63.376 Y42.766 E45.19340
G1 X63.092 Y42.271 E45.26188
G1 X62.729 Y41.819 E45.33145
G1 X62.356 Y41.467 E45.39299
G0 F9000 X60.362 Y40.635
G0 X58.227 Y41.034
G0 X56.657 Y42.558
G0 X55.930 Y43.250
G1 F1200 X55.739 Y42.764 E45.45565
G1 X55.455 Y42.271 E45.52393
G1 X55.093 Y41.819 E45.59342
G1 X54.719 Y41.467 E45.65505
G1 X54.303 Y41.169 E45.71646
G1 X53.805 Y40.913 E45.78365
G1 X53.276 Y40.734 E45.85067
G1 X52.727 Y40.634 E45.91763
G1 X52.227 Y40.616 E45.97767
G1 X52.148 Y40.618 E45.98715
G1 X51.609 Y40.681 E46.05227
G1 X51.068 Y40.828 E46.11955
G1 X50.591 Y41.033 E46.18185
G1 X50.109 Y41.329 E46.24973
G1 X49.666 Y41.707 E46.31961
G1 X49.297 Y42.132 E46.38715
G1 X49.019 Y42.558 E46.44819
G1 X48.798 Y43.029 E46.51062
G1 X48.629 Y43.599 E46.58197
G1 X48.553 Y44.115 E46.64455
G1 X48.551 Y44.638 E46.70731
G1 X48.635 Y45.227 E46.77871
G1 X48.799 Y45.766 E46.84632
G1 X49.044 Y46.277 E46.91432
G1 X49.367 Y46.751 E46.98315
G1 X49.716 Y47.134 E47.04533
G1 X50.153 Y47.491 E47.11305
G1 X50.594 Y47.759 E47.17497
G1 X51.112 Y47.978 E47.24246
G1 X51.686 Y48.120 E47.31341
G1 X52.205 Y48.175 E47.37604
G1 X52.765 Y48.153 E47.44329
G1 X53.317 Y48.045 E47.51079
G1 X53.847 Y47.857 E47.57827
G1 X54.307 Y47.617 E47.64053
G1 X54.770 Y47.281 E47.70918
G1 X55.185 Y46.871 E47.77919
G1 X55.510 Y46.432 E47.84473
G1 X55.760 Y45.983 E47.90640
G1 X55.954 Y45.463 E47.97300
G1 X56.069 Y44.953 E48.03574
G1 X56.109 Y44.408 E48.10132
G1 X56.060 Y43.796 E48.17499
G1 X55.930 Y43.250 E48.24234
G0 F9000 X54.718 Y41.467
G0 X52.726 Y40.635
G0 X50.591 Y41.034
G0 X49.020 Y42.559
G0 X48.465 Y44.152
G1 F1200 X48.380 Y43.564 E48.31364
G1 X48.216 Y43.025 E48.38124
G1 X47.973 Y42.517 E48.44882
G1 X47.688 Y42.088 E48.51062
G1 X47.300 Y41.658 E48.58012
G1 X46.862 Y41.299 E48.64808
G1 X46.421 Y41.032 E48.70995
G1 X45.905 Y40.812 E48.77726
G1 X45.329 Y40.670 E48.84845
G1 X44.811 Y40.615 E48.91096
G1 X44.252 Y40.637 E48.97809
G1 X43.700 Y40.744 E49.04556
G1 X43.169 Y40.932 E49.11316
G1 X42.709 Y41.171 E49.17537
G1 X42.248 Y41.508 E49.24389
G1 X41.875 Y41.868 E49.30610
G1 X41.528 Y42.320 E49.37448
G1 X41.257 Y42.808 E49.44146
G1 X41.063 Y43.328 E49.50806
G1 X40.948 Y43.838 E49.57080
G1 X40.908 Y44.382 E49.63626
G1 X40.956 Y44.992 E49.70968
G1 X41.073 Y45.501 E49.77236
G1 X41.277 Y46.025 E49.83983
G1 X41.561 Y46.521 E49.90842
G1 X41.924 Y46.971 E49.97780
G1 X42.299 Y47.326 E50.03976
G1 X42.752 Y47.641 E50.10597
G1 X43.214 Y47.878 E50.16828
G1 X43.777 Y48.064 E50.23943
G1 X44.290 Y48.156 E50.30198
G1 X44.812 Y48.176 E50.36466
G1 X45.405 Y48.109 E50.43628
G1 X45.947 Y47.962 E50.50367
G1 X46.424 Y47.757 E50.56597
G1 X46.906 Y47.461 E50.63384
G1 X47.349 Y47.084 E50.70365
G1 X47.718 Y46.659 E50.77119
G1 X47.996 Y46.233 E50.83223
G1 X48.217 Y45.762 E50.89466
G1 X48.386 Y45.193 E50.96589
G1 X48.463 Y44.677 E51.02850
G1 X48.465 Y44.152 E51.09150
G0 F9000 X47.688 Y42.089
G0 X45.904 Y40.813
G0 X43.701 Y40.745
G0 X41.876 Y41.869
G0 X40.949 Y43.838
G0 X40.829 Y44.153
G1 F1200 X40.745 Y43.564 E51.16289
G1 X40.581 Y43.025 E51.23050
G1 X40.338 Y42.517 E51.29808
G1 X40.053 Y42.088 E51.35988
G1 X39.665 Y41.658 E51.42938
G1 X39.227 Y41.299 E51.49734
G1 X38.786 Y41.031 E51.55927
G1 X38.268 Y40.812 E51.62675
G1 X37.694 Y40.670 E51.69771
G1 X37.175 Y40.615 E51.76034
G1 X36.615 Y40.637 E51.82759
G1 X36.063 Y40.745 E51.89509
G1 X35.533 Y40.932 E51.96253
G1 X35.073 Y41.171 E52.02473
G1 X34.612 Y41.507 E52.09319
G1 X34.238 Y41.868 E52.15557
G1 X33.892 Y42.319 E52.22378
G1 X33.620 Y42.807 E52.29082
G1 X33.426 Y43.328 E52.35753
G1 X33.311 Y43.838 E52.42027
G1 X33.271 Y44.382 E52.48573
G1 X33.320 Y44.995 E52.55952
G1 X33.450 Y45.541 E52.62687
G1 X33.641 Y46.027 E52.68953
G1 X33.923 Y46.517 E52.75738
G1 X34.241 Y46.925 E52.81945
G1 X34.663 Y47.325 E52.88923
G1 X35.116 Y47.641 E52.95551
G1 X35.578 Y47.878 E53.01781
G1 X36.140 Y48.064 E53.08885
G1 X36.653 Y48.156 E53.15139
G1 X37.176 Y48.176 E53.21420
G1 X37.770 Y48.109 E53.28593
G1 X38.312 Y47.962 E53.35332
G1 X38.789 Y47.757 E53.41562
G1 X39.271 Y47.461 E53.48350
G1 X39.714 Y47.084 E53.55330
G1 X40.083 Y46.659 E53.62084
G1 X40.361 Y46.233 E53.68189
G1 X40.582 Y45.762 E53.74432
G1 X40.751 Y45.192 E53.81566
G1 X40.827 Y44.676 E53.87825
G1 X40.829 Y44.153 E53.94101
G0 F9000 X40.053 Y42.089
G0 X38.268 Y40.813
G0 X36.063 Y40.745
G0 X34.239 Y41.869
G0 X33.312 Y43.838
G0 X33.193 Y44.153
G1 F1200 X33.109 Y43.564 E54.01241
G1 X32.945 Y43.024 E54.08013
G1 X32.701 Y42.517 E54.14765
G1 X32.416 Y42.088 E54.20945
G1 X32.028 Y41.658 E54.27895
G1 X31.591 Y41.299 E54.34682
G1 X31.150 Y41.032 E54.40868
G1 X30.632 Y40.812 E54.47622
G1 X30.058 Y40.670 E54.54717
G1 X29.539 Y40.615 E54.60980
G1 X28.979 Y40.637 E54.67705
G1 X28.427 Y40.744 E54.74453
G1 X27.896 Y40.932 E54.81212
G1 X27.436 Y41.171 E54.87433
G1 X26.975 Y41.508 E54.94285
G1 X26.602 Y41.868 E55.00506
G1 X26.255 Y42.320 E55.07344
G1 X25.984 Y42.808 E55.14042
G1 X25.790 Y43.328 E55.20703
G1 X25.675 Y43.838 E55.26976
G1 X25.635 Y44.382 E55.33522
G1 X25.683 Y44.992 E55.40865
G1 X25.800 Y45.501 E55.47132
G1 X26.004 Y46.025 E55.53880
G1 X26.288 Y46.521 E55.60738
G1 X26.651 Y46.971 E55.67676
G1 X27.026 Y47.326 E55.73873
G1 X27.479 Y47.641 E55.80494
G1 X27.941 Y47.878 E55.86725
G1 X28.504 Y48.064 E55.93840
G1 X29.017 Y48.156 E56.00094
G1 X29.540 Y48.176 E56.06375
G1 X30.134 Y48.109 E56.13548
G1 X30.675 Y47.962 E56.20275
G1 X31.153 Y47.757 E56.26516
G1 X31.634 Y47.461 E56.33294
G1 X32.077 Y47.084 E56.40274
G1 X32.446 Y46.659 E56.47028
G1 X32.724 Y46.233 E56.53132
G1 X32.946 Y45.763 E56.59370
G1 X33.115 Y45.192 E56.66516
G1 X33.191 Y44.676 E56.72775
G1 X33.193 Y44.153 E56.79051
G0 F9000 X32.793 Y44.180
;TYPE:WALL-OUTER
G1 F1200 X32.718 Y43.651 E56.85462
G1 X32.571 Y43.170 E56.91498
G1 X32.352 Y42.715 E56.97557
G1 X32.099 Y42.334 E57.03045
G1 X31.751 Y41.948 E57.09282
G1 X31.359 Y41.626 E57.15369
G1 X30.967 Y41.389 E57.20866
G1 X30.505 Y41.193 E57.26889
G1 X29.989 Y41.065 E57.33268
G1 X29.526 Y41.016 E57.38855
G1 X29.026 Y41.036 E57.44860
G1 X28.532 Y41.131 E57.50897
G1 X28.056 Y41.300 E57.56958
G1 X27.647 Y41.512 E57.62486
G1 X27.233 Y41.815 E57.68643
G1 X26.901 Y42.135 E57.74176
G1 X26.590 Y42.540 E57.80304
G1 X26.348 Y42.976 E57.86288
G1 X26.174 Y43.443 E57.92268
G1 X26.072 Y43.897 E57.97852
G1 X26.036 Y44.391 E58.03795
G1 X26.037 Y44.439 E58.04372
G1 X26.079 Y44.930 E58.10285
G1 X26.183 Y45.383 E58.15862
G1 X26.366 Y45.852 E58.21904
G1 X26.619 Y46.294 E58.28015
G1 X26.946 Y46.699 E58.34262
G1 X27.279 Y47.015 E58.39770
G1 X27.686 Y47.298 E58.45719
G1 X28.096 Y47.508 E58.51247
G1 X28.603 Y47.675 E58.57652
G1 X29.060 Y47.757 E58.63224
G1 X29.525 Y47.775 E58.68808
G1 X30.059 Y47.715 E58.75256
G1 X30.543 Y47.583 E58.81277
G1 X30.968 Y47.401 E58.86825
G1 X31.398 Y47.136 E58.92886
G1 X31.795 Y46.799 E58.99135
G1 X32.126 Y46.418 E59.05191
G1 X32.374 Y46.038 E59.10636
G1 X32.571 Y45.620 E59.16181
G1 X32.724 Y45.106 E59.22617
G1 X32.791 Y44.646 E59.28195
G1 X32.793 Y44.180 E59.33787
G0 F9000 X33.673 Y44.440
G1 F1200 X33.716 Y44.931 E59.39702
G1 X33.833 Y45.421 E59.45747
G1 X34.002 Y45.853 E59.51314
G1 X34.256 Y46.293 E59.57410
G1 X34.538 Y46.656 E59.62926
G1 X34.916 Y47.014 E59.69174
G1 X35.323 Y47.298 E59.75129
G1 X35.733 Y47.508 E59.80657
G1 X36.239 Y47.675 E59.87051
G1 X36.696 Y47.757 E59.92623
G1 X37.161 Y47.775 E59.98207
G1 X37.695 Y47.715 E60.04655
G1 X38.180 Y47.583 E60.10687
G1 X38.604 Y47.401 E60.16224
G1 X39.035 Y47.136 E60.22295
G1 X39.432 Y46.799 E60.28544
G1 X39.763 Y46.418 E60.34601
G1 X40.011 Y46.038 E60.40046
G1 X40.207 Y45.619 E60.45597
G1 X40.360 Y45.106 E60.52021
G1 X40.427 Y44.646 E60.57599
G1 X40.429 Y44.180 E60.63191
G1 X40.354 Y43.651 E60.69603
G1 X40.207 Y43.170 E60.75638
G1 X39.989 Y42.715 E60.81692
G1 X39.736 Y42.334 E60.87181
G1 X39.388 Y41.948 E60.93417
G1 X38.996 Y41.626 E60.99505
G1 X38.603 Y41.388 E61.05018
G1 X38.141 Y41.193 E61.11036
G1 X37.625 Y41.065 E61.17415
G1 X37.162 Y41.016 E61.23002
G1 X36.662 Y41.036 E61.29007
G1 X36.168 Y41.132 E61.35046
G1 X35.693 Y41.300 E61.41092
G1 X35.284 Y41.512 E61.46620
G1 X34.870 Y41.814 E61.52770
G1 X34.537 Y42.135 E61.58320
G1 X34.227 Y42.540 E61.64440
G1 X33.984 Y42.976 E61.70430
G1 X33.810 Y43.443 E61.76410
G1 X33.708 Y43.897 E61.81994
G1 X33.672 Y44.391 E61.87938
G1 X33.673 Y44.440 E61.88526
G0 F9000 X33.373 Y44.444
G0 X33.451 Y45.540
G0 X34.569 Y48.649
G0 X34.269 Y48.649
G1 F1200 X26.318 Y48.649 E62.83938
G1 X25.163 Y47.494 E63.03539
G1 X25.163 Y41.296 E63.77915
G1 X26.318 Y40.141 E63.97516
G1 X63.062 Y40.141 E68.38444
G1 X64.217 Y41.296 E68.58045
G1 X64.217 Y47.494 E69.32421
G1 X63.062 Y48.649 E69.52022
G1 X55.111 Y48.649 E70.47434
G1 X55.111 Y49.285 E70.55066
G1 X56.580 Y51.831 E70.90339
G1 X56.580 Y52.551 E70.98979
G1 X32.800 Y52.551 E73.84339
G1 X32.800 Y51.829 E73.93003
G1 X34.229 Y49.353 E74.27308
G1 X34.269 Y49.287 E74.28234
G1 X34.269 Y48.649 E74.35890
G0 F9000 X34.569 Y48.649
G0 X38.789 Y47.756
G0 X41.359 Y45.960
G0 X41.639 Y45.852
G1 F1200 X41.892 Y46.294 E74.42002
G1 X42.219 Y46.699 E74.48248
G1 X42.552 Y47.015 E74.53757
G1 X42.959 Y47.298 E74.59705
G1 X43.369 Y47.508 E74.65233
G1 X43.876 Y47.675 E74.71639
G1 X44.333 Y47.757 E74.77210
G1 X44.797 Y47.775 E74.82783
G1 X45.330 Y47.715 E74.89219
G1 X45.815 Y47.583 E74.95251
G1 X46.239 Y47.401 E75.00788
G1 X46.670 Y47.136 E75.06859
G1 X47.067 Y46.799 E75.13108
G1 X47.398 Y46.418 E75.19164
G1 X47.646 Y46.038 E75.24610
G1 X47.842 Y45.619 E75.30161
G1 X47.995 Y45.106 E75.36584
G1 X48.063 Y44.646 E75.42164
G1 X48.065 Y44.180 E75.47757
G1 X47.989 Y43.651 E75.54170
G1 X47.842 Y43.170 E75.60205
G1 X47.624 Y42.715 E75.66260
G1 X47.371 Y42.334 E75.71748
G1 X47.023 Y41.948 E75.77984
G1 X46.631 Y41.626 E75.84072
G1 X46.238 Y41.389 E75.89579
G1 X45.778 Y41.193 E75.95579
G1 X45.260 Y41.065 E76.01982
G1 X44.798 Y41.016 E76.07557
G1 X44.299 Y41.036 E76.13550
G1 X43.805 Y41.131 E76.19587
G1 X43.329 Y41.300 E76.25648
G1 X42.920 Y41.512 E76.31176
G1 X42.506 Y41.815 E76.37333
G1 X42.174 Y42.135 E76.42866
G1 X41.863 Y42.540 E76.48994
G1 X41.621 Y42.976 E76.54977
G1 X41.447 Y43.443 E76.60958
G1 X41.345 Y43.897 E76.66542
G1 X41.309 Y44.391 E76.72485
G1 X41.310 Y44.439 E76.73061
G1 X41.352 Y44.930 E76.78975
G1 X41.456 Y45.383 E76.84552
G1 X41.639 Y45.852 E76.90594
G0 F9000 X41.359 Y45.960
G0 X42.300 Y47.325
G0 X44.291 Y48.155
G0 X46.424 Y47.756
G0 X47.995 Y46.232
G0 X48.652 Y44.610
G0 X48.951 Y44.611
G1 F1200 X49.026 Y45.140 E76.97005
G1 X49.173 Y45.621 E77.03041
G1 X49.391 Y46.077 E77.09106
G1 X49.682 Y46.502 E77.15287
G1 X49.992 Y46.843 E77.20817
G1 X50.384 Y47.164 E77.26897
G1 X50.777 Y47.402 E77.32410
G1 X51.239 Y47.597 E77.38428
G1 X51.755 Y47.725 E77.44808
G1 X52.218 Y47.774 E77.50395
G1 X52.718 Y47.754 E77.56399
G1 X53.212 Y47.658 E77.62438
G1 X53.687 Y47.490 E77.68484
G1 X54.096 Y47.276 E77.74023
G1 X54.511 Y46.975 E77.80175
G1 X54.882 Y46.608 E77.86438
G1 X55.173 Y46.215 E77.92306
G1 X55.396 Y45.815 E77.97801
G1 X55.570 Y45.348 E78.03782
G1 X55.672 Y44.894 E78.09366
G1 X55.708 Y44.399 E78.15321
G1 X55.707 Y44.350 E78.15909
G1 X55.664 Y43.860 E78.21812
G1 X55.547 Y43.370 E78.27857
G1 X55.378 Y42.938 E78.33424
G1 X55.124 Y42.497 E78.39531
G1 X54.798 Y42.091 E78.45779
G1 X54.464 Y41.776 E78.51288
G1 X54.094 Y41.512 E78.56743
G1 X53.648 Y41.282 E78.62764
G1 X53.175 Y41.122 E78.68756
G1 X52.684 Y41.033 E78.74744
G1 X52.226 Y41.016 E78.80244
G1 X52.177 Y41.017 E78.80832
G1 X51.685 Y41.075 E78.86777
G1 X51.200 Y41.207 E78.92809
G1 X50.776 Y41.389 E78.98346
G1 X50.345 Y41.654 E79.04417
G1 X49.948 Y41.992 E79.10674
G1 X49.617 Y42.373 E79.16730
G1 X49.369 Y42.753 E79.22176
G1 X49.173 Y43.172 E79.27726
G1 X49.020 Y43.685 E79.34150
G1 X48.953 Y44.145 E79.39729
G1 X48.951 Y44.611 E79.45321
G0 F9000 X48.652 Y44.610
G0 X49.044 Y46.276
G0 X50.594 Y47.758
G0 X52.764 Y48.151
G0 X54.770 Y47.280
G0 X55.953 Y45.462
G0 X56.288 Y44.610
G0 X56.587 Y44.611
G1 F1200 X56.662 Y45.140 E79.51732
G1 X56.809 Y45.621 E79.57768
G1 X57.028 Y46.077 E79.63838
G1 X57.319 Y46.502 E79.70019
G1 X57.629 Y46.843 E79.75549
G1 X58.021 Y47.164 E79.81629
G1 X58.413 Y47.401 E79.87126
G1 X58.875 Y47.597 E79.93148
G1 X59.391 Y47.725 E79.99528
G1 X59.854 Y47.774 E80.05115
G1 X60.354 Y47.754 E80.11120
G1 X60.848 Y47.659 E80.17156
G1 X61.324 Y47.490 E80.23218
G1 X61.733 Y47.276 E80.28757
G1 X62.148 Y46.975 E80.34909
G1 X62.517 Y46.609 E80.41146
G1 X62.790 Y46.251 E80.46548
G1 X63.032 Y45.815 E80.52532
G1 X63.206 Y45.348 E80.58513
G1 X63.308 Y44.894 E80.64096
G1 X63.344 Y44.399 E80.70052
G1 X63.343 Y44.350 E80.70640
G1 X63.301 Y43.861 E80.76530
G1 X63.197 Y43.408 E80.82107
G1 X63.014 Y42.939 E80.88148
G1 X62.761 Y42.497 E80.94260
G1 X62.434 Y42.091 E81.00516
G1 X62.101 Y41.776 E81.06016
G1 X61.731 Y41.512 E81.11470
G1 X61.285 Y41.282 E81.17492
G1 X60.811 Y41.122 E81.23496
G1 X60.320 Y41.033 E81.29484
G1 X59.862 Y41.016 E81.34983
G1 X59.813 Y41.017 E81.35571
G1 X59.321 Y41.075 E81.41516
