;FLAVOR:UltiGCode
;TIME:4811
;MATERIAL:11210
;MATERIAL2:0

;Layer count: 79
;LAYER:0
M107
G0 F9000 X49.080 Y51.244 Z0.300
;TYPE:SKIRT
G1 F1800 X53.146 Y51.244 E0.48792
G1 X53.146 Y51.177 E0.49596
G1 X61.772 Y51.292 E1.53117
G1 X61.772 Y61.258 E2.72709
G1 X62.564 Y61.258 E2.82213
G1 X62.666 Y65.125 E3.28633
G1 X62.643 Y65.962 E3.38681
G1 X62.625 Y66.600 E3.46340
G1 X62.626 Y66.629 E3.46688
G1 X62.606 Y67.406 E3.56015
G1 X62.589 Y68.116 E3.64538
G1 X62.573 Y68.835 E3.73168
G1 X62.559 Y69.552 E3.81774
G1 X62.533 Y70.991 E3.99045
G1 X62.534 Y70.991 E3.99057
G1 X62.522 Y71.718 E4.07782
G1 X62.511 Y72.441 E4.16459
G1 X62.479 Y76.644 E4.66896
G1 X61.508 Y76.644 E4.78548
G1 X61.508 Y85.852 E5.89044
G1 X56.857 Y85.870 E6.44857
G1 X54.216 Y85.870 E6.76549
G1 X53.990 Y85.871 E6.79261
G1 X53.779 Y85.870 E6.81793
G1 X53.014 Y85.870 E6.90973
G1 X53.014 Y85.866 E6.91021
G1 X49.344 Y85.849 E7.35061
G1 X49.344 Y76.644 E8.45521
G1 X48.403 Y76.644 E8.56813
G1 X48.330 Y72.105 E9.11288
G1 X48.318 Y71.267 E9.21345
G1 X48.319 Y71.267 E9.21357
G1 X48.274 Y68.759 E9.51458
G1 X48.255 Y67.921 E9.61517
G1 X48.237 Y67.053 E9.71935
G1 X48.194 Y65.317 E9.92773
G1 X48.196 Y65.269 E9.93350
G1 X48.163 Y61.258 E10.41483
G1 X49.080 Y61.258 E10.52487
G1 X49.080 Y51.244 E11.72655
G0 F9000 X49.480 Y51.644
G1 F1800 X53.546 Y51.644 E12.21447
G1 X53.546 Y51.582 E12.22191
G1 X61.372 Y51.686 E13.16112
G1 X61.372 Y61.658 E14.35776
G1 X62.174 Y61.658 E14.45400
G1 X62.266 Y65.125 E14.87018
G1 X62.243 Y65.951 E14.96934
G1 X62.225 Y66.585 E15.04545
G1 X62.226 Y66.629 E15.05073
G1 X62.206 Y67.395 E15.14268
G1 X62.189 Y68.107 E15.22815
G1 X62.173 Y68.827 E15.31457
G1 X62.159 Y69.545 E15.40075
G1 X62.133 Y70.985 E15.57358
G1 X62.134 Y70.985 E15.57370
G1 X62.122 Y71.712 E15.66095
G1 X62.111 Y72.435 E15.74772
G1 X62.082 Y76.244 E16.20481
G1 X61.108 Y76.244 E16.32169
G1 X61.108 Y85.454 E17.42689
G1 X56.856 Y85.470 E17.93713
G1 X54.219 Y85.470 E18.25357
G1 X53.990 Y85.471 E18.28105
G1 X53.778 Y85.470 E18.30649
G1 X53.414 Y85.470 E18.35017
G1 X53.414 Y85.468 E18.35041
G1 X49.744 Y85.451 E18.79082
G1 X49.744 Y76.244 E19.89566
G1 X48.797 Y76.244 E20.00930
G1 X48.730 Y72.099 E20.50676
G1 X48.718 Y71.261 E20.60733
G1 X48.719 Y71.261 E20.60745
G1 X48.674 Y68.752 E20.90858
G1 X48.655 Y67.912 E21.00941
G1 X48.637 Y67.045 E21.11347
G1 X48.594 Y65.322 E21.32030
G1 X48.596 Y65.277 E21.32570
G1 X48.566 Y61.658 E21.76000
G1 X49.480 Y61.658 E21.86968
G1 X49.480 Y51.644 E23.07136
G10
G0 F9000 X53.280 Y55.444
;TYPE:WALL-INNER
G11
G1 F1800 X53.506 Y55.444 E23.09848
G1 X53.506 Y65.458 E24.30016
G1 X57.346 Y65.458 E24.76096
G1 X57.346 Y55.433 E25.96396
G1 X57.572 Y55.436 E25.99108
G1 X57.572 Y65.458 E27.19372
G1 X58.455 Y65.458 E27.29968
G1 X58.424 Y66.584 E27.43485
G1 X58.425 Y66.622 E27.43941
G1 X58.407 Y67.296 E27.52032
G1 X58.374 Y68.743 E27.69400
G1 X58.334 Y70.921 E27.95541
G1 X58.311 Y72.380 E28.13051
G1 X58.311 Y72.444 E28.13819
G1 X57.308 Y72.444 E28.25855
G1 X57.308 Y81.668 E29.36543
G1 X57.214 Y81.669 E29.37671
G1 X57.214 Y72.445 E30.48359
G1 X56.268 Y72.448 E30.59711
G1 X54.664 Y72.447 E30.78959
G1 X53.622 Y72.449 E30.91463
G1 X53.622 Y81.669 E32.02103
G1 X53.544 Y81.669 E32.03039
G1 X53.544 Y72.444 E33.13739
G1 X52.537 Y72.444 E33.25823
G1 X52.518 Y71.205 E33.40693
G1 X52.473 Y68.683 E33.70962
G1 X52.436 Y66.964 E33.91595
G1 X52.399 Y65.458 E34.09672
G1 X53.280 Y65.458 E34.20244
G1 X53.280 Y55.444 E35.40412
G0 F9000 X52.880 Y55.044
;TYPE:WALL-OUTER
G1 F1800 X53.906 Y55.044 E35.52724
G1 X53.906 Y65.058 E36.72892
G1 X56.946 Y65.058 E37.09372
G1 X56.946 Y55.028 E38.29732
G1 X57.972 Y55.041 E38.42045
G1 X57.972 Y65.058 E39.62249
G1 X58.863 Y65.058 E39.72941
G1 X58.865 Y65.116 E39.73637
G1 X58.824 Y66.585 E39.91272
G1 X58.825 Y66.621 E39.91704
G1 X58.774 Y68.751 E40.17272
G1 X58.711 Y72.384 E40.60874
G1 X58.708 Y72.844 E40.66394
G1 X57.708 Y72.844 E40.78394
G1 X57.708 Y82.067 E41.89070
G1 X56.814 Y82.069 E41.99798
G1 X56.814 Y72.846 E43.10474
G1 X54.022 Y72.849 E43.43978
G1 X54.023 Y82.071 E44.54642
G1 X53.144 Y82.067 E44.65191
G1 X53.144 Y72.844 E45.75867
G1 X52.143 Y72.844 E45.87879
G1 X52.073 Y68.691 E46.37722
G1 X51.996 Y65.372 E46.77560
G1 X51.997 Y65.346 E46.77873
G1 X51.995 Y65.058 E46.81329
G1 X52.880 Y65.058 E46.91949
G1 X52.880 Y55.044 E48.12117
G0 F9000 X53.180 Y55.254
G0 X53.221 Y65.399
G0 X52.869 Y65.597
;TYPE:SKIN
G1 F1800 X58.199 Y70.927 E49.02570
G0 F9000 X58.211 Y70.373
G1 F1800 X53.435 Y65.597 E49.83621
G0 F9000 X54.001 Y65.597
G1 F1800 X58.221 Y69.818 E50.55245
G0 F9000 X58.233 Y69.263
G1 F1800 X54.566 Y65.597 E51.17468
G0 F9000 X55.132 Y65.597
G1 F1800 X58.244 Y68.709 E51.70280
G0 F9000 X58.254 Y68.154
G1 F1800 X55.698 Y65.597 E52.13666
G0 F9000 X56.263 Y65.597
G1 F1800 X58.266 Y67.600 E52.47658
G0 F9000 X58.276 Y67.045
G1 F1800 X56.829 Y65.597 E52.72223
G0 F9000 X57.395 Y65.597
G1 F1800 X58.286 Y66.489 E52.87352
G0 F9000 X58.301 Y65.938
G1 F1800 X57.960 Y65.597 E52.93139
G0 F9000 X52.547 Y65.840
G1 F1800 X58.189 Y71.482 E53.88887
G0 F9000 X58.177 Y72.037
G1 F1800 X52.558 Y66.417 E54.84253
G0 F9000 X52.569 Y66.994
G1 F1800 X57.878 Y72.303 E55.74350
G0 F9000 X57.313 Y72.303
G1 F1800 X52.581 Y67.572 E56.54646
G0 F9000 X52.593 Y68.149
G1 F1800 X56.748 Y72.304 E57.25158
G0 F9000 X56.183 Y72.305
G1 F1800 X52.604 Y68.726 E57.85896
G0 F9000 X52.615 Y69.303
G1 F1800 X55.618 Y72.306 E58.36859
G0 F9000 X55.053 Y72.307
G1 F1800 X52.627 Y69.880 E58.78038
G0 F9000 X52.638 Y70.457
G1 F1800 X54.488 Y72.308 E59.09442
G0 F9000 X53.923 Y72.308
G1 F1800 X52.649 Y71.034 E59.31062
G0 F9000 X52.661 Y71.611
G1 F1800 X53.352 Y72.303 E59.42797
G0 F9000 X52.786 Y72.303
G1 F1800 X52.672 Y72.188 E59.44741
;LAYER:1
M106 S255
G0 F9000 X53.544 Y72.444 Z0.500
;TYPE:WALL-INNER
G1 F2520 X52.265 Y72.444 E59.54973
G1 X52.235 Y71.111 E59.65639
G1 X52.213 Y70.248 E59.72546
G1 X52.188 Y69.389 E59.79420
G1 X52.162 Y68.572 E59.85960
G1 X52.133 Y67.763 E59.92436
G1 X52.110 Y67.090 E59.97823
G1 X52.069 Y66.144 E60.05398
G1 X52.038 Y65.458 E60.10892
G1 X53.280 Y65.458 E60.20828
G1 X53.280 Y54.793 E61.06148
G1 X53.506 Y54.793 E61.07956
G1 X53.506 Y65.458 E61.93276
G1 X57.346 Y65.458 E62.23996
G1 X57.346 Y54.797 E63.09284
G1 X57.572 Y54.796 E63.11092
G1 X57.572 Y65.458 E63.96388
G1 X58.809 Y65.458 E64.06284
G1 X58.770 Y66.314 E64.13139
G1 X58.740 Y67.029 E64.18864
G1 X58.687 Y68.461 E64.30328
G1 X58.664 Y69.181 E64.36091
G1 X58.643 Y69.900 E64.41845
G1 X58.607 Y71.338 E64.53353
G1 X58.598 Y71.849 E64.57441
G1 X58.586 Y72.444 E64.62202
G1 X57.308 Y72.444 E64.72426
G1 X57.308 Y82.320 E65.51434
G1 X57.214 Y82.319 E65.52186
G1 X57.214 Y72.446 E66.31170
G1 X55.925 Y72.448 E66.41482
G1 X55.106 Y72.447 E66.48034
G1 X53.623 Y72.449 E66.59898
G1 X53.625 Y82.318 E67.38850
G1 X53.544 Y82.319 E67.39498
G1 X53.544 Y72.444 E68.18498
G0 F9000 X53.144 Y72.844
;TYPE:WALL-OUTER
G1 F1920 X51.873 Y72.844 E68.28666
G1 X51.813 Y70.259 E68.49352
G1 X51.762 Y68.585 E68.62750
G1 X51.710 Y67.105 E68.74598
G1 X51.633 Y65.354 E68.88619
G1 X51.622 Y65.058 E68.90989
G1 X52.880 Y65.058 E69.01053
G1 X52.880 Y54.393 E69.86373
G1 X53.906 Y54.393 E69.94581
G1 X53.906 Y65.058 E70.79901
G1 X56.946 Y65.058 E71.04221
G1 X56.946 Y54.400 E71.89485
G1 X57.972 Y54.393 E71.97693
G1 X57.972 Y65.058 E72.83013
G1 X59.227 Y65.058 E72.93053
G1 X59.140 Y67.045 E73.08964
G1 X59.087 Y68.475 E73.20412
G1 X59.043 Y69.910 E73.31897
G1 X59.007 Y71.347 E73.43397
G1 X58.979 Y72.844 E73.55375
G1 X57.708 Y72.844 E73.65543
G1 X57.708 Y82.718 E74.44535
G1 X57.438 Y82.720 E74.46695
G1 X56.814 Y82.718 E74.51687
G1 X56.814 Y72.847 E75.30655
G1 X54.023 Y72.848 E75.52983
G1 X54.025 Y82.717 E76.31935
G1 X53.144 Y82.718 E76.38983
G1 X53.144 Y72.844 E77.17975
G0 F9000 X52.996 Y72.303
;TYPE:SKIN
G1 F1740 X58.622 Y66.676 E77.81632
G0 F9000 X58.644 Y66.089
G1 F1740 X52.430 Y72.303 E78.51935
G0 F9000 X52.386 Y71.781
G1 F1740 X58.571 Y65.596 E79.21910
G0 F9000 X58.005 Y65.596
G1 F1740 X52.370 Y71.231 E79.85663
G0 F9000 X52.354 Y70.682
G1 F1740 X57.439 Y65.596 E80.43199
G0 F9000 X56.874 Y65.596
G1 F1740 X52.338 Y70.132 E80.94518
G0 F9000 X52.323 Y69.582
G1 F1740 X56.308 Y65.596 E81.39609
G0 F9000 X55.742 Y65.596
G1 F1740 X52.306 Y69.032 E81.78483
G0 F9000 X52.291 Y68.482
G1 F1740 X55.176 Y65.596 E82.11128
G0 F9000 X54.611 Y65.596
G1 F1740 X52.274 Y67.933 E82.37569
G0 F9000 X52.259 Y67.383
G1 F1740 X54.045 Y65.596 E82.57781
G0 F9000 X53.479 Y65.596
G1 F1740 X52.239 Y66.837 E82.71815
G0 F9000 X52.215 Y66.295
G1 F1740 X52.914 Y65.596 E82.79723
G0 F9000 X52.348 Y65.596
G1 F1740 X52.190 Y65.754 E82.81511
G0 F9000 X58.600 Y67.264
G1 F1740 X53.561 Y72.303 E83.38521
G0 F9000 X54.122 Y72.308
G1 F1740 X58.578 Y67.851 E83.88940
G0 F9000 X58.556 Y68.439
G1 F1740 X54.689 Y72.307 E84.32696
G0 F9000 X55.254 Y72.307
G1 F1740 X58.535 Y69.027 E84.69811
G0 F9000 X58.513 Y69.614
G1 F1740 X55.821 Y72.306 E85.00267
G0 F9000 X56.387 Y72.305
G1 F1740 X58.496 Y70.197 E85.24122
G0 F9000 X58.483 Y70.775
G1 F1740 X56.953 Y72.305 E85.41432
G0 F9000 X57.521 Y72.303
G1 F1740 X58.469 Y71.354 E85.52163
G0 F9000 X58.457 Y71.933
G1 F1740 X58.087 Y72.303 E85.56349
;LAYER:2
G0 F9000 X58.786 Y72.245 Z0.700
;TYPE:WALL-INNER
G1 F3300 X58.782 Y72.444 E85.57942
G1 X57.308 Y72.444 E85.69734
G1 X57.308 Y82.790 E86.52502
G1 X57.214 Y82.791 E86.53254
G1 X57.214 Y72.446 E87.36014
G1 X55.921 Y72.448 E87.46358
G1 X55.549 Y72.447 E87.49334
G1 X53.625 Y72.449 E87.64726
G1 X53.625 Y82.791 E88.47462
G1 X53.544 Y82.791 E88.48110
G1 X53.544 Y72.444 E89.30886
G1 X52.070 Y72.444 E89.42678
G1 X52.054 Y71.800 E89.47831
G1 X52.031 Y70.993 E89.54290
G1 X52.005 Y70.184 E89.60765
G1 X51.975 Y69.374 E89.67250
G1 X51.940 Y68.565 E89.73728
G1 X51.902 Y67.756 E89.80207
G1 X51.861 Y66.945 E89.86703
G1 X51.813 Y66.132 E89.93218
G1 X51.775 Y65.577 E89.97669
G1 X51.768 Y65.458 E89.98623
G1 X53.280 Y65.458 E90.10719
G1 X53.280 Y54.322 E90.99807
G1 X53.506 Y54.321 E91.01615
G1 X53.506 Y65.458 E91.90711
G1 X57.346 Y65.458 E92.21431
G1 X57.346 Y54.319 E93.10543
G1 X57.572 Y54.318 E93.12351
G1 X57.572 Y65.458 E94.01471
G1 X59.084 Y65.458 E94.13567
G1 X59.027 Y66.440 E94.21436
G1 X58.977 Y67.281 E94.28176
G1 X58.941 Y67.987 E94.33831
G1 X58.907 Y68.691 E94.39470
G1 X58.876 Y69.399 E94.45139
G1 X58.849 Y70.108 E94.50815
G1 X58.825 Y70.818 E94.56498
G1 X58.786 Y72.245 E94.67919
G0 F9000 X59.186 Y72.254
;TYPE:WALL-OUTER
G1 F2100 X59.175 Y72.844 E94.72639
G1 X57.708 Y72.844 E94.84375
G1 X57.708 Y83.189 E95.67135
G1 X56.814 Y83.192 E95.74287
G1 X56.814 Y72.847 E96.57047
G1 X54.025 Y72.848 E96.79359
G1 X54.025 Y83.193 E97.62119
G1 X53.144 Y83.190 E97.69167
G1 X53.144 Y72.844 E98.51935
G1 X51.677 Y72.844 E98.63671
G1 X51.631 Y71.005 E98.78388
G1 X51.575 Y69.391 E98.91308
G1 X51.503 Y67.776 E99.04241
G1 X51.462 Y66.967 E99.10721
G1 X51.414 Y66.157 E99.17212
G1 X51.376 Y65.604 E99.21647
G1 X51.344 Y65.058 E99.26022
G1 X52.880 Y65.058 E99.38310
G1 X52.880 Y53.922 E100.27398
G1 X53.906 Y53.921 E100.35606
G1 X53.906 Y65.058 E101.24702
G1 X56.946 Y65.058 E101.49022
G1 X56.946 Y53.922 E102.38110
G1 X57.658 Y53.917 E102.43806
G1 X57.972 Y53.919 E102.46319
G1 X57.972 Y65.058 E103.35431
G1 X59.508 Y65.058 E103.47719
G1 X59.376 Y67.303 E103.65710
G1 X59.306 Y68.709 E103.76971
G1 X59.249 Y70.122 E103.88285
G1 X59.225 Y70.831 E103.93960
G1 X59.186 Y72.254 E104.05348
G0 F9000 X58.655 Y71.949
;TYPE:SKIN
G1 F1800 X52.303 Y65.596 E104.77219
G0 F9000 X51.929 Y65.789
G1 F1800 X58.443 Y72.303 E105.50916
G0 F9000 X57.878 Y72.303
G1 F1800 X51.966 Y66.391 E106.17803
G0 F9000 X51.996 Y66.987
G1 F1800 X57.312 Y72.303 E106.77946
G0 F9000 X56.748 Y72.305
G1 F1800 X52.026 Y67.582 E107.31375
G0 F9000 X52.055 Y68.177
G1 F1800 X56.183 Y72.305 E107.78078
G0 F9000 X55.618 Y72.305
G1 F1800 X52.085 Y68.773 E108.18044
G0 F9000 X52.115 Y69.368
G1 F1800 X55.053 Y72.306 E108.51284
G0 F9000 X54.488 Y72.307
G1 F1800 X52.132 Y69.951 E108.77939
G0 F9000 X52.151 Y70.536
G1 F1800 X53.922 Y72.307 E108.97975
G0 F9000 X53.352 Y72.303
G1 F1800 X52.169 Y71.120 E109.11359
G0 F9000 X52.188 Y71.704
G1 F1800 X52.786 Y72.303 E109.18131
G0 F9000 X58.672 Y71.400
G1 F1800 X52.868 Y65.596 E109.83795
G0 F9000 X53.434 Y65.596
G1 F1800 X58.689 Y70.852 E110.43255
G0 F9000 X58.707 Y70.304
G1 F1800 X54.000 Y65.596 E110.96514
G0 F9000 X54.566 Y65.596
G1 F1800 X58.724 Y69.755 E111.43562
G0 F9000 X58.745 Y69.210
G1 F1800 X55.131 Y65.596 E111.84450
G0 F9000 X55.697 Y65.596
G1 F1800 X58.774 Y68.673 E112.19262
G0 F9000 X58.802 Y68.136
G1 F1800 X56.263 Y65.596 E112.47993
G0 F9000 X56.828 Y65.596
G1 F1800 X58.830 Y67.598 E112.70643
G0 F9000 X58.858 Y67.061
G1 F1800 X57.394 Y65.596 E112.87212
G0 F9000 X57.960 Y65.596
G1 F1800 X58.887 Y66.523 E112.97700
G0 F9000 X58.915 Y65.986
G1 F1800 X58.525 Y65.596 E113.02112
;LAYER:3
G0 F9000 X57.950 Y65.599 Z0.900
;TYPE:FILL
G1 F4920 X56.315 Y67.234 E113.20610
G0 F9000 X56.314 Y68.850
G1 F4920 X59.124 Y66.040 E113.52402
G0 F9000 X59.000 Y67.779
G1 F4920 X56.313 Y70.466 E113.82802
G0 F9000 X56.312 Y72.082
G1 F4920 X58.914 Y69.480 E114.12240
G0 F9000 X58.839 Y71.171
G1 F4920 X57.706 Y72.303 E114.25053
G0 F9000 X54.535 Y72.244
G1 F4920 X54.477 Y72.302 E114.25709
G0 F9000 X52.861 Y72.303
G1 F4920 X54.534 Y70.630 E114.44637
G0 F9000 X54.535 Y69.014
G1 F4920 X52.017 Y71.532 E114.73125
G0 F9000 X51.958 Y69.975
G1 F4920 X54.536 Y67.398 E115.02286
G0 F9000 X54.536 Y65.783
G1 F4920 X51.883 Y68.435 E115.32295
G0 F9000 X51.798 Y66.906
G1 F4920 X53.107 Y65.597 E115.47105
G0 F9000 X53.280 Y65.458
;TYPE:WALL-INNER
G1 F4020 X53.280 Y53.936 E116.39281
G1 X53.506 Y53.936 E116.41089
G1 X53.506 Y65.458 E117.33265
G1 X54.607 Y65.458 E117.42073
G1 X55.157 Y65.492 E117.46481
G1 X55.432 Y65.502 E117.48683
G1 X56.092 Y65.466 E117.53971
G1 X57.346 Y65.458 E117.64003
G1 X57.346 Y53.930 E118.56227
G1 X57.572 Y53.931 E118.58035
G1 X57.572 Y65.458 E119.50251
G1 X59.306 Y65.458 E119.64123
G1 X59.173 Y67.259 E119.78570
G1 X59.129 Y67.967 E119.84245
G1 X59.089 Y68.674 E119.89910
G1 X59.053 Y69.381 E119.95573
G1 X59.021 Y70.091 E120.01259
G1 X58.991 Y70.805 E120.06976
G1 X58.967 Y71.518 E120.12684
G1 X58.945 Y72.234 E120.18414
G1 X58.941 Y72.444 E120.20095
G1 X57.308 Y72.444 E120.33159
G1 X57.308 Y83.176 E121.19015
G1 X57.214 Y83.176 E121.19767
G1 X57.214 Y72.444 E122.05623
G1 X56.429 Y72.448 E122.11903
G1 X55.919 Y72.430 E122.15985
G1 X55.426 Y72.403 E122.19935
G1 X54.877 Y72.433 E122.24334
G1 X53.626 Y72.461 E122.34344
G1 X53.627 Y83.177 E123.20072
G1 X53.544 Y83.177 E123.20736
G1 X53.544 Y72.444 E124.06600
G1 X51.909 Y72.444 E124.19680
G1 X51.891 Y71.797 E124.24858
G1 X51.864 Y70.989 E124.31326
G1 X51.832 Y70.180 E124.37803
G1 X51.796 Y69.369 E124.44297
G1 X51.755 Y68.560 E124.50777
G1 X51.710 Y67.750 E124.57267
G1 X51.660 Y66.938 E124.63776
G1 X51.602 Y66.124 E124.70304
G1 X51.556 Y65.575 E124.74712
G1 X51.546 Y65.458 E124.75651
G1 X53.280 Y65.458 E124.89523
G0 F9000 X52.880 Y65.058
;TYPE:WALL-OUTER
G1 F2220 X52.880 Y53.537 E125.81691
G1 X53.906 Y53.535 E125.89899
G1 X53.906 Y65.058 E126.82083
G1 X54.616 Y65.058 E126.87763
G1 X55.176 Y65.093 E126.92252
G1 X55.428 Y65.101 E126.94269
G1 X56.088 Y65.066 E126.99556
G1 X56.946 Y65.058 E127.06421
G1 X56.946 Y53.527 E127.98669
G1 X57.972 Y53.534 E128.06877
G1 X57.972 Y65.058 E128.99069
G1 X59.738 Y65.058 E129.13197
G1 X59.572 Y67.286 E129.31070
G1 X59.528 Y67.991 E129.36721
G1 X59.488 Y68.695 E129.42362
G1 X59.452 Y69.400 E129.48010
G1 X59.391 Y70.819 E129.59372
G1 X59.345 Y72.244 E129.70778
G1 X59.333 Y72.844 E129.75579
G1 X57.708 Y72.844 E129.88579
G1 X57.708 Y83.575 E130.74427
G1 X56.998 Y83.577 E130.80107
G1 X56.814 Y83.577 E130.81579
G1 X56.814 Y72.846 E131.67427
G1 X56.417 Y72.848 E131.70603
G1 X55.909 Y72.830 E131.74670
G1 X55.426 Y72.804 E131.78539
G1 X54.882 Y72.833 E131.82897
G1 X54.026 Y72.852 E131.89747
G1 X54.027 Y83.577 E132.75547
G1 X53.846 Y83.578 E132.76995
G1 X53.144 Y83.575 E132.82611
G1 X53.144 Y72.844 E133.68459
G1 X51.519 Y72.844 E133.81459
G1 X51.491 Y71.810 E133.89734
G1 X51.433 Y70.197 E134.02646
G1 X51.397 Y69.388 E134.09125
G1 X51.311 Y67.774 E134.22055
G1 X51.261 Y66.965 E134.28540
G1 X51.203 Y66.155 E134.35036
