;FLAVOR:UltiGCode
;TIME:3245
;MATERIAL:6801
;MATERIAL2:0

;Layer count: 147
;LAYER:0
M107
G0 F9000 X31.777 Y41.177 Z0.300
;TYPE:SKIRT
G1 F1800 X65.393 Y41.177 E4.03392
G1 X68.558 Y44.342 E4.57104
G1 X68.558 Y52.605 E5.56260
G1 X65.393 Y55.770 E6.09972
G1 X62.220 Y55.770 E6.48048
G1 X62.220 Y59.009 E6.86916
G1 X34.950 Y59.009 E10.14156
G1 X34.950 Y55.770 E10.53024
G1 X31.777 Y55.770 E10.91100
G1 X28.612 Y52.605 E11.44811
G1 X28.612 Y44.342 E12.43967
G1 X31.777 Y41.177 E12.97679
G0 F9000 X31.943 Y41.577
G1 F1800 X65.227 Y41.577 E16.97087
G1 X68.158 Y44.508 E17.46828
G1 X68.158 Y52.439 E18.42000
G1 X65.227 Y55.370 E18.91741
G1 X61.820 Y55.370 E19.32625
G1 X61.820 Y58.609 E19.71493
G1 X35.350 Y58.609 E22.89133
G1 X35.350 Y55.370 E23.28001
G1 X31.943 Y55.370 E23.68885
G1 X29.012 Y52.439 E24.18625
G1 X29.012 Y44.508 E25.13797
G1 X31.943 Y41.577 E25.63538
G10
G0 F9000 X33.488 Y45.601
;TYPE:FILL
G11
G1 F1800 X33.755 Y45.868 E25.68069
G0 F9000 X36.064 Y45.238
G0 X38.248 Y45.516
G1 F1800 X39.394 Y46.661 E25.87509
G0 F9000 X40.163 Y45.816
G1 F1800 X39.863 Y45.516 E25.92600
G0 F9000 X38.510 Y50.623
G1 F1800 X39.316 Y51.429 E26.06279
G0 F9000 X39.139 Y47.559
G0 X40.153 Y46.000
G0 X41.873 Y45.255
G0 X43.699 Y45.577
G0 X44.709 Y45.517
G1 F1800 X45.779 Y46.587 E26.24437
G0 F9000 X46.573 Y45.766
G1 F1800 X46.324 Y45.517 E26.28663
G0 F9000 X49.166 Y45.286
G0 X51.169 Y45.517
G1 F1800 X52.170 Y46.517 E26.45642
G0 F9000 X52.979 Y45.712
G1 F1800 X52.784 Y45.517 E26.48951
G0 F9000 X55.296 Y45.254
G0 X57.629 Y45.517
G1 F1800 X58.556 Y46.443 E26.64674
G0 F9000 X59.392 Y45.664
G1 F1800 X59.244 Y45.517 E26.67177
G0 F9000 X58.028 Y48.235
G0 X58.169 Y48.888
G0 X57.683 Y50.416
G1 F1800 X58.697 Y51.429 E26.84377
G0 F9000 X57.082 Y51.429
G1 F1800 X56.876 Y51.223 E26.87873
G0 F9000 X62.107 Y51.602
G0 X63.284 Y51.171
G1 F1800 X63.542 Y51.429 E26.92251
G0 F9000 X64.217 Y50.489
G1 F1800 X64.075 Y50.347 E26.94661
G0 F9000 X63.971 Y50.254
;TYPE:WALL-INNER
G1 F1800 X64.203 Y49.835 E27.00409
G1 X64.358 Y49.421 E27.05713
G1 X64.358 Y50.866 E27.23053
G1 X63.654 Y51.570 E27.35001
G1 X62.203 Y51.570 E27.52413
G1 X62.531 Y51.457 E27.56576
G1 X62.958 Y51.236 E27.62345
G1 X63.356 Y50.947 E27.68248
G1 X63.707 Y50.599 E27.74179
G1 X63.971 Y50.254 E27.79392
G0 F9000 X64.503 Y48.471
G0 X64.187 Y47.077
G1 F1800 X63.944 Y46.654 E27.85246
G1 X63.635 Y46.268 E27.91179
G1 X63.311 Y45.963 E27.96519
G1 X62.922 Y45.690 E28.02222
G1 X62.498 Y45.479 E28.07905
G1 X62.198 Y45.377 E28.11707
G1 X63.654 Y45.377 E28.29179
G1 X64.358 Y46.081 E28.41127
G1 X64.358 Y47.516 E28.58347
G1 X64.187 Y47.077 E28.64000
G0 F9000 X62.921 Y45.691
G0 X61.127 Y45.235
G0 X60.181 Y45.418
G1 F1800 X59.735 Y45.613 E28.69841
G1 X59.320 Y45.879 E28.75756
G1 X58.982 Y46.169 E28.81101
G1 X58.667 Y46.532 E28.86868
G1 X58.427 Y46.900 E28.92140
G1 X58.226 Y47.333 E28.97869
G1 X58.092 Y47.791 E29.03595
G1 X58.089 Y47.814 E29.03874
G1 X58.024 Y47.527 E29.07405
G1 X57.850 Y47.080 E29.13161
G1 X57.630 Y46.689 E29.18545
G1 X57.299 Y46.270 E29.24952
G1 X56.973 Y45.962 E29.30334
G1 X56.583 Y45.690 E29.36040
G1 X56.161 Y45.479 E29.41702
G1 X55.860 Y45.377 E29.45515
G1 X60.330 Y45.377 E29.99155
G1 X60.181 Y45.418 E30.01010
G0 F9000 X58.668 Y46.533
G0 X58.027 Y48.682
G0 X58.096 Y49.184
G1 F1800 X58.247 Y49.667 E30.07082
G1 X58.448 Y50.087 E30.12670
G1 X58.724 Y50.491 E30.18541
G1 X59.022 Y50.818 E30.23850
G1 X59.366 Y51.105 E30.29226
G1 X59.808 Y51.371 E30.35417
G1 X60.247 Y51.552 E30.41115
G1 X60.317 Y51.570 E30.41982
G1 X56.800 Y51.570 E30.84186
G1 X56.800 Y52.648 E30.97122
G1 X58.020 Y54.761 E31.26401
G1 X58.020 Y54.809 E31.26977
G1 X39.150 Y54.809 E33.53417
G1 X39.150 Y54.761 E33.53993
G1 X40.281 Y52.802 E33.81138
G1 X40.370 Y52.653 E33.83220
G1 X40.370 Y51.570 E33.96216
G1 X36.843 Y51.570 E34.38540
G1 X36.989 Y51.530 E34.40357
G1 X37.436 Y51.333 E34.46219
G1 X37.850 Y51.068 E34.52117
G1 X38.185 Y50.780 E34.57419
G1 X38.480 Y50.449 E34.62739
G1 X38.743 Y50.049 E34.68484
G1 X38.944 Y49.614 E34.74234
G1 X39.078 Y49.157 E34.79949
G1 X39.081 Y49.135 E34.80215
G1 X39.146 Y49.421 E34.83735
G1 X39.320 Y49.868 E34.89491
G1 X39.540 Y50.259 E34.94875
G1 X39.872 Y50.678 E35.01290
G1 X40.197 Y50.985 E35.06655
G1 X40.587 Y51.257 E35.12360
G1 X41.012 Y51.470 E35.18065
G1 X41.463 Y51.617 E35.23757
G1 X41.901 Y51.697 E35.29100
G1 X42.331 Y51.713 E35.34264
G1 X42.404 Y51.711 E35.35140
G1 X42.862 Y51.657 E35.40674
G1 X43.327 Y51.530 E35.46459
G1 X43.774 Y51.333 E35.52320
G1 X44.188 Y51.068 E35.58219
G1 X44.525 Y50.779 E35.63546
G1 X44.842 Y50.417 E35.69321
G1 X45.081 Y50.048 E35.74596
G1 X45.282 Y49.614 E35.80336
G1 X45.416 Y49.157 E35.86051
G1 X45.419 Y49.135 E35.86317
G1 X45.485 Y49.421 E35.89839
G1 X45.658 Y49.868 E35.95591
G1 X45.879 Y50.260 E36.00991
G1 X46.211 Y50.678 E36.07397
G1 X46.535 Y50.984 E36.12745
G1 X46.925 Y51.257 E36.18457
G1 X47.351 Y51.471 E36.24178
G1 X47.802 Y51.617 E36.29867
G1 X48.240 Y51.697 E36.35209
G1 X48.668 Y51.713 E36.40349
G1 X48.741 Y51.711 E36.41225
G1 X49.199 Y51.657 E36.46759
G1 X49.664 Y51.530 E36.52544
G1 X50.111 Y51.333 E36.58406
G1 X50.525 Y51.068 E36.64304
G1 X50.862 Y50.779 E36.69632
G1 X51.179 Y50.417 E36.75406
G1 X51.418 Y50.048 E36.80681
G1 X51.619 Y49.614 E36.86421
G1 X51.754 Y49.153 E36.92185
G1 X51.758 Y49.184 E36.92560
G1 X51.909 Y49.667 E36.98633
G1 X52.109 Y50.086 E37.04204
G1 X52.385 Y50.491 E37.10086
G1 X52.684 Y50.819 E37.15412
G1 X53.028 Y51.105 E37.20780
G1 X53.470 Y51.371 E37.26970
G1 X53.909 Y51.552 E37.32668
G1 X54.342 Y51.663 E37.38033
G1 X54.767 Y51.710 E37.43164
G1 X54.839 Y51.712 E37.44028
G1 X55.298 Y51.694 E37.49540
G1 X55.772 Y51.603 E37.55332
G1 X56.226 Y51.441 E37.61116
G1 X56.619 Y51.236 E37.66436
G1 X57.018 Y50.948 E37.72341
G1 X57.369 Y50.599 E37.78280
G1 X57.633 Y50.254 E37.83493
G1 X57.865 Y49.835 E37.89241
G1 X58.033 Y49.389 E37.94960
G1 X58.089 Y49.135 E37.98081
G1 X58.096 Y49.184 E37.98675
G0 F9000 X57.848 Y47.080
G0 X56.582 Y45.690
G0 X54.789 Y45.235
G0 X53.843 Y45.418
G1 F1800 X53.397 Y45.613 E38.04516
G1 X52.982 Y45.879 E38.10431
G1 X52.644 Y46.169 E38.15776
G1 X52.328 Y46.532 E38.21551
G1 X52.089 Y46.901 E38.26826
G1 X51.888 Y47.333 E38.32544
G1 X51.753 Y47.795 E38.38320
G1 X51.749 Y47.764 E38.38695
G1 X51.619 Y47.332 E38.44109
G1 X51.392 Y46.854 E38.50459
G1 X51.154 Y46.496 E38.55617
G1 X50.824 Y46.131 E38.61522
G1 X50.479 Y45.842 E38.66923
G1 X50.037 Y45.576 E38.73113
G1 X49.598 Y45.396 E38.78807
G1 X49.525 Y45.377 E38.79712
G1 X53.992 Y45.377 E39.33316
G1 X53.843 Y45.418 E39.35170
G0 F9000 X48.212 Y45.255
G0 X47.316 Y45.491
G1 F1800 X46.890 Y45.710 E39.40918
G1 X46.490 Y46.000 E39.46847
G1 X46.140 Y46.348 E39.52770
G1 X45.875 Y46.694 E39.58000
G1 X45.642 Y47.113 E39.63753
G1 X45.477 Y47.559 E39.69459
G1 X45.419 Y47.815 E39.72609
G1 X45.412 Y47.764 E39.73227
G1 X45.282 Y47.332 E39.78641
G1 X45.055 Y46.854 E39.84991
G1 X44.817 Y46.496 E39.90149
G1 X44.487 Y46.131 E39.96054
G1 X44.142 Y45.842 E40.01455
G1 X43.700 Y45.576 E40.07645
G1 X43.261 Y45.396 E40.13339
G1 X43.188 Y45.377 E40.14244
G1 X47.644 Y45.377 E40.67716
G1 X47.316 Y45.491 E40.71883
G0 F9000 X41.873 Y45.255
G0 X40.977 Y45.491
G1 F1800 X40.552 Y45.710 E40.77620
G1 X40.152 Y45.999 E40.83542
G1 X39.801 Y46.348 E40.89482
G1 X39.536 Y46.695 E40.94721
G1 X39.305 Y47.113 E41.00452
G1 X39.137 Y47.559 E41.06171
G1 X39.081 Y47.813 E41.09292
G1 X39.074 Y47.764 E41.09886
G1 X38.944 Y47.332 E41.15300
G1 X38.717 Y46.854 E41.21650
G1 X38.478 Y46.496 E41.26815
G1 X38.150 Y46.131 E41.32704
G1 X37.804 Y45.842 E41.38114
G1 X37.362 Y45.576 E41.44304
G1 X36.923 Y45.396 E41.49998
G1 X36.850 Y45.377 E41.50903
G1 X41.305 Y45.377 E42.04363
G1 X40.977 Y45.491 E42.08530
G0 F9000 X35.535 Y45.255
G0 X34.639 Y45.491
G1 F1800 X34.213 Y45.710 E42.14278
G1 X33.814 Y46.000 E42.20197
G1 X33.463 Y46.348 E42.26128
G1 X33.198 Y46.695 E42.31368
G1 X32.967 Y47.113 E42.37099
G1 X32.812 Y47.526 E42.42392
G1 X32.812 Y46.081 E42.59732
G1 X33.516 Y45.377 E42.71679
G1 X34.967 Y45.377 E42.89091
G1 X34.639 Y45.491 E42.93258
G0 F9000 X33.199 Y46.696
G0 X32.667 Y48.477
G0 X32.983 Y49.871
G1 F1800 X33.226 Y50.294 E42.99112
G1 X33.535 Y50.679 E43.05036
G1 X33.859 Y50.984 E43.10376
G1 X34.248 Y51.257 E43.16079
G1 X34.674 Y51.471 E43.21800
G1 X34.980 Y51.570 E43.25659
G1 X33.516 Y51.570 E43.43227
G1 X32.812 Y50.866 E43.55174
G1 X32.812 Y49.432 E43.72382
G1 X32.983 Y49.871 E43.78036
G0 F9000 X33.345 Y49.698
;TYPE:WALL-OUTER
G1 F1800 X33.557 Y50.068 E43.83153
G1 X33.830 Y50.407 E43.88376
G1 X34.112 Y50.673 E43.93028
G1 X34.453 Y50.912 E43.98025
G1 X34.827 Y51.100 E44.03048
G1 X35.223 Y51.228 E44.08042
G1 X35.607 Y51.298 E44.12726
G1 X35.993 Y51.313 E44.17362
G1 X36.035 Y51.312 E44.17866
G1 X36.447 Y51.263 E44.22845
G1 X36.855 Y51.152 E44.27919
G1 X37.246 Y50.980 E44.33044
G1 X37.611 Y50.746 E44.38247
G1 X37.904 Y50.494 E44.42885
G1 X38.162 Y50.205 E44.47534
G1 X38.392 Y49.854 E44.52569
G1 X38.569 Y49.473 E44.57611
G1 X38.686 Y49.072 E44.62623
G1 X38.743 Y48.684 E44.67329
G1 X38.744 Y48.292 E44.72033
G1 X38.682 Y47.850 E44.77389
G1 X38.569 Y47.475 E44.82089
G1 X38.373 Y47.059 E44.87607
G1 X38.161 Y46.742 E44.92184
G1 X37.871 Y46.420 E44.97384
G1 X37.571 Y46.169 E45.02078
G1 X37.182 Y45.935 E45.07525
G1 X36.796 Y45.777 E45.12530
G1 X36.418 Y45.679 E45.17216
G1 X36.036 Y45.636 E45.21829
G1 X35.994 Y45.635 E45.22333
G1 X35.580 Y45.652 E45.27305
G1 X35.166 Y45.731 E45.32363
G1 X34.797 Y45.860 E45.37054
G1 X34.423 Y46.052 E45.42099
G1 X34.074 Y46.305 E45.47271
G1 X33.764 Y46.613 E45.52515
G1 X33.534 Y46.914 E45.57061
G1 X33.331 Y47.281 E45.62094
G1 X33.184 Y47.673 E45.67118
G1 X33.098 Y48.056 E45.71828
G1 X33.067 Y48.475 E45.76870
G1 X33.104 Y48.922 E45.82252
G1 X33.191 Y49.304 E45.86954
G1 X33.345 Y49.698 E45.92030
G0 F9000 X33.066 Y49.807
G0 X32.712 Y50.938
G0 X32.412 Y51.032
G1 F1800 X32.412 Y45.915 E46.53434
G1 X33.350 Y44.977 E46.69352
G1 X63.820 Y44.977 E50.34992
G1 X64.758 Y45.915 E50.50911
G1 X64.758 Y51.032 E51.12315
G1 X63.820 Y51.970 E51.28233
G1 X57.200 Y51.970 E52.07673
G1 X57.200 Y52.541 E52.14525
G1 X58.420 Y54.653 E52.43794
G1 X58.420 Y55.209 E52.50466
G1 X38.750 Y55.209 E54.86506
G1 X38.750 Y54.653 E54.93178
G1 X39.932 Y52.605 E55.21553
G1 X39.970 Y52.542 E55.22436
G1 X39.970 Y51.970 E55.29300
G1 X33.350 Y51.970 E56.08740
G1 X32.412 Y51.032 E56.24658
G0 F9000 X32.712 Y50.938
G0 X36.066 Y51.710
G0 X37.849 Y51.067
G0 X39.249 Y49.412
G0 X39.529 Y49.304
G1 F1800 X39.683 Y49.697 E56.29724
G1 X39.873 Y50.036 E56.34387
G1 X40.167 Y50.407 E56.40067
G1 X40.450 Y50.674 E56.44736
G1 X40.792 Y50.912 E56.49736
G1 X41.165 Y51.099 E56.54743
G1 X41.561 Y51.228 E56.59741
G1 X41.945 Y51.298 E56.64425
G1 X42.331 Y51.313 E56.69060
G1 X42.373 Y51.312 E56.69565
G1 X42.785 Y51.263 E56.74543
G1 X43.193 Y51.152 E56.79617
G1 X43.584 Y50.980 E56.84743
G1 X43.949 Y50.746 E56.89946
G1 X44.243 Y50.494 E56.94593
G1 X44.522 Y50.175 E56.99678
G1 X44.730 Y49.854 E57.04268
G1 X44.907 Y49.473 E57.09310
G1 X45.024 Y49.072 E57.14322
G1 X45.081 Y48.684 E57.19028
G1 X45.082 Y48.292 E57.23732
G1 X45.020 Y47.850 E57.29088
G1 X44.907 Y47.475 E57.33788
G1 X44.711 Y47.059 E57.39306
G1 X44.500 Y46.742 E57.43876
G1 X44.209 Y46.420 E57.49084
G1 X43.909 Y46.169 E57.53778
G1 X43.520 Y45.935 E57.59225
G1 X43.134 Y45.777 E57.64230
G1 X42.756 Y45.679 E57.68916
G1 X42.374 Y45.636 E57.73529
G1 X42.332 Y45.635 E57.74033
G1 X41.918 Y45.652 E57.79006
G1 X41.504 Y45.731 E57.84063
G1 X41.135 Y45.860 E57.88754
G1 X40.762 Y46.052 E57.93788
G1 X40.412 Y46.305 E57.98971
G1 X40.102 Y46.613 E58.04215
G1 X39.872 Y46.914 E58.08760
G1 X39.669 Y47.281 E58.13793
G1 X39.522 Y47.673 E58.18817
G1 X39.437 Y48.056 E58.23525
G1 X39.405 Y48.475 E58.28568
G1 X39.443 Y48.922 E58.33951
G1 X39.529 Y49.304 E58.38650
G0 F9000 X39.249 Y49.412
G0 X40.198 Y50.984
G0 X42.331 Y51.713
G0 X44.187 Y51.067
G0 X45.282 Y49.614
G0 X45.489 Y48.987
G0 X45.781 Y48.922
G1 F1800 X45.868 Y49.304 E58.43351
G1 X46.021 Y49.697 E58.48412
G1 X46.212 Y50.036 E58.53081
G1 X46.506 Y50.407 E58.58761
G1 X46.788 Y50.673 E58.63413
G1 X47.130 Y50.912 E58.68420
G1 X47.504 Y51.100 E58.73443
G1 X47.900 Y51.228 E58.78437
G1 X48.284 Y51.298 E58.83121
G1 X48.668 Y51.313 E58.87733
G1 X48.710 Y51.312 E58.88237
G1 X49.122 Y51.263 E58.93216
G1 X49.530 Y51.152 E58.98290
G1 X49.921 Y50.980 E59.03416
G1 X50.286 Y50.746 E59.08618
G1 X50.580 Y50.494 E59.13265
G1 X50.859 Y50.175 E59.18351
G1 X51.067 Y49.854 E59.22941
G1 X51.244 Y49.473 E59.27982
G1 X51.361 Y49.072 E59.32995
G1 X51.418 Y48.684 E59.37701
G1 X51.419 Y48.292 E59.42405
G1 X51.357 Y47.850 E59.47760
G1 X51.244 Y47.475 E59.52460
G1 X51.048 Y47.059 E59.57979
G1 X50.837 Y46.742 E59.62548
G1 X50.546 Y46.420 E59.67756
G1 X50.246 Y46.169 E59.72450
G1 X49.857 Y45.935 E59.77898
G1 X49.471 Y45.777 E59.82903
G1 X49.093 Y45.679 E59.87589
G1 X48.711 Y45.636 E59.92202
G1 X48.669 Y45.635 E59.92706
G1 X48.257 Y45.652 E59.97654
G1 X47.843 Y45.731 E60.02712
G1 X47.474 Y45.860 E60.07402
G1 X47.100 Y46.052 E60.12447
G1 X46.750 Y46.305 E60.17630
G1 X46.441 Y46.613 E60.22865
G1 X46.210 Y46.914 E60.27418
G1 X46.007 Y47.281 E60.32451
G1 X45.861 Y47.673 E60.37471
G1 X45.775 Y48.056 E60.42181
G1 X45.744 Y48.475 E60.47223
G1 X45.781 Y48.922 E60.52605
G0 F9000 X45.489 Y48.987
G0 X46.212 Y50.677
G0 X48.241 Y51.696
G0 X50.110 Y51.332
G0 X51.619 Y49.614
G0 X51.789 Y48.655
G0 X52.088 Y48.656
G1 F1800 X52.150 Y49.098 E60.57961
G1 X52.277 Y49.510 E60.63135
G1 X52.457 Y49.886 E60.68137
G1 X52.700 Y50.242 E60.73309
G1 X52.961 Y50.529 E60.77965
G1 X53.261 Y50.778 E60.82643
G1 X53.650 Y51.012 E60.88091
G1 X54.036 Y51.171 E60.93100
G1 X54.414 Y51.268 E60.97783
G1 X54.796 Y51.311 E61.02396
G1 X54.838 Y51.312 E61.02900
G1 X55.252 Y51.295 E61.07872
G1 X55.667 Y51.216 E61.12942
G1 X56.065 Y51.074 E61.18013
G1 X56.408 Y50.895 E61.22655
G1 X56.758 Y50.642 E61.27838
G1 X57.068 Y50.334 E61.33082
G1 X57.298 Y50.034 E61.37618
G1 X57.501 Y49.667 E61.42651
G1 X57.648 Y49.275 E61.47675
G1 X57.733 Y48.892 E61.52383
G1 X57.765 Y48.473 E61.57425
G1 X57.727 Y48.027 E61.62797
G1 X57.641 Y47.644 E61.67507
G1 X57.487 Y47.251 E61.72572
G1 X57.297 Y46.912 E61.77236
G1 X57.003 Y46.541 E61.82916
G1 X56.720 Y46.273 E61.87593
G1 X56.378 Y46.035 E61.92593
G1 X56.006 Y45.849 E61.97584
G1 X55.638 Y45.724 E62.02248
G1 X55.251 Y45.652 E62.06971
G1 X54.804 Y45.635 E62.12339
G1 X54.385 Y45.684 E62.17402
G1 X53.977 Y45.796 E62.22479
G1 X53.586 Y45.967 E62.27600
G1 X53.221 Y46.201 E62.32803
G1 X52.927 Y46.454 E62.37457
G1 X52.648 Y46.773 E62.42543
G1 X52.440 Y47.095 E62.47143
G1 X52.263 Y47.474 E62.52162
G1 X52.146 Y47.876 E62.57186
G1 X52.089 Y48.264 E62.61892
G1 X52.088 Y48.656 E62.66596
G0 F9000 X51.789 Y48.655
G0 X52.089 Y46.902
G0 X53.398 Y45.614
G0 X55.296 Y45.254
G0 X57.298 Y46.270
G0 X58.122 Y47.967
G0 X58.127 Y48.655
G0 X58.426 Y48.656
G1 F1800 X58.488 Y49.098 E62.71952
G1 X58.615 Y49.510 E62.77126
G1 X58.795 Y49.886 E62.82128
G1 X59.039 Y50.242 E62.87307
G1 X59.299 Y50.529 E62.91954
G1 X59.599 Y50.778 E62.96633
G1 X59.988 Y51.012 E63.02080
G1 X60.374 Y51.171 E63.07090
G1 X60.752 Y51.268 E63.11773
G1 X61.134 Y51.311 E63.16386
G1 X61.176 Y51.312 E63.16890
G1 X61.590 Y51.295 E63.21862
G1 X62.004 Y51.216 E63.26920
G1 X62.373 Y51.088 E63.31607
G1 X62.747 Y50.895 E63.36657
G1 X63.096 Y50.642 E63.41830
G1 X63.406 Y50.334 E63.47074
G1 X63.636 Y50.034 E63.51610
G1 X63.839 Y49.667 E63.56643
G1 X63.986 Y49.275 E63.61667
G1 X64.072 Y48.892 E63.66377
G1 X64.103 Y48.473 E63.71419
G1 X64.066 Y48.027 E63.76789
G1 X63.979 Y47.644 E63.81502
G1 X63.825 Y47.250 E63.86579
G1 X63.613 Y46.880 E63.91696
G1 X63.340 Y46.540 E63.96928
G1 X63.058 Y46.274 E64.01580
G1 X62.717 Y46.035 E64.06577
G1 X62.344 Y45.849 E64.11579
G1 X61.976 Y45.724 E64.16243
G1 X61.589 Y45.652 E64.20966
G1 X61.142 Y45.635 E64.26334
G1 X60.723 Y45.684 E64.31396
G1 X60.315 Y45.796 E64.36474
G1 X59.924 Y45.967 E64.41595
G1 X59.559 Y46.201 E64.46797
G1 X59.265 Y46.454 E64.51452
G1 X58.987 Y46.773 E64.56530
G1 X58.778 Y47.095 E64.61136
G1 X58.601 Y47.474 E64.66156
G1 X58.484 Y47.876 E64.71180
G1 X58.427 Y48.264 E64.75886
G1 X58.426 Y48.656 E64.80590
G0 F9000 X58.020 Y49.817
;TYPE:SKIN
