;FLAVOR:UltiGCode
;TIME:4029
;MATERIAL:3729
;MATERIAL2:0

;Layer count: 26
;LAYER:0
M107
G0 F9000 X59.819 Y77.235 Z0.300
G0 X59.821 Y77.947
;TYPE:SKIRT
G1 F1200 X59.819 Y77.235 E0.08544
G1 X66.994 Y77.235 E0.94644
G1 X66.994 Y77.887 E1.02468
G1 X68.082 Y78.808 E1.19574
G1 X68.708 Y79.943 E1.35128
G1 X68.987 Y80.980 E1.48015
G1 X68.985 Y81.925 E1.59355
G1 X68.987 Y82.599 E1.67443
G1 X68.705 Y83.966 E1.84192
G1 X68.609 Y84.094 E1.86112
G1 X68.609 Y84.343 E1.89100
G1 X69.263 Y84.343 E1.96948
G1 X69.274 Y93.179 E3.02980
G1 X57.471 Y93.179 E4.44616
G1 X57.482 Y84.343 E5.50648
G1 X58.227 Y84.343 E5.59588
G1 X58.227 Y83.971 E5.64052
G1 X58.077 Y83.705 E5.67717
G1 X57.849 Y82.601 E5.81244
G1 X57.851 Y81.806 E5.90784
G1 X57.849 Y81.380 E5.95896
G1 X57.921 Y80.457 E6.07006
G1 X58.555 Y79.095 E6.25034
G1 X59.367 Y78.248 E6.39114
G1 X59.821 Y77.947 E6.45651
G0 F9000 X60.221 Y78.162
G1 F1200 X60.220 Y77.635 E6.51975
G1 X66.594 Y77.635 E7.28463
G1 X66.594 Y78.088 E7.33899
G1 X66.625 Y78.098 E7.34290
G1 X67.767 Y79.066 E7.52254
G1 X68.335 Y80.094 E7.66348
G1 X68.587 Y81.032 E7.78003
G1 X68.585 Y81.924 E7.88707
G1 X68.587 Y82.559 E7.96327
G1 X68.331 Y83.798 E8.11509
G1 X68.209 Y83.961 E8.13953
G1 X68.210 Y84.743 E8.23337
G1 X68.864 Y84.743 E8.31185
G1 X68.873 Y92.779 E9.27617
G1 X57.872 Y92.779 E10.59629
G1 X57.881 Y84.743 E11.56061
G1 X58.626 Y84.743 E11.65001
G1 X58.627 Y83.866 E11.75525
G1 X58.456 Y83.563 E11.79700
G1 X58.249 Y82.561 E11.91978
G1 X58.251 Y81.807 E12.01026
G1 X58.250 Y81.395 E12.05970
G1 X58.314 Y80.560 E12.16019
G1 X58.890 Y79.324 E12.32383
G1 X59.625 Y78.557 E12.45130
G1 X60.221 Y78.162 E12.53711
G0 F9000 X60.622 Y78.405
G1 F1200 X60.621 Y78.035 E12.58151
G1 X66.194 Y78.035 E13.25027
G1 X66.194 Y78.377 E13.29131
G1 X66.425 Y78.453 E13.32049
G1 X67.452 Y79.324 E13.48208
G1 X67.961 Y80.245 E13.60836
G1 X68.187 Y81.085 E13.71274
G1 X68.185 Y81.923 E13.81330
G1 X68.187 Y82.519 E13.88482
G1 X67.957 Y83.630 E14.02097
G1 X67.809 Y83.828 E14.05063
G1 X67.810 Y85.143 E14.20843
G1 X68.464 Y85.143 E14.28691
G1 X68.473 Y92.379 E15.15523
G1 X58.272 Y92.379 E16.37935
G1 X58.281 Y85.143 E17.24767
G1 X59.026 Y85.143 E17.33707
G1 X59.027 Y83.761 E17.50291
G1 X58.835 Y83.421 E17.54977
G1 X58.649 Y82.520 E17.66017
G1 X58.651 Y81.808 E17.74561
G1 X58.650 Y81.410 E17.79337
G1 X58.707 Y80.663 E17.88327
G1 X59.224 Y79.553 E18.03021
G1 X59.883 Y78.865 E18.14453
G1 X60.506 Y78.453 E18.23416
G1 X60.622 Y78.405 E18.24923
G10
G0 F9000 X63.751 Y86.155
;TYPE:FILL
G11
G1 F1200 X62.965 Y86.940 E18.38253
G0 F9000 X62.827 Y86.016
;TYPE:WALL-INNER
G1 F1200 X64.009 Y86.016 E18.52437
G1 X64.012 Y88.579 E18.83193
G1 X62.824 Y88.579 E18.97449
G1 X62.827 Y86.016 E19.28205
G0 F9000 X62.795 Y85.616
;TYPE:WALL-OUTER
G1 F1200 X64.030 Y85.616 E19.43025
G1 X64.030 Y81.435 E19.93197
G1 X64.637 Y81.443 E20.00482
G1 X64.730 Y81.474 E20.01658
G1 X64.778 Y81.514 E20.02408
G1 X64.786 Y81.530 E20.02623
G1 X64.785 Y81.915 E20.07243
G1 X64.786 Y82.176 E20.10375
G1 X64.781 Y82.200 E20.10669
G1 X64.735 Y82.251 E20.11493
G1 X64.695 Y82.267 E20.12010
G1 X64.411 Y82.324 E20.15486
G1 X64.411 Y88.543 E20.90114
G1 X65.068 Y88.543 E20.97998
G1 X65.069 Y88.979 E21.03230
G1 X61.676 Y88.979 E21.43946
G1 X61.677 Y88.543 E21.49178
G1 X62.425 Y88.543 E21.58154
G1 X62.426 Y82.317 E22.32866
G1 X62.173 Y82.276 E22.35942
G1 X62.061 Y82.220 E22.37444
G1 X62.050 Y82.176 E22.37988
G1 X62.051 Y81.816 E22.42308
G1 X62.050 Y81.538 E22.45645
G1 X62.074 Y81.493 E22.46257
G1 X62.137 Y81.458 E22.47121
G1 X62.270 Y81.435 E22.48741
G1 X62.795 Y81.435 E22.55041
G1 X62.795 Y85.616 E23.05213
G0 F9000 X63.245 Y86.155
;TYPE:SKIN
G1 F900 X63.870 Y86.780 E23.15820
G0 F9000 X63.870 Y87.346
G1 F900 X62.965 Y86.441 E23.31178
G0 F9000 X62.965 Y87.006
G1 F900 X63.871 Y87.913 E23.46562
G0 F9000 X63.831 Y88.438
G1 F900 X62.965 Y87.572 E23.61258
G0 F9000 X62.964 Y88.137
G1 F900 X63.265 Y88.438 E23.66366
G0 F9000 X63.869 Y86.213
G1 F900 X63.810 Y86.155 E23.67359
;LAYER:1
M106 S127
G0 F9000 X63.751 Y86.155 Z0.400
;TYPE:FILL
G1 F1380 X62.875 Y87.030 E23.72312
G0 F9000 X62.873 Y88.328
G1 F1380 X62.982 Y88.437 E23.72928
G0 F9000 X64.101 Y87.888
;TYPE:WALL-INNER
G1 F1140 X64.102 Y88.579 E23.75692
G1 X62.733 Y88.579 E23.81168
G1 X62.737 Y86.016 E23.91420
G1 X64.100 Y86.016 E23.96872
G1 X64.101 Y87.888 E24.04360
G10
G0 F9000 X62.368 Y81.923
G11
G1 F1140 X62.368 Y81.835 E24.04712
G1 X62.395 Y81.835 E24.04820
G1 X62.395 Y81.928 E24.05192
G1 X62.368 Y81.923 E24.05302
G0 F9000 X64.467 Y81.911
G1 F1140 X64.431 Y81.915 E24.05447
G1 X64.431 Y81.836 E24.05763
G1 X64.467 Y81.837 E24.05907
G1 X64.467 Y81.911 E24.06203
G0 F9000 X64.500 Y82.310
;TYPE:WALL-OUTER
G1 F840 X64.502 Y88.543 E24.31135
G1 X65.151 Y88.543 E24.33731
G1 X65.152 Y88.979 E24.35475
G1 X61.615 Y88.979 E24.49623
G1 X61.615 Y88.543 E24.51367
G1 X62.334 Y88.543 E24.54243
G1 X62.334 Y82.637 E24.77867
G1 X62.336 Y82.324 E24.79119
G1 X62.048 Y82.268 E24.80293
G1 X62.012 Y82.250 E24.80454
G1 X61.975 Y82.216 E24.80655
G1 X61.967 Y82.176 E24.80818
G1 X61.968 Y81.880 E24.82002
G1 X61.967 Y81.557 E24.83294
G1 X61.990 Y81.490 E24.83577
G1 X62.045 Y81.456 E24.83836
G1 X62.154 Y81.435 E24.84280
G1 X62.795 Y81.435 E24.86844
G1 X62.795 Y85.616 E25.03568
G1 X64.030 Y85.616 E25.08508
G1 X64.030 Y81.435 E25.25232
G1 X64.742 Y81.443 E25.28080
G1 X64.821 Y81.472 E25.28417
G1 X64.863 Y81.512 E25.28649
G1 X64.868 Y81.532 E25.28731
G1 X64.867 Y81.850 E25.30003
G1 X64.868 Y82.191 E25.31367
G1 X64.857 Y82.223 E25.31503
G1 X64.831 Y82.248 E25.31647
G1 X64.734 Y82.284 E25.32061
G1 X64.500 Y82.310 E25.33003
G10
G0 F9000 X63.960 Y86.228
;TYPE:SKIN
G11
G1 F540 X62.875 Y87.314 E25.39143
G0 F9000 X62.874 Y87.880
G1 F540 X63.960 Y86.794 E25.45286
G0 F9000 X63.961 Y87.359
G1 F540 X62.883 Y88.437 E25.51385
G0 F9000 X63.448 Y88.437
G1 F540 X63.961 Y87.925 E25.54284
G0 F9000 X62.876 Y86.747
G1 F540 X63.468 Y86.155 E25.57633
;LAYER:2
M106 S255
G0 F9000 X63.751 Y86.155 Z0.500
;TYPE:FILL
G1 F1980 X62.799 Y87.107 E25.63018
G0 F9000 X62.798 Y88.253
G1 F1980 X62.982 Y88.437 E25.64059
G0 F9000 X62.658 Y88.579
;TYPE:WALL-INNER
G1 F1560 X62.659 Y86.016 E25.74311
G1 X64.178 Y86.016 E25.80387
G1 X64.179 Y88.579 E25.90639
G1 X62.658 Y88.579 E25.96723
G10
G0 F9000 X62.297 Y81.923
G11
G1 F1560 X62.297 Y81.835 E25.97075
G1 X62.395 Y81.835 E25.97467
G1 X62.395 Y81.941 E25.97891
G1 X62.297 Y81.923 E25.98289
G0 F9000 X64.431 Y81.835
G1 F1560 X64.539 Y81.835 E25.98721
G1 X64.539 Y81.910 E25.99021
G1 X64.431 Y81.920 E25.99455
G1 X64.431 Y81.835 E25.99795
G0 F9000 X64.578 Y82.308
;TYPE:WALL-OUTER
G1 F960 X64.579 Y88.543 E26.24735
G1 X65.213 Y88.543 E26.27271
G1 X65.214 Y88.979 E26.29015
G1 X61.574 Y88.979 E26.43575
G1 X61.574 Y88.543 E26.45319
G1 X62.258 Y88.543 E26.48055
G1 X62.259 Y82.323 E26.72935
G1 X61.965 Y82.268 E26.74132
G1 X61.934 Y82.251 E26.74273
G1 X61.901 Y82.218 E26.74460
G1 X61.896 Y82.185 E26.74593
G1 X61.897 Y81.976 E26.75429
G1 X61.896 Y81.548 E26.77141
G1 X61.903 Y81.517 E26.77268
G1 X61.931 Y81.474 E26.77474
G1 X62.007 Y81.441 E26.77805
G1 X62.795 Y81.435 E26.80957
G1 X62.795 Y85.616 E26.97681
G1 X64.030 Y85.616 E27.02621
G1 X64.030 Y81.435 E27.19345
G1 X64.773 Y81.435 E27.22317
G1 X64.888 Y81.463 E27.22790
G1 X64.920 Y81.491 E27.22961
G1 X64.940 Y81.534 E27.23150
G1 X64.939 Y81.754 E27.24030
G1 X64.940 Y82.185 E27.25754
G1 X64.923 Y82.231 E27.25950
G1 X64.856 Y82.276 E27.26273
G1 X64.832 Y82.283 E27.26373
G1 X64.578 Y82.308 E27.27394
G0 F9000 X64.278 Y82.308
G0 X64.371 Y85.957
G0 X63.810 Y86.155
;TYPE:SKIN
G1 F540 X64.039 Y86.383 E27.28687
G0 F9000 X64.039 Y86.949
G1 F540 X63.245 Y86.155 E27.33178
G0 F9000 X62.798 Y86.274
G1 F540 X64.039 Y87.515 E27.40198
G0 F9000 X64.039 Y88.080
G1 F540 X62.798 Y86.840 E27.47216
G0 F9000 X62.798 Y87.405
G1 F540 X63.830 Y88.437 E27.53054
G0 F9000 X63.264 Y88.437
G1 F540 X62.798 Y87.971 E27.55690
;LAYER:3
G0 F9000 X62.732 Y88.188 Z0.600
;TYPE:FILL
G1 F2520 X62.982 Y88.438 E27.57104
G0 F9000 X62.733 Y87.173
G1 F2520 X63.751 Y86.155 E27.62863
G0 F9000 X64.245 Y86.103
;TYPE:WALL-INNER
G1 F1980 X64.244 Y88.579 E27.72767
G1 X62.592 Y88.579 E27.79375
G1 X62.591 Y87.516 E27.83627
G1 X62.593 Y86.016 E27.89627
G1 X64.244 Y86.016 E27.96231
G1 X64.245 Y86.103 E27.96579
G0 F9000 X64.323 Y81.996
G0 X64.602 Y81.915
G1 F1980 X64.430 Y81.934 E27.97271
G1 X64.430 Y81.835 E27.97667
G1 X64.601 Y81.837 E27.98351
G1 X64.602 Y81.915 E27.98663
G0 F9000 X64.430 Y81.908
G0 X64.371 Y85.957
G0 X62.454 Y85.957
G0 X62.395 Y81.836
G1 F1980 X62.395 Y81.944 E27.99095
G1 X62.235 Y81.921 E27.99741
G1 X62.235 Y81.838 E28.00073
G1 X62.395 Y81.836 E28.00714
G0 F9000 X62.172 Y82.316
;TYPE:WALL-OUTER
G1 F1020 X61.929 Y82.280 E28.01696
G1 X61.877 Y82.257 E28.01924
G1 X61.857 Y82.240 E28.02029
G1 X61.834 Y82.194 E28.02234
G1 X61.835 Y82.098 E28.02618
G1 X61.834 Y81.540 E28.04850
G1 X61.856 Y81.482 E28.05098
G1 X61.872 Y81.469 E28.05181
G1 X61.936 Y81.443 E28.05457
G1 X62.795 Y81.435 E28.08893
G1 X62.795 Y85.616 E28.25617
G1 X64.030 Y85.616 E28.30557
G1 X64.030 Y81.435 E28.47281
G1 X64.889 Y81.441 E28.50717
G1 X64.939 Y81.456 E28.50926
G1 X64.973 Y81.479 E28.51090
G1 X64.996 Y81.515 E28.51261
G1 X65.002 Y81.541 E28.51368
G1 X65.001 Y81.631 E28.51728
G1 X65.002 Y82.178 E28.53916
G1 X64.995 Y82.213 E28.54059
G1 X64.975 Y82.242 E28.54200
G1 X64.905 Y82.283 E28.54524
G1 X64.666 Y82.310 E28.55486
G1 X64.644 Y83.524 E28.60343
G1 X64.645 Y83.706 E28.61071
G1 X64.644 Y85.974 E28.70143
G1 X64.645 Y86.103 E28.70659
G1 X64.644 Y88.543 E28.80419
G1 X65.256 Y88.543 E28.82867
G1 X65.256 Y88.979 E28.84611
G1 X61.546 Y88.979 E28.99451
G1 X61.546 Y88.543 E29.01195
G1 X62.192 Y88.543 E29.03779
G1 X62.193 Y83.601 E29.23547
G1 X62.175 Y82.978 E29.26040
G1 X62.172 Y82.316 E29.28688
G0 F9000 X62.374 Y82.723
;TYPE:SKIN
G1 F540 X62.594 Y82.786 E29.29935
G1 X62.489 Y83.457 E29.31117
G1 X62.493 Y84.018 E29.32250
G1 X62.493 Y84.584 E29.33388
G1 X62.493 Y85.150 E29.34526
G1 X62.392 Y85.533 E29.36110
G0 F9000 X62.902 Y86.155
G1 F540 X62.733 Y86.325 E29.37069
G0 F9000 X62.733 Y86.890
G1 F540 X63.468 Y86.155 E29.41227
G0 F9000 X64.034 Y86.155
G1 F540 X62.733 Y87.456 E29.48586
G0 F9000 X62.733 Y88.022
G1 F540 X64.104 Y86.650 E29.56345
G0 F9000 X64.104 Y87.216
G1 F540 X62.882 Y88.438 E29.63257
G0 F9000 X63.447 Y88.438
G1 F540 X64.104 Y87.782 E29.66971
G0 F9000 X64.104 Y88.348
G1 F540 X64.013 Y88.438 E29.67483
G0 F9000 X64.353 Y85.835
G1 F540 X64.337 Y85.569 E29.67989
G1 X64.337 Y85.003 E29.69195
G1 X64.337 Y84.437 E29.70406
G1 X64.337 Y83.872 E29.71610
G1 X64.337 Y83.306 E29.72815
G1 X64.342 Y82.735 E29.74083
G1 X64.464 Y82.330 E29.75775
;LAYER:4
G0 F9000 X64.371 Y85.957 Z0.700
G0 X63.751 Y86.155
;TYPE:FILL
G1 F3120 X62.675 Y87.230 E29.81859
G0 F9000 X62.675 Y88.130
G1 F3120 X62.982 Y88.437 E29.83595
G0 F9000 X62.535 Y86.945
;TYPE:WALL-INNER
G1 F2340 X62.535 Y86.016 E29.87311
G1 X64.300 Y86.016 E29.94371
G1 X64.301 Y86.636 E29.96851
G1 X64.300 Y88.579 E30.04623
G1 X62.536 Y88.579 E30.11679
G1 X62.535 Y86.945 E30.18215
G0 F9000 X62.462 Y81.997
G0 X62.181 Y81.915
G1 F2340 X62.182 Y81.839 E30.18519
G1 X62.395 Y81.835 E30.19372
G1 X62.395 Y81.939 E30.19788
G1 X62.181 Y81.915 E30.20649
G0 F9000 X62.395 Y81.906
G0 X62.454 Y85.957
G0 X64.371 Y85.957
G0 X64.430 Y81.835
G1 F2340 X64.655 Y81.835 E30.21549
G1 X64.654 Y81.912 E30.21857
G1 X64.430 Y81.934 E30.22757
G1 X64.430 Y81.835 E30.23153
G0 F9000 X64.717 Y82.308
;TYPE:WALL-OUTER
G1 F1140 X64.701 Y84.142 E30.30490
G1 X64.700 Y88.543 E30.48094
G1 X65.287 Y88.543 E30.50442
G1 X65.287 Y88.979 E30.52186
G1 X61.531 Y88.979 E30.67210
G1 X61.531 Y88.543 E30.68954
G1 X62.136 Y88.543 E30.71374
G1 X62.136 Y83.602 E30.91138
G1 X62.116 Y82.310 E30.96306
G1 X61.873 Y82.282 E30.97285
G1 X61.828 Y82.262 E30.97482
G1 X61.798 Y82.231 E30.97654
G1 X61.781 Y82.181 E30.97865
G1 X61.782 Y81.568 E31.00317
G1 X61.781 Y81.537 E31.00441
G1 X61.786 Y81.514 E31.00536
G1 X61.814 Y81.470 E31.00744
G1 X61.874 Y81.443 E31.01007
G1 X62.413 Y81.435 E31.03164
G1 X62.795 Y81.435 E31.04692
G1 X62.795 Y85.616 E31.21416
G1 X64.030 Y85.616 E31.26356
G1 X64.030 Y81.435 E31.43080
G1 X64.900 Y81.435 E31.46560
G1 X64.997 Y81.454 E31.46955
G1 X65.015 Y81.465 E31.47039
G1 X65.041 Y81.489 E31.47181
G1 X65.046 Y81.500 E31.47229
G1 X65.055 Y81.546 E31.47417
G1 X65.054 Y82.162 E31.49881
G1 X65.032 Y82.244 E31.50220
G1 X65.012 Y82.263 E31.50331
G1 X64.990 Y82.275 E31.50431
G1 X64.964 Y82.283 E31.50540
G1 X64.717 Y82.308 E31.51533
G0 F9000 X64.518 Y82.337
;TYPE:SKIN
G1 F540 X64.268 Y82.370 E31.52726
G1 X64.372 Y83.039 E31.54337
G1 X64.370 Y83.604 E31.55936
G1 X64.369 Y84.168 E31.57521
G1 X64.368 Y84.732 E31.59089
G1 X64.366 Y85.296 E31.60640
G1 X64.500 Y85.714 E31.62395
G0 F9000 X63.810 Y86.155
G1 F540 X64.160 Y86.504 E31.64373
G0 F9000 X64.160 Y87.070
G1 F540 X63.245 Y86.155 E31.69549
G0 F9000 X62.679 Y86.155
G1 F540 X64.160 Y87.635 E31.77924
G0 F9000 X64.160 Y88.201
G1 F540 X62.675 Y86.716 E31.86324
G0 F9000 X62.675 Y87.282
G1 F540 X63.830 Y88.437 E31.92858
G0 F9000 X63.264 Y88.437
G1 F540 X62.675 Y87.848 E31.96190
G0 F9000 X62.454 Y85.957
G0 X62.595 Y85.505
G1 F540 X62.463 Y85.090 E31.97675
G1 X62.461 Y84.523 E31.99177
G1 X62.460 Y83.955 E32.00705
G1 X62.458 Y83.388 E32.02253
G1 X62.456 Y82.821 E32.03812
G1 X62.315 Y82.397 E32.05600
;LAYER:5
G0 F9000 X62.138 Y81.912 Z0.800
;TYPE:WALL-INNER
G1 F2340 X62.138 Y81.835 E32.05908
G1 X62.395 Y81.835 E32.06936
G1 X62.395 Y81.939 E32.07352
G1 X62.138 Y81.912 E32.08385
G0 F9000 X62.395 Y81.903
G0 X62.454 Y85.957
G0 X64.371 Y85.957
G0 X64.430 Y81.835
G1 F2340 X64.698 Y81.835 E32.09457
G1 X64.698 Y81.907 E32.09745
G1 X64.430 Y81.929 E32.10821
G1 X64.430 Y81.835 E32.11197
G0 F9000 X64.371 Y85.957
G0 X62.486 Y86.232
G1 F2340 X62.487 Y86.016 E32.12061
G1 X64.349 Y86.016 E32.19509
G1 X64.349 Y87.200 E32.24245
G1 X64.347 Y88.579 E32.29761
G1 X62.487 Y88.579 E32.37201
G1 X62.486 Y86.232 E32.46589
G0 F9000 X62.795 Y85.616
;TYPE:WALL-OUTER
G1 F1140 X64.030 Y85.616 E32.51529
G1 X64.030 Y81.435 E32.68253
G1 X64.977 Y81.435 E32.72041
G1 X65.024 Y81.443 E32.72231
G1 X65.079 Y81.479 E32.72494
G1 X65.088 Y81.491 E32.72554
G1 X65.097 Y81.519 E32.72672
G1 X65.099 Y82.176 E32.75300
G1 X65.077 Y82.247 E32.75597
G1 X65.040 Y82.275 E32.75783
G1 X65.016 Y82.283 E32.75884
G1 X64.748 Y82.305 E32.76960
G1 X64.748 Y88.543 E33.01912
G1 X65.303 Y88.543 E33.04132
G1 X65.304 Y88.979 E33.05876
G1 X61.528 Y88.979 E33.20980
G1 X61.528 Y88.543 E33.22724
G1 X62.087 Y88.543 E33.24960
G1 X62.087 Y82.309 E33.49896
G1 X61.817 Y82.281 E33.50982
G1 X61.780 Y82.263 E33.51146
G1 X61.755 Y82.236 E33.51293
G1 X61.737 Y82.183 E33.51517
G1 X61.738 Y81.731 E33.53325
G1 X61.737 Y81.529 E33.54133
G1 X61.740 Y81.518 E33.54179
G1 X61.772 Y81.469 E33.54413
G1 X61.808 Y81.445 E33.54586
G1 X61.824 Y81.439 E33.54654
G1 X62.795 Y81.435 E33.58538
G1 X62.795 Y85.616 E33.75262
G0 F9000 X62.594 Y85.332
;TYPE:SKIN
G1 F540 X62.287 Y85.356 E33.77002
G1 X62.440 Y84.636 E33.78732
G1 X62.440 Y84.071 E33.80467
G1 X62.440 Y83.505 E33.82199
G1 X62.440 Y82.939 E33.83931
G1 X62.440 Y82.374 E33.85665
G1 X62.411 Y82.121 E33.86684
G0 F9000 X62.454 Y85.957
G0 X64.371 Y85.957
G0 X64.330 Y82.565
G0 X64.230 Y82.565
G1 F540 X64.547 Y82.530 E33.88482
G1 X64.388 Y83.255 E33.90279
G1 X64.388 Y83.820 E33.92070
G1 X64.388 Y84.386 E33.93864
G1 X64.388 Y84.952 E33.95658
G1 X64.388 Y85.517 E33.97449
G1 X64.354 Y85.834 E33.98724
G0 F9000 X64.034 Y86.155
G1 F540 X62.627 Y87.562 E34.06684
G0 F9000 X62.626 Y86.997
G1 F540 X63.468 Y86.155 E34.11447
G0 F9000 X62.902 Y86.155
G1 F540 X62.626 Y86.431 E34.13008
G0 F9000 X64.208 Y86.546
G1 F540 X62.627 Y88.128 E34.21954
G0 F9000 X62.882 Y88.438
G1 F540 X64.208 Y87.112 E34.29455
G0 F9000 X64.207 Y87.679
G1 F540 X63.447 Y88.438 E34.33752
G0 F9000 X64.013 Y88.438
G1 F540 X64.207 Y88.244 E34.34849
;LAYER:6
G0 F9000 X62.982 Y88.438 Z0.900
;TYPE:FILL
G1 F3120 X62.586 Y88.042 E34.37089
G0 F9000 X62.587 Y87.319
G1 F3120 X63.751 Y86.155 E34.43674
G0 F9000 X64.388 Y86.016
;TYPE:WALL-INNER
G1 F2340 X64.387 Y88.579 E34.53926
G1 X62.447 Y88.579 E34.61686
G1 X62.448 Y86.016 E34.71938
G1 X64.388 Y86.016 E34.79698
G0 F9000 X64.443 Y81.985
