;FLAVOR:UltiGCode
;TIME:6678
;MATERIAL:5899
;MATERIAL2:0

;Layer count: 123
;LAYER:0
M107
G0 F9000 X109.226 Y28.581 Z0.300
;TYPE:SKIRT
G1 F1200 X115.465 Y28.581 E0.74868
G1 X116.394 Y28.573 E0.86016
G1 X117.173 Y28.581 E0.95365
G1 X117.555 Y28.581 E0.99949
G1 X117.555 Y28.585 E0.99997
G1 X120.774 Y28.618 E1.38627
G1 X120.774 Y36.822 E2.37075
G1 X121.812 Y36.822 E2.49531
G1 X121.615 Y41.942 E3.11016
G1 X121.593 Y42.510 E3.17838
G1 X121.560 Y43.603 E3.30959
G1 X121.561 Y43.603 E3.30971
G1 X121.531 Y44.741 E3.44632
G1 X121.519 Y45.264 E3.50910
G1 X121.517 Y45.436 E3.52974
G1 X121.496 Y46.397 E3.64509
G1 X121.494 Y46.594 E3.66873
G1 X121.460 Y50.503 E4.13783
G1 X120.565 Y50.503 E4.24523
G1 X120.565 Y58.117 E5.15891
G1 X116.414 Y58.117 E5.65703
G1 X114.721 Y58.113 E5.86019
G1 X113.581 Y58.118 E5.99699
G1 X109.435 Y58.110 E6.49451
G1 X109.435 Y50.503 E7.40735
G1 X108.580 Y50.503 E7.50995
G1 X108.495 Y46.161 E8.03109
G1 X108.479 Y45.365 E8.12663
G1 X108.466 Y44.728 E8.20308
G1 X108.434 Y43.467 E8.35445
G1 X108.398 Y42.229 E8.50308
G1 X108.397 Y42.229 E8.50320
G1 X108.374 Y41.589 E8.58005
G1 X108.375 Y41.589 E8.58017
G1 X108.352 Y40.992 E8.65186
G1 X108.153 Y36.822 E9.15283
G1 X109.226 Y36.822 E9.28159
G1 X109.226 Y28.581 E10.27051
G0 F9000 X109.626 Y28.981
G1 F1200 X115.477 Y28.981 E10.97263
G1 X116.393 Y28.973 E11.08255
G1 X120.374 Y29.014 E11.56030
G1 X120.374 Y37.222 E12.54526
G1 X121.396 Y37.222 E12.66790
G1 X121.216 Y41.927 E13.23291
G1 X121.194 Y42.494 E13.30100
G1 X121.161 Y43.604 E13.43426
G1 X121.131 Y44.730 E13.56943
G1 X121.119 Y45.259 E13.63293
G1 X121.117 Y45.429 E13.65333
G1 X121.096 Y46.392 E13.76891
G1 X121.094 Y46.589 E13.79256
G1 X121.063 Y50.103 E14.21425
G1 X120.165 Y50.103 E14.32201
G1 X120.165 Y57.717 E15.23569
G1 X116.415 Y57.717 E15.68569
G1 X114.681 Y57.713 E15.89377
G1 X113.581 Y57.718 E16.02577
G1 X109.835 Y57.711 E16.47529
G1 X109.835 Y50.103 E17.38825
G1 X108.972 Y50.103 E17.49181
G1 X108.895 Y46.153 E17.96590
G1 X108.866 Y44.719 E18.13802
G1 X108.834 Y43.457 E18.28951
G1 X108.796 Y42.195 E18.44102
G1 X108.774 Y41.575 E18.51546
G1 X108.750 Y40.940 E18.59172
G1 X108.573 Y37.222 E19.03838
G1 X109.626 Y37.222 E19.16474
G1 X109.626 Y28.981 E20.15366
G10
G0 F9000 X112.555 Y41.022
;TYPE:WALL-INNER
G11
G1 F1200 X117.447 Y41.022 E20.74070
G1 X117.396 Y42.350 E20.90018
G1 X117.362 Y43.491 E21.03716
G1 X117.332 Y44.631 E21.17401
G1 X117.319 Y45.207 E21.24315
G1 X117.297 Y46.303 E21.37469
G1 X116.365 Y46.303 E21.48653
G1 X115.510 Y46.306 E21.58913
G1 X114.598 Y46.305 E21.69857
G1 X113.635 Y46.307 E21.81413
G1 X112.698 Y46.303 E21.92658
G1 X112.665 Y44.642 E22.12593
G1 X112.633 Y43.361 E22.27970
G1 X112.595 Y42.080 E22.43349
G1 X112.555 Y41.022 E22.56054
G0 F9000 X112.148 Y40.812
;TYPE:WALL-OUTER
G1 F1200 X112.139 Y40.622 E22.58337
G1 X113.026 Y40.622 E22.68981
G1 X113.026 Y32.381 E23.67873
G1 X113.755 Y32.381 E23.76621
G1 X113.755 Y40.622 E24.75513
G1 X116.245 Y40.622 E25.05393
G1 X116.245 Y32.374 E26.04369
G1 X116.391 Y32.373 E26.06121
G1 X116.974 Y32.379 E26.13117
G1 X116.974 Y40.622 E27.12033
G1 X117.863 Y40.622 E27.22701
G1 X117.796 Y42.363 E27.43609
G1 X117.732 Y44.641 E27.70955
G1 X117.719 Y45.214 E27.77833
G1 X117.696 Y46.357 E27.91552
G1 X117.693 Y46.703 E27.95704
G1 X116.765 Y46.703 E28.06840
G1 X116.765 Y54.317 E28.98208
G1 X116.140 Y54.316 E29.05708
G1 X116.140 Y46.705 E29.97040
G1 X113.848 Y46.706 E30.24544
G1 X113.847 Y54.317 E31.15876
G1 X113.576 Y54.318 E31.19128
G1 X113.235 Y54.317 E31.23220
G1 X113.235 Y46.703 E32.14588
G1 X112.306 Y46.703 E32.25736
G1 X112.265 Y44.651 E32.50365
G1 X112.195 Y42.094 E32.81060
G1 X112.148 Y40.812 E32.96455
G0 F9000 X112.721 Y41.162
;TYPE:SKIN
G1 F900 X117.171 Y45.611 E33.71965
G0 F9000 X117.156 Y46.162
G1 F900 X112.721 Y41.727 E34.47230
G0 F9000 X112.740 Y42.312
G1 F900 X116.590 Y46.162 E35.12566
G0 F9000 X116.346 Y46.484
G1 F900 X116.451 Y46.872 E35.16268
G1 X116.451 Y47.437 E35.20082
G1 X116.451 Y48.003 E35.23886
G1 X116.451 Y48.569 E35.27706
G1 X116.451 Y49.135 E35.31527
G1 X116.451 Y49.700 E35.35340
G1 X116.451 Y50.266 E35.39161
G1 X116.451 Y50.832 E35.42981
G1 X116.451 Y51.397 E35.46795
G1 X116.451 Y51.963 E35.50616
G1 X116.451 Y52.529 E35.54436
G1 X116.451 Y53.094 E35.58250
G1 X116.451 Y53.660 E35.62070
G1 X116.564 Y54.056 E35.67012
G0 F9000 X116.481 Y46.363
G0 X113.507 Y46.366
G0 X113.646 Y53.967
G1 F900 X113.540 Y53.577 E35.70613
G1 X113.540 Y53.011 E35.74213
G1 X113.540 Y52.446 E35.77806
G1 X113.540 Y51.880 E35.81406
G1 X113.540 Y51.314 E35.85006
G1 X113.540 Y50.748 E35.88606
G1 X113.540 Y50.184 E35.92193
G1 X113.540 Y49.618 E35.95792
G1 X113.540 Y49.052 E35.99392
G1 X113.540 Y48.486 E36.02992
G1 X113.540 Y47.921 E36.06602
G1 X113.540 Y47.355 E36.10202
G1 X113.540 Y46.789 E36.13802
G1 X113.520 Y46.486 E36.17446
G0 F9000 X113.762 Y46.162
G1 F900 X112.811 Y45.211 E36.33585
G0 F9000 X112.825 Y45.791
G1 F900 X113.196 Y46.162 E36.39881
G0 F9000 X114.327 Y46.162
G1 F900 X112.796 Y44.631 E36.65863
G0 F9000 X112.782 Y44.052
G1 F900 X114.893 Y46.162 E37.01679
G0 F9000 X115.459 Y46.162
G1 F900 X112.768 Y43.472 E37.47338
G0 F9000 X112.754 Y42.892
G1 F900 X116.024 Y46.162 E38.02832
G0 F9000 X117.183 Y45.058
G1 F900 X113.286 Y41.162 E38.68958
G0 F9000 X113.532 Y40.841
G1 F900 X113.389 Y40.416 E38.74164
G1 X113.389 Y39.850 E38.79733
G1 X113.389 Y39.284 E38.85303
G1 X113.389 Y38.718 E38.90872
G1 X113.389 Y38.153 E38.96432
G1 X113.389 Y37.587 E39.02001
G1 X113.389 Y37.021 E39.07571
G1 X113.389 Y36.456 E39.13130
G1 X113.389 Y35.890 E39.18700
G1 X113.389 Y35.324 E39.24269
G1 X113.389 Y34.759 E39.29829
G1 X113.389 Y34.193 E39.35398
G1 X113.389 Y33.627 E39.40968
G1 X113.389 Y33.062 E39.46544
G1 X113.225 Y32.615 E39.52258
G0 F9000 X113.326 Y32.615
G0 X113.414 Y40.963
G0 X116.586 Y40.963
G0 X116.545 Y33.005
G0 X116.444 Y33.005
G1 F900 X116.608 Y33.453 E39.57825
G1 X116.608 Y34.018 E39.63402
G1 X116.608 Y34.584 E39.68971
G1 X116.608 Y35.150 E39.74541
G1 X116.608 Y35.715 E39.80117
G1 X116.608 Y36.281 E39.85687
G1 X116.608 Y36.847 E39.91256
G1 X116.608 Y37.412 E39.96833
G1 X116.608 Y37.978 E40.02402
G1 X116.608 Y38.544 E40.07972
G1 X116.608 Y39.109 E40.13548
G1 X116.608 Y39.675 E40.19118
G1 X116.608 Y40.241 E40.24687
G1 X116.773 Y40.689 E40.30416
G0 F9000 X116.681 Y41.162
G1 F900 X117.282 Y41.763 E40.40615
G0 F9000 X117.264 Y42.311
G1 F900 X116.115 Y41.162 E40.60115
G0 F9000 X115.549 Y41.162
G1 F900 X117.247 Y42.859 E40.88922
G0 F9000 X117.230 Y43.408
G1 F900 X114.984 Y41.162 E41.27038
G0 F9000 X114.418 Y41.162
G1 F900 X117.212 Y43.956 E41.74454
G0 F9000 X117.195 Y44.505
G1 F900 X113.852 Y41.162 E42.31186
G0 F9000 X116.586 Y40.963
G0 X116.773 Y32.769
G1 F900 X116.579 Y32.574 E42.34487
;LAYER:1
M106 S127
G0 F9000 X116.633 Y40.963 Z0.400
G0 X117.604 Y41.022
;TYPE:WALL-INNER
G1 F1800 X117.565 Y41.742 E42.37371
G1 X117.539 Y42.308 E42.39638
G1 X117.515 Y42.874 E42.41904
G1 X117.494 Y43.439 E42.44165
G1 X117.474 Y44.005 E42.46431
G1 X117.457 Y44.573 E42.48704
G1 X117.441 Y45.143 E42.50985
G1 X117.427 Y45.711 E42.53257
G1 X117.414 Y46.281 E42.55538
G1 X117.414 Y46.303 E42.55626
G1 X116.365 Y46.303 E42.59822
G1 X115.338 Y46.306 E42.63930
G1 X114.819 Y46.305 E42.66006
G1 X114.270 Y46.306 E42.68202
G1 X113.635 Y46.306 E42.70742
G1 X112.582 Y46.303 E42.74954
G1 X112.559 Y45.277 E42.79059
G1 X112.522 Y43.998 E42.84177
G1 X112.501 Y43.355 E42.86751
G1 X112.449 Y42.074 E42.91879
G1 X112.419 Y41.431 E42.94454
G1 X112.399 Y41.022 E42.96091
G1 X117.604 Y41.022 E43.16911
G0 F9000 X116.974 Y40.622
;TYPE:WALL-OUTER
G1 F1320 X118.019 Y40.622 E43.21091
G1 X117.964 Y41.762 E43.25657
G1 X117.938 Y42.325 E43.27911
G1 X117.894 Y43.453 E43.32427
G1 X117.874 Y44.018 E43.34688
G1 X117.841 Y45.154 E43.39234
G1 X117.814 Y46.288 E43.43771
G1 X117.808 Y46.703 E43.45431
G1 X116.765 Y46.703 E43.49603
G1 X116.765 Y54.602 E43.81199
G1 X116.140 Y54.600 E43.83699
G1 X116.140 Y46.705 E44.15279
G1 X113.848 Y46.706 E44.24447
G1 X113.848 Y54.600 E44.56023
G1 X113.235 Y54.603 E44.58475
G1 X113.235 Y46.703 E44.90075
G1 X112.190 Y46.703 E44.94255
G1 X112.159 Y45.288 E44.99917
G1 X112.101 Y43.370 E45.07592
G1 X112.050 Y42.091 E45.12712
G1 X111.988 Y40.811 E45.17838
G1 X111.980 Y40.622 E45.18595
G1 X113.026 Y40.622 E45.22779
G1 X113.026 Y32.096 E45.56883
G1 X113.755 Y32.096 E45.59799
G1 X113.755 Y40.622 E45.93903
G1 X116.245 Y40.622 E46.03863
G1 X116.245 Y32.100 E46.37951
G1 X116.876 Y32.092 E46.40475
G1 X116.974 Y32.093 E46.40867
G1 X116.974 Y40.622 E46.74983
G0 F9000 X116.773 Y40.769
;TYPE:SKIN
G1 F900 X116.572 Y40.687 E46.75387
G1 X116.773 Y40.203 E46.77483
G0 F9000 X116.947 Y41.161
G1 F900 X112.697 Y45.411 E47.01525
G0 F9000 X112.713 Y45.961
G1 F900 X117.451 Y41.222 E47.28330
G0 F9000 X117.423 Y41.816
G1 F900 X113.077 Y46.162 E47.52915
G0 F9000 X113.643 Y46.162
G1 F900 X117.395 Y42.410 E47.74139
G0 F9000 X117.369 Y43.001
G1 F900 X114.209 Y46.162 E47.92018
G0 F9000 X114.774 Y46.162
G1 F900 X117.352 Y43.585 E48.06598
G0 F9000 X117.334 Y44.168
G1 F900 X115.340 Y46.162 E48.17878
G0 F9000 X115.906 Y46.162
G1 F900 X117.316 Y44.752 E48.25854
G0 F9000 X117.299 Y45.334
G1 F900 X116.471 Y46.162 E48.30538
G0 F9000 X116.564 Y46.635
G1 F900 X116.451 Y47.030 E48.31812
G1 X116.451 Y47.596 E48.33080
G1 X116.451 Y48.162 E48.34347
G1 X116.451 Y48.727 E48.35619
G1 X116.451 Y49.293 E48.36886
G1 X116.451 Y49.859 E48.38154
G1 X116.451 Y50.424 E48.39426
G1 X116.451 Y50.990 E48.40693
G1 X116.451 Y51.556 E48.41961
G1 X116.451 Y52.121 E48.43232
G1 X116.451 Y52.687 E48.44500
G1 X116.451 Y53.253 E48.45768
G1 X116.451 Y53.818 E48.47034
G1 X116.339 Y54.214 E48.48680
G0 F9000 X116.440 Y54.214
G0 X116.481 Y46.363
G0 X113.507 Y46.366
G0 X113.646 Y54.078
G1 F900 X113.434 Y54.007 E48.49878
G1 X113.540 Y53.336 E48.51074
G1 X113.540 Y52.770 E48.52268
G1 X113.540 Y52.204 E48.53462
G1 X113.540 Y51.639 E48.54655
G1 X113.540 Y51.073 E48.55849
G1 X113.540 Y50.507 E48.57043
G1 X113.540 Y49.942 E48.58235
G1 X113.540 Y49.376 E48.59429
G1 X113.540 Y48.810 E48.60624
G1 X113.540 Y48.244 E48.61824
G1 X113.540 Y47.679 E48.63016
G1 X113.540 Y47.113 E48.64210
G1 X113.646 Y46.724 E48.65823
G0 F9000 X112.682 Y44.860
G1 F900 X116.381 Y41.161 E48.86747
G0 F9000 X115.816 Y41.161
G1 F900 X112.666 Y44.310 E49.04564
G0 F9000 X112.652 Y43.760
G1 F900 X115.250 Y41.161 E49.19263
G0 F9000 X114.684 Y41.161
G1 F900 X112.634 Y43.212 E49.30862
G0 F9000 X112.610 Y42.669
G1 F900 X114.119 Y41.161 E49.39396
G0 F9000 X113.553 Y41.161
G1 F900 X112.587 Y42.127 E49.44860
G0 F9000 X112.564 Y41.584
G1 F900 X113.146 Y41.001 E49.47249
G1 X113.389 Y40.476 E49.48649
G1 X113.554 Y40.029 E49.50555
G0 F9000 X113.414 Y40.963
G0 X117.282 Y45.918
G1 F900 X117.037 Y46.162 E49.51938
G0 F9000 X116.545 Y39.967
G0 X116.444 Y39.967
G1 F900 X116.608 Y39.520 E49.53795
G1 X116.608 Y38.954 E49.55652
G1 X116.608 Y38.388 E49.57508
G1 X116.608 Y37.823 E49.59367
G1 X116.608 Y37.257 E49.61224
G1 X116.608 Y36.691 E49.63080
G1 X116.608 Y36.125 E49.64936
G1 X116.608 Y35.560 E49.66795
G1 X116.608 Y34.994 E49.68652
G1 X116.608 Y34.428 E49.70508
G1 X116.608 Y33.863 E49.72367
G1 X116.608 Y33.297 E49.74224
G1 X116.608 Y32.731 E49.76080
G1 X116.765 Y32.292 E49.77945
G0 F9000 X116.765 Y32.394
G0 X116.586 Y40.963
G0 X113.414 Y40.963
G0 X113.554 Y32.675
G1 F900 X113.389 Y33.122 E49.79803
G1 X113.389 Y33.687 E49.81657
G1 X113.389 Y34.253 E49.83513
G1 X113.389 Y34.819 E49.85369
G1 X113.389 Y35.384 E49.87223
G1 X113.389 Y35.950 E49.89079
G1 X113.389 Y36.516 E49.90936
G1 X113.389 Y37.082 E49.92792
G1 X113.389 Y37.647 E49.94651
G1 X113.389 Y38.213 E49.96507
G1 X113.389 Y38.779 E49.98364
G1 X113.389 Y39.344 E50.00223
G1 X113.225 Y39.792 E50.02131
G0 F9000 X113.326 Y39.792
G0 X113.326 Y32.438
G0 X113.225 Y32.438
G1 F900 X113.368 Y32.295 E50.02940
;LAYER:2
M106 S255
G0 F9000 X113.367 Y40.963 Z0.500
G0 X112.294 Y41.425
;TYPE:WALL-INNER
G1 F2400 X112.270 Y41.022 E50.04555
G1 X117.732 Y41.022 E50.26403
G1 X117.693 Y41.657 E50.28948
G1 X117.663 Y42.218 E50.31195
G1 X117.635 Y42.778 E50.33438
G1 X117.609 Y43.338 E50.35680
G1 X117.586 Y43.900 E50.37930
G1 X117.565 Y44.463 E50.40184
G1 X117.546 Y45.029 E50.42449
G1 X117.530 Y45.597 E50.44722
G1 X117.515 Y46.163 E50.46986
G1 X117.512 Y46.303 E50.47547
G1 X116.365 Y46.303 E50.52135
G1 X115.421 Y46.306 E50.55911
G1 X115.040 Y46.305 E50.57435
G1 X113.635 Y46.307 E50.63055
G1 X112.486 Y46.303 E50.67651
G1 X112.459 Y45.276 E50.71760
G1 X112.439 Y44.635 E50.74325
G1 X112.416 Y43.993 E50.76895
G1 X112.390 Y43.352 E50.79461
G1 X112.361 Y42.711 E50.82028
G1 X112.330 Y42.069 E50.84599
G1 X112.294 Y41.425 E50.87179
G0 F9000 X111.931 Y42.090
;TYPE:WALL-OUTER
G1 F1500 X111.856 Y40.808 E50.92315
G1 X111.844 Y40.622 E50.93061
G1 X113.026 Y40.622 E50.97789
G1 X113.026 Y31.862 E51.32829
G1 X113.755 Y31.862 E51.35745
G1 X113.755 Y40.622 E51.70785
G1 X116.245 Y40.622 E51.80745
G1 X116.245 Y31.854 E52.15817
G1 X116.974 Y31.859 E52.18733
G1 X116.974 Y40.622 E52.53785
G1 X118.156 Y40.622 E52.58513
G1 X118.092 Y41.681 E52.62757
G1 X118.034 Y42.797 E52.67227
G1 X118.008 Y43.355 E52.69461
G1 X117.965 Y44.477 E52.73953
G1 X117.946 Y45.042 E52.76214
G1 X117.915 Y46.172 E52.80736
G1 X117.905 Y46.703 E52.82860
G1 X116.765 Y46.703 E52.87420
G1 X116.765 Y54.836 E53.19952
G1 X116.140 Y54.838 E53.22452
G1 X116.140 Y46.705 E53.54984
G1 X113.849 Y46.706 E53.64148
G1 X113.849 Y54.839 E53.96680
G1 X113.235 Y54.837 E53.99136
G1 X113.235 Y46.703 E54.31672
G1 X112.095 Y46.703 E54.36232
G1 X112.059 Y45.287 E54.41898
G1 X112.016 Y44.009 E54.47013
G1 X111.991 Y43.369 E54.49575
G1 X111.931 Y42.090 E54.54696
G0 F9000 X112.462 Y42.034
;TYPE:SKIN
G1 F900 X116.590 Y46.162 E54.78048
G0 F9000 X116.345 Y46.483
G1 F900 X116.451 Y46.872 E54.79281
G1 X116.451 Y47.437 E54.80553
G1 X116.451 Y48.003 E54.81821
G1 X116.451 Y48.569 E54.83094
G1 X116.451 Y49.135 E54.84368
G1 X116.451 Y49.700 E54.85639
G1 X116.451 Y50.266 E54.86912
G1 X116.451 Y50.832 E54.88186
G1 X116.451 Y51.397 E54.89457
G1 X116.451 Y51.963 E54.90731
G1 X116.451 Y52.529 E54.92004
G1 X116.451 Y53.094 E54.93275
G1 X116.451 Y53.660 E54.94549
G1 X116.451 Y54.226 E54.95822
G1 X116.564 Y54.621 E54.97466
G0 F9000 X113.648 Y54.534
G1 F900 X113.541 Y54.143 E54.98678
G1 X113.541 Y53.578 E54.99881
G1 X113.541 Y53.012 E55.01087
G1 X113.541 Y52.446 E55.02298
G1 X113.541 Y51.881 E55.03502
G1 X113.541 Y51.315 E55.04707
G1 X113.541 Y50.749 E55.05918
G1 X113.541 Y50.184 E55.07122
G1 X113.541 Y49.618 E55.08327
G1 X113.541 Y49.052 E55.09539
G1 X113.541 Y48.487 E55.10742
G1 X113.541 Y47.921 E55.11948
G1 X113.541 Y47.355 E55.13153
G1 X113.541 Y46.790 E55.14357
G1 X113.516 Y46.483 E55.15589
G0 F9000 X113.762 Y46.162
G1 F900 X112.582 Y44.983 E55.22261
G0 F9000 X112.563 Y44.398
G1 F900 X114.327 Y46.162 E55.32240
G0 F9000 X114.893 Y46.162
G1 F900 X112.543 Y43.813 E55.45530
G0 F9000 X112.522 Y43.226
G1 F900 X115.459 Y46.162 E55.62142
G0 F9000 X116.024 Y46.162
G1 F900 X112.492 Y42.630 E55.82122
G0 F9000 X112.432 Y41.438
G1 F900 X117.156 Y46.162 E56.08845
G0 F9000 X117.385 Y45.826
G1 F900 X112.721 Y41.162 E56.35228
G0 F9000 X113.286 Y41.162
G1 F900 X117.403 Y45.278 E56.58515
G0 F9000 X117.422 Y44.731
G1 F900 X113.852 Y41.162 E56.78707
G0 F9000 X113.532 Y40.841
G1 F900 X113.389 Y40.416 E56.80442
G1 X113.389 Y39.850 E56.82299
G1 X113.389 Y39.284 E56.84155
G1 X113.389 Y38.718 E56.86012
G1 X113.389 Y38.153 E56.87865
G1 X113.389 Y37.587 E56.89721
G1 X113.389 Y37.021 E56.91578
G1 X113.389 Y36.456 E56.93431
G1 X113.389 Y35.890 E56.95288
G1 X113.389 Y35.324 E56.97144
G1 X113.389 Y34.759 E56.98997
G1 X113.389 Y34.193 E57.00854
G1 X113.389 Y33.627 E57.02710
G1 X113.389 Y33.062 E57.04569
G1 X113.389 Y32.496 E57.06426
G1 X113.238 Y32.062 E57.08264
G0 F9000 X113.414 Y40.963
G0 X116.586 Y40.963
G0 X116.545 Y32.439
G0 X116.444 Y32.439
G1 F900 X116.608 Y32.887 E57.10119
G1 X116.608 Y33.453 E57.11976
G1 X116.608 Y34.018 E57.13835
G1 X116.608 Y34.584 E57.15691
G1 X116.608 Y35.150 E57.17548
G1 X116.608 Y35.715 E57.19407
G1 X116.608 Y36.281 E57.21263
G1 X116.608 Y36.847 E57.23120
G1 X116.608 Y37.412 E57.24978
G1 X116.608 Y37.978 E57.26835
G1 X116.608 Y38.544 E57.28691
G1 X116.608 Y39.109 E57.30550
