;FLAVOR:UltiGCode
;TIME:2177
;MATERIAL:4033
;MATERIAL2:0

;Layer count: 18
;LAYER:0
M107
G0 F9000 X59.361 Y71.663 Z0.300
G0 X59.361 Y72.158
;TYPE:SKIRT
G1 F1200 X59.361 Y71.663 E0.05940
G1 X66.045 Y71.663 E0.86148
G1 X66.045 Y72.157 E0.92076
G1 X66.939 Y72.750 E1.04950
G1 X68.737 Y74.110 E1.32003
G1 X68.747 Y80.761 E2.11815
G1 X68.104 Y80.761 E2.19531
G1 X68.104 Y81.983 E2.34195
G1 X69.403 Y81.983 E2.49783
G1 X69.403 Y91.739 E3.66855
G1 X56.003 Y91.739 E5.27655
G1 X56.003 Y81.983 E6.44727
G1 X57.301 Y81.983 E6.60303
G1 X57.300 Y80.761 E6.74967
G1 X56.677 Y80.761 E6.82443
G1 X56.667 Y73.983 E7.63779
G1 X59.361 Y72.158 E8.02826
G0 F9000 X59.761 Y72.369
G1 F1200 X59.761 Y72.063 E8.06498
G1 X65.645 Y72.063 E8.77106
G1 X65.645 Y72.372 E8.80814
G1 X66.708 Y73.076 E8.96114
G1 X68.337 Y74.309 E9.20630
G1 X68.346 Y80.361 E9.93254
G1 X67.703 Y80.361 E10.00970
G1 X67.704 Y81.134 E10.10246
G1 X67.703 Y82.383 E10.25234
G1 X69.003 Y82.383 E10.40834
G1 X69.003 Y91.339 E11.48306
G1 X56.403 Y91.339 E12.99506
G1 X56.403 Y82.383 E14.06978
G1 X57.701 Y82.383 E14.22554
G1 X57.700 Y80.361 E14.46818
G1 X57.076 Y80.361 E14.54306
G1 X57.067 Y74.194 E15.28310
G1 X59.761 Y72.369 E15.67358
G0 F9000 X60.161 Y72.582
G1 F1200 X60.161 Y72.463 E15.68786
G1 X65.245 Y72.463 E16.29794
G1 X65.245 Y72.587 E16.31282
G1 X66.476 Y73.403 E16.49005
G1 X67.938 Y74.508 E16.70996
G1 X67.946 Y79.961 E17.36432
G1 X67.303 Y79.961 E17.44148
G1 X67.304 Y81.134 E17.58224
G1 X67.303 Y82.783 E17.78012
G1 X68.603 Y82.783 E17.93612
G1 X68.603 Y90.939 E18.91484
G1 X56.803 Y90.939 E20.33084
G1 X56.803 Y82.783 E21.30956
G1 X58.101 Y82.783 E21.46532
G1 X58.100 Y80.092 E21.78824
G1 X58.100 Y79.961 E21.80396
G1 X57.476 Y79.961 E21.87884
G1 X57.467 Y74.406 E22.54544
G1 X60.161 Y72.582 E22.93585
G10
G0 F9000 X61.901 Y82.410
;TYPE:WALL-INNER
G11
G1 F1200 X63.506 Y82.410 E23.12845
G1 X63.506 Y86.583 E23.62921
G1 X64.803 Y86.583 E23.78485
G1 X64.803 Y87.139 E23.85157
G1 X60.603 Y87.139 E24.35557
G1 X60.603 Y86.583 E24.42229
G1 X61.900 Y86.583 E24.57793
G1 X61.899 Y84.001 E24.88777
G1 X61.901 Y82.908 E25.01893
G1 X61.901 Y82.410 E25.07869
G0 F9000 X61.845 Y82.010
;TYPE:WALL-OUTER
G1 F1200 X63.561 Y82.010 E25.28461
G1 X63.561 Y75.863 E26.02225
G1 X64.033 Y75.863 E26.07889
G1 X64.514 Y76.182 E26.14815
G1 X64.540 Y76.201 E26.15202
G1 X64.541 Y76.561 E26.19522
G1 X63.906 Y76.561 E26.27142
G1 X63.906 Y86.183 E27.42606
G1 X65.203 Y86.183 E27.58170
G1 X65.203 Y87.539 E27.74442
G1 X60.203 Y87.539 E28.34442
G1 X60.203 Y86.183 E28.50714
G1 X61.500 Y86.183 E28.66278
G1 X61.500 Y76.561 E29.81742
G1 X60.871 Y76.561 E29.89290
G1 X60.870 Y76.208 E29.93526
G1 X61.380 Y75.863 E30.00914
G1 X61.845 Y75.863 E30.06494
G1 X61.845 Y82.010 E30.80258
G0 F9000 X62.040 Y82.687
;TYPE:SKIN
G1 F1200 X63.365 Y84.013 E31.02753
G0 F9000 X63.365 Y84.579
G1 F1200 X62.040 Y83.253 E31.25247
G0 F9000 X62.040 Y83.819
G1 F1200 X63.365 Y85.144 E31.47733
G0 F9000 X63.365 Y85.710
G1 F1200 X62.040 Y84.384 E31.70228
G0 F9000 X62.040 Y84.950
G1 F1200 X63.365 Y86.276 E31.92722
G0 F9000 X63.812 Y86.722
G1 F1200 X64.232 Y86.860 E31.97391
G1 X64.653 Y86.998 E32.02707
G0 F9000 X63.522 Y86.998
G1 F1200 X62.040 Y85.516 E32.27858
G0 F9000 X62.040 Y86.081
G1 F1200 X62.956 Y86.998 E32.43411
G0 F9000 X62.390 Y86.998
G1 F1200 X61.932 Y86.822 E32.49358
G1 X61.404 Y86.860 E32.54027
G1 X60.983 Y86.722 E32.59343
G0 F9000 X61.841 Y86.524
G0 X63.365 Y83.447
G1 F1200 X62.467 Y82.549 E32.74583
G0 F9000 X63.033 Y82.549
G1 F1200 X63.365 Y82.882 E32.80226
;LAYER:1
M106 S10
G0 F9000 X63.717 Y82.410 Z0.500
;TYPE:WALL-INNER
G1 F1020 X63.714 Y86.583 E33.13610
G1 X64.803 Y86.583 E33.22322
G1 X64.803 Y87.139 E33.26770
G1 X60.603 Y87.139 E33.60370
G1 X60.603 Y86.583 E33.64818
G1 X61.691 Y86.583 E33.73522
G1 X61.691 Y82.410 E34.06906
G1 X63.717 Y82.410 E34.23114
G0 F9000 X63.561 Y82.010
;TYPE:WALL-OUTER
G1 F1020 X63.561 Y75.863 E34.72290
G1 X64.259 Y75.863 E34.77874
G1 X64.701 Y76.201 E34.82325
G1 X64.702 Y76.561 E34.85205
G1 X64.115 Y76.561 E34.89901
G1 X64.115 Y86.183 E35.66877
G1 X65.203 Y86.183 E35.75581
G1 X65.203 Y87.539 E35.86429
G1 X60.203 Y87.539 E36.26429
G1 X60.203 Y86.183 E36.37277
G1 X61.291 Y86.183 E36.45981
G1 X61.292 Y76.561 E37.22957
G1 X60.708 Y76.561 E37.27629
G1 X60.707 Y76.201 E37.30509
G1 X61.123 Y75.881 E37.34708
G1 X61.149 Y75.863 E37.34961
G1 X61.845 Y75.863 E37.40529
G1 X61.845 Y82.010 E37.89705
G1 X63.561 Y82.010 E38.03433
G0 F9000 X63.576 Y82.653
;TYPE:SKIN
G1 F1020 X61.830 Y84.398 E38.23181
G0 F9000 X61.830 Y83.833
G1 F1020 X63.114 Y82.549 E38.37708
G0 F9000 X62.549 Y82.549
G1 F1020 X61.830 Y83.267 E38.45837
G0 F9000 X61.830 Y82.701
G1 F1020 X61.983 Y82.549 E38.47562
G0 F9000 X63.576 Y83.218
G1 F1020 X61.830 Y84.964 E38.67316
G0 F9000 X61.830 Y85.530
G1 F1020 X63.575 Y83.785 E38.87058
G0 F9000 X63.575 Y84.350
G1 F1020 X61.830 Y86.095 E39.06800
G0 F9000 X61.830 Y86.661
G1 F1020 X63.575 Y84.917 E39.26537
G0 F9000 X63.575 Y85.482
G1 F1020 X62.059 Y86.998 E39.43689
G0 F9000 X61.770 Y86.722
G1 F1020 X61.349 Y86.860 E39.46808
G1 X60.928 Y86.998 E39.50352
G0 F9000 X62.625 Y86.998
G1 F1020 X63.574 Y86.049 E39.61089
G0 F9000 X63.574 Y86.614
G1 F1020 X63.473 Y86.998 E39.65425
G1 X64.177 Y86.860 E39.68538
G1 X64.598 Y86.722 E39.72083
;LAYER:2
M106 S20
G0 F9000 X63.880 Y86.583 Z0.700
;TYPE:WALL-INNER
G1 F1260 X64.803 Y86.583 E39.79467
G1 X64.803 Y87.139 E39.83915
G1 X60.603 Y87.139 E40.17515
G1 X60.603 Y86.583 E40.21963
G1 X61.526 Y86.583 E40.29347
G1 X61.527 Y82.410 E40.62731
G1 X63.880 Y82.410 E40.81555
G1 X63.880 Y86.583 E41.14939
G0 F9000 X64.280 Y86.183
;TYPE:WALL-OUTER
G1 F1260 X65.203 Y86.183 E41.22323
G1 X65.203 Y87.539 E41.33171
G1 X60.203 Y87.539 E41.73171
G1 X60.203 Y86.183 E41.84019
G1 X61.126 Y86.183 E41.91403
G1 X61.127 Y79.834 E42.42195
G1 X61.125 Y79.511 E42.44779
G1 X61.127 Y76.561 E42.68379
G1 X60.576 Y76.561 E42.72787
G1 X60.576 Y76.195 E42.75715
G1 X60.977 Y75.863 E42.79879
G1 X61.845 Y75.863 E42.86823
G1 X61.845 Y82.010 E43.35999
G1 X63.561 Y82.010 E43.49727
G1 X63.561 Y75.863 E43.98903
G1 X64.431 Y75.863 E44.05863
G1 X64.833 Y76.196 E44.10039
G1 X64.833 Y76.561 E44.12959
G1 X64.280 Y76.561 E44.17383
G1 X64.280 Y86.183 E44.94359
G0 F9000 X64.377 Y86.722
;TYPE:SKIN
G1 F1260 X64.370 Y86.998 E44.97479
G1 X63.812 Y86.722 E45.02460
G0 F9000 X63.740 Y86.650
G1 F1260 X61.666 Y84.576 E45.25924
G0 F9000 X61.666 Y85.142
G1 F1260 X63.522 Y86.998 E45.46922
G0 F9000 X62.956 Y86.998
G1 F1260 X61.666 Y85.707 E45.61523
G0 F9000 X61.666 Y86.273
G1 F1260 X62.390 Y86.998 E45.69720
G0 F9000 X61.825 Y86.998
G1 F1260 X61.404 Y86.860 E45.72839
G1 X60.983 Y86.722 E45.76383
G0 F9000 X61.467 Y86.524
G0 X61.666 Y84.010
G1 F1260 X63.740 Y86.084 E45.99847
G0 F9000 X63.740 Y85.518
G1 F1260 X61.666 Y83.444 E46.23312
G0 F9000 X61.666 Y82.879
G1 F1260 X63.740 Y84.953 E46.46777
G0 F9000 X63.740 Y84.387
G1 F1260 X61.901 Y82.549 E46.67577
G0 F9000 X61.581 Y82.228
G1 F1260 X61.485 Y81.850 E46.70447
G1 X61.485 Y81.285 E46.74029
G1 X61.485 Y80.719 E46.77618
G1 X61.485 Y80.153 E46.81206
G1 X61.485 Y79.587 E46.84783
G1 X61.485 Y79.022 E46.88366
G1 X61.485 Y78.456 E46.91954
G1 X61.485 Y77.890 E46.95531
G1 X61.485 Y77.325 E46.99113
G1 X61.327 Y76.883 E47.02868
G0 F9000 X61.644 Y76.635
G1 F1260 X61.072 Y76.062 E47.09345
G0 F9000 X61.072 Y76.163
G0 X61.445 Y76.205
G0 X61.504 Y82.351
G0 X63.902 Y82.351
G0 X63.861 Y76.489
G0 X63.761 Y76.489
G1 F1260 X63.920 Y76.931 E47.12953
G1 X63.920 Y77.496 E47.16558
G1 X63.920 Y78.062 E47.20157
G1 X63.920 Y78.628 E47.23757
G1 X63.920 Y79.193 E47.27362
G1 X63.920 Y79.759 E47.30962
G1 X63.920 Y80.325 E47.34561
G1 X63.920 Y80.890 E47.38166
G1 X63.920 Y81.456 E47.41766
G1 X63.920 Y82.022 E47.45366
G1 X63.720 Y82.388 E47.46283
G1 X63.740 Y82.690 E47.48705
G0 F9000 X63.740 Y83.256
G1 F1260 X63.032 Y82.549 E47.56709
G0 F9000 X62.467 Y82.549
G1 F1260 X63.740 Y83.821 E47.71106
G0 F9000 X63.939 Y76.220
G0 X64.197 Y76.359
G1 F1260 X63.899 Y76.062 E47.74471
;LAYER:3
M106 S30
G0 F9000 X63.899 Y76.163 Z0.900
G0 X63.902 Y82.351
G0 X62.750 Y82.549
;TYPE:FILL
G1 F1260 X63.870 Y83.669 E47.87143
G0 F9000 X63.872 Y86.034
G1 F1260 X62.908 Y86.998 E47.98049
G0 F9000 X61.542 Y86.998
G1 F1260 X61.266 Y86.722 E48.01172
G0 F9000 X61.535 Y82.714
G1 F1260 X61.700 Y82.549 E48.03039
G0 F9000 X61.445 Y82.410
;TYPE:WALL-INNER
G1 F1260 X63.961 Y82.410 E48.23167
G1 X63.961 Y76.263 E48.72343
G1 X64.013 Y76.263 E48.72759
G1 X64.007 Y79.835 E49.01335
G1 X64.010 Y85.965 E49.50375
G1 X64.031 Y86.583 E49.55322
G1 X64.803 Y86.583 E49.61498
G1 X64.803 Y87.139 E49.65946
G1 X60.603 Y87.139 E49.99546
G1 X60.603 Y86.583 E50.03994
G1 X61.394 Y86.583 E50.10322
G1 X61.396 Y76.882 E50.87930
G1 X61.391 Y76.263 E50.92882
G1 X61.445 Y76.263 E50.93314
G1 X61.445 Y82.410 E51.42490
G0 F9000 X61.845 Y82.010
;TYPE:WALL-OUTER
G1 F1260 X63.561 Y82.010 E51.56218
G1 X63.561 Y75.863 E52.05394
G1 X64.565 Y75.863 E52.13426
G1 X64.941 Y76.192 E52.17423
G1 X64.941 Y76.561 E52.20375
G1 X64.412 Y76.561 E52.24607
G1 X64.410 Y85.957 E52.99775
G1 X64.418 Y86.183 E53.01584
G1 X65.203 Y86.183 E53.07864
G1 X65.203 Y87.539 E53.18712
G1 X60.203 Y87.539 E53.58712
G1 X60.203 Y86.183 E53.69560
G1 X60.995 Y86.183 E53.75896
G1 X60.996 Y76.883 E54.50296
G1 X60.993 Y76.561 E54.52872
G1 X60.468 Y76.561 E54.57072
G1 X60.468 Y76.192 E54.60024
G1 X60.843 Y75.863 E54.64015
G1 X61.845 Y75.863 E54.72031
G1 X61.845 Y82.010 E55.21207
G0 F9000 X61.960 Y82.572
;TYPE:SKIN
G1 F1260 X61.747 Y83.067 E55.26014
G1 X61.747 Y83.633 E55.30813
G1 X61.747 Y84.198 E55.35616
G1 X61.747 Y84.765 E55.40424
G1 X61.747 Y85.330 E55.45226
G1 X61.747 Y85.896 E55.50037
G1 X61.691 Y86.517 E55.54851
G1 X61.960 Y86.532 E55.57006
G0 F9000 X63.445 Y86.177
G1 F1260 X63.657 Y85.682 E55.61810
G1 X63.657 Y85.116 E55.66609
G1 X63.657 Y84.551 E55.71401
G1 X63.657 Y83.985 E55.76200
G1 X63.657 Y83.419 E55.81000
G1 X63.775 Y82.737 E55.85789
G1 X63.445 Y82.783 E55.88455
G0 F9000 X63.881 Y86.308
G1 F1260 X63.546 Y86.642 E55.92239
;LAYER:4
M106 S40
G0 F9000 X62.908 Y86.998 Z1.100
;TYPE:FILL
G1 F1200 X63.969 Y85.937 E56.04243
G0 F9000 X63.969 Y83.768
G1 F1200 X62.750 Y82.549 E56.18035
G0 F9000 X61.700 Y82.549
G1 F1200 X61.436 Y82.813 E56.21022
G0 F9000 X61.266 Y86.722
G1 F1200 X61.542 Y86.998 E56.24144
G0 F9000 X61.295 Y86.583
;TYPE:WALL-INNER
G1 F1200 X61.297 Y85.397 E56.33632
G1 X61.296 Y77.350 E56.98008
G1 X61.298 Y76.263 E57.06704
G1 X61.445 Y76.263 E57.07880
G1 X61.445 Y82.410 E57.57056
G1 X63.961 Y82.410 E57.77184
G1 X63.961 Y76.263 E58.26360
G1 X64.110 Y76.263 E58.27552
G1 X64.109 Y86.583 E59.10112
G1 X64.803 Y86.583 E59.15664
G1 X64.803 Y87.139 E59.20112
G1 X60.603 Y87.139 E59.53712
G1 X60.603 Y86.583 E59.58160
G1 X61.295 Y86.583 E59.63696
G0 F9000 X60.896 Y86.183
;TYPE:WALL-OUTER
G1 F1200 X60.897 Y76.561 E60.40672
G1 X60.382 Y76.561 E60.44792
G1 X60.381 Y76.190 E60.47760
G1 X60.737 Y75.863 E60.51627
G1 X61.845 Y75.863 E60.60491
G1 X61.845 Y82.010 E61.09667
G1 X63.561 Y82.010 E61.23395
G1 X63.561 Y75.863 E61.72571
G1 X64.670 Y75.863 E61.81443
G1 X65.026 Y76.189 E61.85305
G1 X65.027 Y76.561 E61.88281
G1 X64.510 Y76.561 E61.92417
G1 X64.509 Y86.183 E62.69393
G1 X65.203 Y86.183 E62.74945
G1 X65.203 Y87.539 E62.85793
G1 X60.203 Y87.539 E63.25793
G1 X60.203 Y86.183 E63.36641
G1 X60.896 Y86.183 E63.42185
G0 F9000 X61.434 Y86.042
;TYPE:SKIN
G1 F1200 X61.750 Y86.075 E63.45756
G1 X61.592 Y85.351 E63.49313
G1 X61.592 Y84.785 E63.52879
G1 X61.592 Y84.220 E63.56438
G1 X61.592 Y83.654 E63.59993
G1 X61.592 Y83.089 E63.63552
G1 X61.435 Y82.648 E63.67297
G0 F9000 X63.655 Y82.606
G1 F1200 X63.812 Y83.045 E63.70841
G1 X63.812 Y83.611 E63.74384
G1 X63.812 Y84.176 E63.77921
G1 X63.812 Y84.742 E63.81464
G1 X63.811 Y85.307 E63.85012
G1 X63.811 Y85.873 E63.88567
G1 X63.811 Y86.438 E63.92115
G1 X63.731 Y86.641 E63.93860
;LAYER:5
M106 S51
G0 F9000 X64.045 Y85.861 Z1.300
;TYPE:FILL
G1 F1200 X62.908 Y86.998 E64.06724
G0 F9000 X61.542 Y86.998
G1 F1200 X61.266 Y86.722 E64.09847
G0 F9000 X61.359 Y82.890
G1 F1200 X61.700 Y82.549 E64.13705
G0 F9000 X62.750 Y82.549
G1 F1200 X64.046 Y83.845 E64.28367
G0 F9000 X63.961 Y82.410
;TYPE:WALL-INNER
G1 F1200 X63.961 Y76.263 E64.77543
G1 X64.187 Y76.263 E64.79351
G1 X64.186 Y86.583 E65.61911
G1 X64.803 Y86.583 E65.66847
G1 X64.803 Y87.139 E65.71295
G1 X60.603 Y87.139 E66.04895
G1 X60.603 Y86.583 E66.09343
G1 X61.218 Y86.583 E66.14263
G1 X61.221 Y79.835 E66.68247
G1 X61.219 Y77.775 E66.84727
G1 X61.221 Y76.263 E66.96823
G1 X61.445 Y76.263 E66.98615
G1 X61.445 Y82.410 E67.47791
G1 X63.961 Y82.410 E67.67919
G0 F9000 X63.561 Y82.010
;TYPE:WALL-OUTER
G1 F1200 X63.561 Y75.863 E68.17095
G1 X64.750 Y75.863 E68.26607
G1 X65.091 Y76.187 E68.30370
G1 X65.092 Y76.561 E68.33362
G1 X64.587 Y76.561 E68.37402
G1 X64.586 Y86.183 E69.14378
G1 X65.203 Y86.183 E69.19314
G1 X65.203 Y87.539 E69.30162
G1 X60.203 Y87.539 E69.70162
G1 X60.203 Y86.183 E69.81010
G1 X60.819 Y86.183 E69.85938
G1 X60.820 Y76.561 E70.62914
G1 X60.316 Y76.561 E70.66946
G1 X60.315 Y76.188 E70.69930
G1 X60.657 Y75.863 E70.73705
G1 X61.845 Y75.863 E70.83209
G1 X61.845 Y82.010 E71.32385
G1 X63.561 Y82.010 E71.46113
G0 F9000 X64.046 Y82.749
;TYPE:SKIN
G1 F1200 X63.932 Y83.144 E71.48670
G1 X63.932 Y83.710 E71.51228
G1 X63.932 Y84.276 E71.53786
G1 X63.932 Y84.841 E71.56340
G1 X63.932 Y85.407 E71.58898
G1 X63.932 Y85.973 E71.61457
G1 X63.819 Y86.369 E71.64751
G0 F9000 X61.586 Y86.340
G1 F1200 X61.358 Y86.285 E71.67331
G1 X61.472 Y85.605 E71.69896
G1 X61.472 Y85.040 E71.72461
G1 X61.472 Y84.473 E71.75035
G1 X61.472 Y83.908 E71.77600
G1 X61.472 Y83.342 E71.80159
G1 X61.472 Y82.776 E71.82717
G1 X61.417 Y82.549 E71.84586
;LAYER:6
M106 S63
G0 F9000 X61.700 Y82.549 Z1.500
;TYPE:FILL
G1 F1140 X61.304 Y82.945 E71.89066
G0 F9000 X62.750 Y82.549
G1 F1140 X64.100 Y83.899 E72.04339
G0 F9000 X64.099 Y85.806
G1 F1140 X62.908 Y86.998 E72.17820
G0 F9000 X61.542 Y86.998
G1 F1140 X61.266 Y86.722 E72.20942
G0 F9000 X61.164 Y86.583
;TYPE:WALL-INNER
G1 F1140 X61.165 Y76.263 E73.03502
G1 X61.445 Y76.263 E73.05742
G1 X61.445 Y82.410 E73.54918
G1 X63.961 Y82.410 E73.75046
G1 X63.961 Y76.263 E74.24222
G1 X64.242 Y76.263 E74.26470
G1 X64.243 Y79.605 E74.53206
G1 X64.244 Y79.933 E74.55830
G1 X64.243 Y82.909 E74.79638
G1 X64.244 Y83.137 E74.81462
G1 X64.240 Y86.583 E75.09030
G1 X64.803 Y86.583 E75.13534
G1 X64.803 Y87.139 E75.17982
G1 X60.603 Y87.139 E75.51582
G1 X60.603 Y86.583 E75.56030
G1 X61.164 Y86.583 E75.60518
G0 F9000 X60.764 Y86.183
;TYPE:WALL-OUTER
G1 F1140 X60.765 Y76.561 E76.37494
G1 X60.268 Y76.561 E76.41470
G1 X60.267 Y76.186 E76.44470
G1 X60.598 Y75.863 E76.48170
G1 X61.845 Y75.863 E76.58146
G1 X61.845 Y82.010 E77.07322
G1 X63.561 Y82.010 E77.21050
G1 X63.561 Y75.863 E77.70226
G1 X64.809 Y75.863 E77.80210
G1 X65.139 Y76.185 E77.83899
G1 X65.140 Y76.561 E77.86907
G1 X64.642 Y76.561 E77.90891
G1 X64.641 Y86.183 E78.67867
G1 X65.203 Y86.183 E78.72363
G1 X65.203 Y87.539 E78.83211
G1 X60.203 Y87.539 E79.23211
G1 X60.203 Y86.183 E79.34059
G1 X60.764 Y86.183 E79.38547
G0 F9000 X60.764 Y86.539
;LAYER:7
M106 S73
G0 X61.266 Y86.722 Z1.700
;TYPE:FILL
G1 F1140 X61.542 Y86.998 E79.41669
G0 F9000 X62.908 Y86.998
G1 F1140 X64.137 Y85.769 E79.55574
G0 F9000 X64.138 Y83.937
G1 F1140 X62.750 Y82.549 E79.71277
G0 F9000 X61.700 Y82.549
G1 F1140 X61.267 Y82.981 E79.76170
G0 F9000 X61.445 Y82.410
;TYPE:WALL-INNER
G1 F1140 X63.961 Y82.410 E79.96298
G1 X63.961 Y76.263 E80.45474
G1 X64.278 Y76.263 E80.48010
G1 X64.280 Y79.737 E80.75802
G1 X64.278 Y86.583 E81.30570
G1 X64.803 Y86.583 E81.34770
G1 X64.803 Y87.139 E81.39218
G1 X60.603 Y87.139 E81.72818
G1 X60.603 Y86.583 E81.77266
G1 X61.128 Y86.583 E81.81466
G1 X61.129 Y76.263 E82.64026
G1 X61.445 Y76.263 E82.66554
G1 X61.445 Y82.410 E83.15730
G0 F9000 X61.845 Y82.010
;TYPE:WALL-OUTER
G1 F1140 X63.561 Y82.010 E83.29458
G1 X63.561 Y75.863 E83.78634
G1 X64.846 Y75.863 E83.88914
G1 X65.170 Y76.185 E83.92569
G1 X65.171 Y76.561 E83.95577
G1 X64.678 Y76.561 E83.99521
G1 X64.680 Y79.742 E84.24969
G1 X64.678 Y86.183 E84.76497
G1 X65.203 Y86.183 E84.80697
G1 X65.203 Y87.539 E84.91545
G1 X60.203 Y87.539 E85.31545
G1 X60.203 Y86.183 E85.42393
G1 X60.728 Y86.183 E85.46593
