;FLAVOR:UltiGCode
;TIME:3161
;MATERIAL:6554
;MATERIAL2:0

;Layer count: 65
;LAYER:0
M107
G0 F9000 X109.117 Y9.102 Z0.300
;TYPE:SKIRT
G1 F1200 X116.866 Y9.102 E0.92988
G1 X117.186 Y9.099 E0.96828
G1 X117.311 Y9.102 E0.98329
G1 X117.503 Y9.102 E1.00633
G1 X117.503 Y9.107 E1.00693
G1 X120.883 Y9.188 E1.41264
G1 X120.883 Y17.564 E2.41776
G1 X121.643 Y17.564 E2.50896
G1 X121.696 Y21.334 E2.96141
G1 X121.672 Y22.118 E3.05553
G1 X121.654 Y22.726 E3.12852
G1 X121.655 Y22.726 E3.12864
G1 X121.623 Y23.971 E3.27809
G1 X121.609 Y24.581 E3.35131
G1 X121.573 Y26.418 E3.57179
G1 X121.574 Y26.418 E3.57191
G1 X121.565 Y27.042 E3.64680
G1 X121.555 Y27.665 E3.72157
G1 X121.501 Y31.570 E4.19022
G1 X120.664 Y31.570 E4.29066
G1 X120.664 Y39.381 E5.22798
G1 X114.779 Y39.370 E5.93418
G1 X113.005 Y39.375 E6.14706
G1 X109.336 Y39.332 E6.58737
G1 X109.336 Y31.570 E7.51881
G1 X108.504 Y31.570 E7.61865
G1 X108.436 Y27.002 E8.16687
G1 X108.437 Y27.002 E8.16699
G1 X108.425 Y26.343 E8.24608
G1 X108.399 Y25.009 E8.40619
G1 X108.384 Y24.348 E8.48553
G1 X108.368 Y23.681 E8.56560
G1 X108.353 Y23.028 E8.64398
G1 X108.334 Y22.357 E8.72453
G1 X108.335 Y22.357 E8.72465
G1 X108.314 Y21.666 E8.80761
G1 X108.245 Y17.564 E9.29992
G1 X109.117 Y17.564 E9.40456
G1 X109.117 Y9.102 E10.42000
G0 F9000 X109.517 Y9.502
G1 F1200 X116.862 Y9.502 E11.30140
G1 X117.183 Y9.499 E11.33992
G1 X120.483 Y9.578 E11.73603
G1 X120.483 Y17.964 E12.74235
G1 X121.248 Y17.964 E12.83415
G1 X121.296 Y21.331 E13.23823
G1 X121.273 Y22.106 E13.33127
G1 X121.255 Y22.726 E13.40571
G1 X121.223 Y23.961 E13.55396
G1 X121.209 Y24.572 E13.62729
G1 X121.173 Y26.412 E13.84814
G1 X121.174 Y26.412 E13.84826
G1 X121.165 Y27.036 E13.92314
G1 X121.155 Y27.659 E13.99791
G1 X121.106 Y31.170 E14.41928
G1 X120.264 Y31.170 E14.52032
G1 X120.264 Y38.980 E15.45752
G1 X114.740 Y38.970 E16.12040
G1 X113.007 Y38.975 E16.32836
G1 X109.736 Y38.937 E16.72090
G1 X109.736 Y31.170 E17.65294
G1 X108.898 Y31.170 E17.75350
G1 X108.836 Y26.996 E18.25444
G1 X108.837 Y26.996 E18.25456
G1 X108.825 Y26.336 E18.33377
G1 X108.799 Y25.001 E18.49400
G1 X108.784 Y24.340 E18.57334
G1 X108.768 Y23.672 E18.65353
G1 X108.753 Y23.017 E18.73215
G1 X108.734 Y22.346 E18.81270
G1 X108.714 Y21.656 E18.89553
G1 X108.652 Y17.964 E19.33864
G1 X109.517 Y17.964 E19.44244
G1 X109.517 Y9.502 E20.45788
G10
G0 F9000 X112.519 Y21.764
;TYPE:WALL-INNER
G11
G1 F1200 X117.481 Y21.764 E21.05332
G1 X117.456 Y22.617 E21.15572
G1 X117.424 Y23.865 E21.30553
G1 X117.410 Y24.487 E21.38019
G1 X117.374 Y26.356 E21.60451
G1 X117.359 Y27.370 E21.72620
G1 X116.464 Y27.370 E21.83360
G1 X113.536 Y27.373 E22.18496
G1 X112.642 Y27.370 E22.29224
G1 X112.598 Y24.927 E22.58545
G1 X112.552 Y22.911 E22.82743
G1 X112.519 Y21.764 E22.96513
G0 F9000 X112.113 Y21.576
;TYPE:WALL-OUTER
G1 F1200 X112.109 Y21.364 E22.99058
G1 X112.917 Y21.364 E23.08754
G1 X112.917 Y12.902 E24.10298
G1 X113.703 Y12.902 E24.19730
G1 X113.703 Y21.364 E25.21274
G1 X116.297 Y21.364 E25.52402
G1 X116.297 Y12.907 E26.53886
G1 X117.083 Y12.900 E26.63318
G1 X117.083 Y21.364 E27.64886
G1 X117.893 Y21.364 E27.74606
G1 X117.824 Y23.874 E28.04737
G1 X117.774 Y26.362 E28.34599
G1 X117.753 Y27.770 E28.51497
G1 X116.864 Y27.770 E28.62165
G1 X116.864 Y35.574 E29.55813
G1 X116.188 Y35.572 E29.63925
G1 X116.188 Y27.773 E30.57513
G1 X113.799 Y27.773 E30.86181
G1 X113.799 Y35.457 E31.78389
G1 X113.800 Y35.573 E31.79781
G1 X113.136 Y35.575 E31.87749
G1 X113.136 Y27.770 E32.81409
G1 X112.248 Y27.770 E32.92065
G1 X112.198 Y24.935 E33.26091
G1 X112.152 Y22.921 E33.50265
G1 X112.113 Y21.576 E33.66412
G0 F9000 X112.696 Y21.904
;TYPE:SKIN
G1 F1200 X117.236 Y26.444 E34.43458
G0 F9000 X117.224 Y26.998
G1 F1200 X112.674 Y22.447 E35.20683
G0 F9000 X112.687 Y23.026
G1 F1200 X116.891 Y27.229 E35.92018
G0 F9000 X116.325 Y27.229
G1 F1200 X112.700 Y23.604 E36.53537
G0 F9000 X112.712 Y24.182
G1 F1200 X115.759 Y27.229 E37.05246
G0 F9000 X115.194 Y27.229
G1 F1200 X112.724 Y24.760 E37.47155
G0 F9000 X112.737 Y25.339
G1 F1200 X114.628 Y27.229 E37.79238
G0 F9000 X114.062 Y27.229
G1 F1200 X112.749 Y25.916 E38.01520
G0 F9000 X112.762 Y26.495
G1 F1200 X113.497 Y27.229 E38.13985
G0 F9000 X113.335 Y27.633
G1 F1200 X113.466 Y28.047 E38.18427
G1 X113.466 Y28.613 E38.22876
G1 X113.466 Y29.179 E38.27325
G1 X113.466 Y29.744 E38.31765
G1 X113.466 Y30.310 E38.36214
G1 X113.466 Y30.876 E38.40663
G1 X113.466 Y31.441 E38.45104
G1 X113.466 Y32.007 E38.49553
G1 X113.466 Y32.573 E38.54001
G1 X113.466 Y33.138 E38.58442
G1 X113.466 Y33.704 E38.62891
G1 X113.466 Y34.270 E38.67340
G1 X113.466 Y34.836 E38.71789
G1 X113.598 Y35.250 E38.77003
G0 F9000 X113.458 Y27.432
G0 X116.529 Y27.432
G0 X116.488 Y35.211
G0 X116.386 Y35.211
G1 F1200 X116.605 Y35.147 E38.79748
G1 X116.524 Y34.500 E38.84423
G1 X116.524 Y33.934 E38.89109
G1 X116.524 Y33.369 E38.93788
G1 X116.524 Y32.803 E38.98474
G1 X116.524 Y32.237 E39.03161
G1 X116.524 Y31.671 E39.07847
G1 X116.524 Y31.106 E39.12525
G1 X116.524 Y30.540 E39.17212
G1 X116.524 Y29.974 E39.21898
G1 X116.524 Y29.409 E39.26576
G1 X116.524 Y28.843 E39.31263
G1 X116.524 Y28.277 E39.35949
G1 X116.386 Y27.857 E39.41255
G0 F9000 X116.488 Y27.857
G0 X117.248 Y25.890
G1 F1200 X113.262 Y21.904 E40.08899
G0 F9000 X113.502 Y21.578
G1 F1200 X113.308 Y21.102 E40.15453
G1 X113.308 Y20.536 E40.22007
G1 X113.115 Y20.060 E40.28171
G0 F9000 X113.217 Y20.060
G0 X113.362 Y21.705
G0 X113.827 Y21.904
G1 F1200 X117.260 Y25.337 E40.86431
G0 F9000 X117.273 Y24.784
G1 F1200 X114.393 Y21.904 E41.35306
G0 F9000 X114.959 Y21.904
G1 F1200 X117.285 Y24.230 E41.74780
G0 F9000 X117.297 Y23.676
G1 F1200 X115.524 Y21.904 E42.04860
G0 F9000 X116.090 Y21.904
G1 F1200 X117.310 Y23.123 E42.25555
G0 F9000 X117.322 Y22.570
G1 F1200 X116.656 Y21.904 E42.36858
G0 F9000 X116.881 Y21.563
G1 F1200 X116.688 Y21.088 E42.43395
G1 X116.688 Y20.522 E42.49932
G1 X116.496 Y20.047 E42.56080
G0 F9000 X116.597 Y20.047
G0 X116.742 Y21.705
G0 X117.222 Y21.904
G1 F1200 X117.334 Y22.016 E42.57981
G0 F9000 X112.775 Y27.073
G1 F1200 X112.931 Y27.229 E42.60628
G0 F9000 X113.502 Y19.881
G1 F1200 X113.308 Y19.405 E42.67182
G1 X113.308 Y18.839 E42.73736
G1 X113.308 Y18.273 E42.80291
G1 X113.308 Y17.707 E42.86845
G1 X113.308 Y17.142 E42.93388
G1 X113.308 Y16.576 E42.99942
G1 X113.308 Y16.010 E43.06496
G1 X113.308 Y15.445 E43.13039
G1 X113.308 Y14.879 E43.19593
G1 X113.308 Y14.313 E43.26147
G1 X113.308 Y13.748 E43.32690
G1 X113.115 Y13.272 E43.38854
G0 F9000 X113.217 Y13.272
G0 X113.362 Y21.705
G0 X116.638 Y21.705
G0 X116.597 Y13.258
G0 X116.496 Y13.258
G1 F1200 X116.688 Y13.734 E43.45383
G1 X116.688 Y14.300 E43.51920
G1 X116.688 Y14.865 E43.58446
G1 X116.688 Y15.431 E43.64966
G1 X116.688 Y15.997 E43.71503
G1 X116.688 Y16.562 E43.78029
G1 X116.688 Y17.128 E43.84549
G1 X116.688 Y17.694 E43.91087
G1 X116.688 Y18.259 E43.97612
G1 X116.688 Y18.825 E44.04133
G1 X116.688 Y19.391 E44.10670
G1 X116.881 Y19.866 E44.16822
;LAYER:1
M106 S10
G0 F9000 X116.742 Y21.705 Z0.500
G0 X117.765 Y22.606
;TYPE:WALL-INNER
G1 F1620 X117.737 Y23.231 E44.21828
G1 X117.710 Y23.855 E44.26824
G1 X117.686 Y24.478 E44.31812
G1 X117.664 Y25.091 E44.36719
G1 X117.644 Y25.685 E44.41474
G1 X117.626 Y26.280 E44.46236
G1 X117.611 Y26.875 E44.50997
G1 X117.599 Y27.370 E44.54959
G1 X116.464 Y27.370 E44.64039
G1 X113.536 Y27.373 E44.87463
G1 X112.400 Y27.370 E44.96551
G1 X112.380 Y26.558 E45.03049
G1 X112.360 Y25.840 E45.08795
G1 X112.338 Y25.120 E45.14558
G1 X112.311 Y24.388 E45.20417
G1 X112.281 Y23.662 E45.26230
G1 X112.249 Y22.898 E45.32348
G1 X112.215 Y22.224 E45.37747
G1 X112.191 Y21.764 E45.41432
G1 X117.808 Y21.764 E45.86368
G1 X117.765 Y22.606 E45.93112
G0 F9000 X118.164 Y22.624
;TYPE:WALL-OUTER
G1 F1620 X118.110 Y23.871 E46.03098
G1 X118.044 Y25.697 E46.17715
G1 X118.026 Y26.291 E46.22470
G1 X117.997 Y27.479 E46.31976
G1 X117.992 Y27.770 E46.34305
G1 X116.864 Y27.770 E46.43329
G1 X116.864 Y36.140 E47.10289
G1 X116.188 Y36.140 E47.15697
G1 X116.188 Y27.773 E47.82633
G1 X113.801 Y27.773 E48.01729
G1 X113.801 Y36.140 E48.68665
G1 X113.333 Y36.142 E48.72409
G1 X113.136 Y36.141 E48.73985
G1 X113.136 Y27.770 E49.40953
G1 X112.008 Y27.770 E49.49977
G1 X111.980 Y26.569 E49.59587
G1 X111.938 Y25.134 E49.71072
G1 X111.882 Y23.679 E49.82721
G1 X111.850 Y22.917 E49.88822
G1 X111.769 Y21.364 E50.01263
G1 X112.917 Y21.364 E50.10447
G1 X112.917 Y12.335 E50.82679
G1 X113.703 Y12.335 E50.88967
G1 X113.703 Y21.364 E51.61199
G1 X116.297 Y21.364 E51.81951
G1 X116.297 Y12.332 E52.54207
G1 X116.665 Y12.329 E52.57151
G1 X117.083 Y12.333 E52.60495
G1 X117.083 Y21.364 E53.32743
G1 X118.230 Y21.364 E53.41919
G1 X118.164 Y22.624 E53.52013
G0 F9000 X117.639 Y22.367
;TYPE:SKIN
G1 F1620 X112.777 Y27.229 E54.07020
G0 F9000 X112.526 Y26.915
G1 F1620 X117.537 Y21.904 E54.63713
G0 F9000 X116.971 Y21.904
G1 F1620 X112.507 Y26.368 E55.14218
G0 F9000 X112.488 Y25.821
G1 F1620 X116.406 Y21.904 E55.58539
G0 F9000 X116.725 Y21.584
G1 F1620 X116.688 Y21.337 E55.60303
G1 X116.688 Y20.772 E55.64653
G1 X116.688 Y20.206 E55.69011
G1 X116.688 Y19.640 E55.73358
G1 X116.688 Y19.075 E55.77709
G1 X116.688 Y18.509 E55.82067
G1 X116.688 Y17.943 E55.86414
G1 X116.688 Y17.378 E55.90764
G1 X116.688 Y16.812 E55.95122
G1 X116.688 Y16.246 E55.99481
G1 X116.688 Y15.680 E56.03828
G1 X116.688 Y15.115 E56.08178
G1 X116.688 Y14.549 E56.12536
G1 X116.688 Y13.983 E56.16883
G1 X116.688 Y13.418 E56.21234
G1 X116.688 Y12.852 E56.25592
G1 X116.729 Y12.529 E56.28197
G0 F9000 X116.729 Y12.629
G0 X116.638 Y21.705
G0 X113.362 Y21.705
G0 X113.501 Y12.928
G1 F1620 X113.308 Y13.404 E56.32552
G1 X113.308 Y13.969 E56.36903
G1 X113.308 Y14.535 E56.41250
G1 X113.308 Y15.101 E56.45608
G1 X113.308 Y15.666 E56.49958
G1 X113.308 Y16.232 E56.54305
G1 X113.308 Y16.798 E56.58663
G1 X113.308 Y17.363 E56.63014
G1 X113.308 Y17.929 E56.67361
G1 X113.308 Y18.495 E56.71719
G1 X113.308 Y19.060 E56.76069
G1 X113.308 Y19.626 E56.80416
G1 X113.308 Y20.192 E56.84775
G1 X113.308 Y20.758 E56.89133
G1 X113.224 Y21.408 E56.93485
G1 X113.501 Y21.414 E56.95701
G0 F9000 X113.577 Y21.904
G1 F1620 X112.395 Y23.086 E57.09074
G0 F9000 X112.371 Y22.544
G1 F1620 X113.011 Y21.904 E57.16315
G0 F9000 X112.446 Y21.904
G1 F1620 X112.344 Y22.005 E57.17463
G0 F9000 X112.413 Y23.633
G1 F1620 X114.143 Y21.904 E57.37030
G0 F9000 X114.708 Y21.904
G1 F1620 X112.432 Y24.180 E57.62780
G0 F9000 X112.451 Y24.727
G1 F1620 X115.274 Y21.904 E57.94719
G0 F9000 X115.840 Y21.904
G1 F1620 X112.470 Y25.274 E58.32846
G0 F9000 X113.342 Y27.229
G1 F1620 X117.615 Y22.957 E58.81184
G0 F9000 X117.591 Y23.547
G1 F1620 X113.908 Y27.229 E59.22846
G0 F9000 X113.588 Y27.549
G1 F1620 X113.467 Y27.953 E59.25714
G1 X113.467 Y28.519 E59.28714
G1 X113.467 Y29.084 E59.31697
G1 X113.467 Y29.650 E59.34686
G1 X113.467 Y30.216 E59.37674
G1 X113.467 Y30.781 E59.40657
G1 X113.467 Y31.347 E59.43646
G1 X113.467 Y31.913 E59.46634
G1 X113.467 Y32.478 E59.49618
G1 X113.467 Y33.044 E59.52606
G1 X113.467 Y33.610 E59.55595
G1 X113.467 Y34.175 E59.58578
G1 X113.467 Y34.741 E59.61566
G1 X113.467 Y35.307 E59.64555
G1 X113.335 Y35.723 E59.68046
G0 F9000 X113.436 Y35.723
G0 X113.460 Y27.432
G0 X116.529 Y27.432
G0 X116.488 Y35.498
G0 X116.387 Y35.498
G1 F1620 X116.525 Y35.078 E59.71159
G1 X116.525 Y34.512 E59.74272
G1 X116.525 Y33.946 E59.77385
G1 X116.525 Y33.381 E59.80492
G1 X116.525 Y32.815 E59.83605
G1 X116.525 Y32.249 E59.86718
G1 X116.525 Y31.683 E59.89831
G1 X116.525 Y31.118 E59.92950
G1 X116.525 Y30.552 E59.96063
G1 X116.525 Y29.986 E59.99176
G1 X116.525 Y29.421 E60.02295
G1 X116.525 Y28.855 E60.05408
G1 X116.525 Y28.289 E60.08521
G1 X116.663 Y27.869 E60.12057
G0 F9000 X116.736 Y27.229
G1 F1620 X117.480 Y26.486 E60.20469
G0 F9000 X117.465 Y27.067
G1 F1620 X117.302 Y27.229 E60.22308
G0 F9000 X116.171 Y27.229
G1 F1620 X117.497 Y25.904 E60.37304
G0 F9000 X117.518 Y25.317
G1 F1620 X115.605 Y27.229 E60.58941
G0 F9000 X115.039 Y27.229
G1 F1620 X117.542 Y24.727 E60.87254
G0 F9000 X117.566 Y24.137
G1 F1620 X114.474 Y27.229 E61.22236
G0 F9000 X116.529 Y27.432
G0 X116.663 Y35.788
G1 F1620 X116.512 Y35.940 E61.23950
G0 F9000 X116.529 Y27.432
G0 X113.460 Y27.432
G0 X113.217 Y12.748
G0 X113.116 Y12.748
G1 F1620 X113.330 Y12.534 E61.26371
;LAYER:2
M106 S20
G0 F9000 X113.362 Y21.705 Z0.700
G0 X114.462 Y21.764
;TYPE:WALL-INNER
G1 F2100 X115.000 Y21.776 E61.30676
G1 X115.513 Y21.765 E61.34781
G1 X116.683 Y21.763 E61.44141
G1 X118.043 Y21.764 E61.55021
G1 X118.002 Y22.346 E61.59689
G1 X117.964 Y22.935 E61.64410
G1 X117.929 Y23.525 E61.69139
G1 X117.898 Y24.117 E61.73881
G1 X117.869 Y24.709 E61.78623
G1 X117.843 Y25.305 E61.83395
G1 X117.820 Y25.898 E61.88143
G1 X117.800 Y26.496 E61.92930
G1 X117.782 Y27.093 E61.97708
G1 X117.775 Y27.370 E61.99925
G1 X116.464 Y27.370 E62.10413
G1 X115.383 Y27.367 E62.19061
G1 X114.982 Y27.360 E62.22269
G1 X114.373 Y27.373 E62.27142
G1 X113.536 Y27.373 E62.33838
G1 X112.224 Y27.370 E62.44334
G1 X112.192 Y26.336 E62.52610
G1 X112.166 Y25.625 E62.58302
G1 X112.104 Y24.238 E62.69409
G1 X112.036 Y23.001 E62.79320
G1 X111.985 Y22.214 E62.85629
G1 X111.952 Y21.764 E62.89239
G1 X114.462 Y21.764 E63.09319
G0 F9000 X114.471 Y21.364
;TYPE:WALL-OUTER
G1 F2100 X115.000 Y21.376 E63.13552
G1 X115.504 Y21.365 E63.17585
G1 X116.297 Y21.364 E63.23929
G1 X116.297 Y11.900 E63.99641
G1 X116.588 Y11.897 E64.01969
G1 X117.083 Y11.902 E64.05929
G1 X117.083 Y21.364 E64.81625
G1 X118.480 Y21.364 E64.92801
G1 X118.401 Y22.373 E65.00898
G1 X118.363 Y22.960 E65.05604
G1 X118.328 Y23.548 E65.10316
G1 X118.268 Y24.727 E65.19760
G1 X118.220 Y25.912 E65.29248
G1 X118.182 Y27.103 E65.38781
G1 X118.166 Y27.770 E65.44118
G1 X116.864 Y27.770 E65.54534
G1 X116.864 Y36.572 E66.24950
G1 X116.188 Y36.571 E66.30358
G1 X116.188 Y27.775 E67.00726
G1 X115.376 Y27.767 E67.07223
G1 X114.983 Y27.760 E67.10367
G1 X114.382 Y27.773 E67.15176
G1 X113.802 Y27.773 E67.19816
G1 X113.802 Y36.571 E67.90200
G1 X113.347 Y36.573 E67.93840
G1 X113.136 Y36.572 E67.95528
G1 X113.136 Y27.770 E68.65944
G1 X111.835 Y27.770 E68.76352
G1 X111.815 Y27.057 E68.82059
G1 X111.766 Y25.641 E68.93393
G1 X111.705 Y24.258 E69.04468
G1 X111.637 Y23.025 E69.14347
G1 X111.586 Y22.241 E69.20633
G1 X111.536 Y21.567 E69.26039
G1 X111.520 Y21.364 E69.27668
G1 X112.917 Y21.364 E69.38844
G1 X112.917 Y11.904 E70.14524
G1 X113.703 Y11.905 E70.20812
G1 X113.703 Y21.364 E70.96484
G1 X114.471 Y21.364 E71.02628
G0 F9000 X114.393 Y21.904
;TYPE:SKIN
G1 F2100 X117.710 Y25.221 E71.40156
G0 F9000 X117.685 Y25.762
G1 F2100 X113.827 Y21.904 E71.83804
G0 F9000 X113.502 Y21.578
G1 F2100 X113.308 Y21.102 E71.88173
G1 X113.308 Y20.536 E71.92543
G1 X113.115 Y20.060 E71.96652
G0 F9000 X113.217 Y20.060
G0 X113.262 Y21.904
G1 F2100 X117.666 Y26.308 E72.46478
G0 F9000 X117.649 Y26.857
G1 F2100 X112.696 Y21.904 E73.02514
G0 F9000 X112.130 Y21.904
G1 F2100 X117.456 Y27.229 E73.62766
G0 F9000 X116.888 Y27.227
G1 F2100 X112.140 Y22.478 E74.16489
G0 F9000 X112.175 Y23.079
G1 F2100 X116.320 Y27.225 E74.63390
G0 F9000 X115.752 Y27.222
G1 F2100 X112.210 Y23.681 E75.03457
G0 F9000 X112.244 Y24.280
G1 F2100 X115.184 Y27.220 E75.36719
G0 F9000 X114.625 Y27.227
G1 F2100 X112.268 Y24.869 E75.63392
G0 F9000 X112.290 Y25.457
G1 F2100 X114.064 Y27.232 E75.83468
G0 F9000 X113.498 Y27.231
G1 F2100 X112.313 Y26.046 E75.96874
G0 F9000 X112.336 Y26.635
G1 F2100 X112.932 Y27.230 E76.03612
G0 F9000 X113.335 Y27.633
G1 F2100 X113.467 Y28.049 E76.06614
G1 X113.467 Y28.615 E76.09614
G1 X113.467 Y29.180 E76.12597
G1 X113.467 Y29.746 E76.15597
G1 X113.467 Y30.312 E76.18597
G1 X113.467 Y30.877 E76.21592
G1 X113.467 Y31.443 E76.24591
G1 X113.467 Y32.009 E76.27591
G1 X113.467 Y32.574 E76.30586
G1 X113.467 Y33.140 E76.33585
G1 X113.467 Y33.706 E76.36585
G1 X113.467 Y34.271 E76.39580
G1 X113.467 Y34.837 E76.42580
G1 X113.467 Y35.403 E76.45579
G1 X113.467 Y35.969 E76.48579
G1 X113.588 Y36.372 E76.51945
G0 F9000 X113.588 Y36.272
G0 X113.461 Y27.432
G0 X116.530 Y27.437
G0 X116.488 Y35.776
G0 X116.386 Y35.776
G1 F2100 X116.663 Y35.770 E76.55071
G1 X116.524 Y35.066 E76.58199
G1 X116.524 Y34.500 E76.61324
G1 X116.524 Y33.934 E76.64448
G1 X116.524 Y33.369 E76.67567
G1 X116.524 Y32.803 E76.70691
