;FLAVOR:UltiGCode
;TIME:4118
;MATERIAL:8067
;MATERIAL2:0

;Layer count: 81
;LAYER:0
M107
G0 F9000 X107.470 Y17.335 Z0.300
;TYPE:SKIRT
G1 F1200 X108.515 Y16.058 E0.19801
G1 X109.190 Y15.505 E0.30272
G1 X110.024 Y15.078 E0.41516
G1 X111.014 Y14.833 E0.53754
G1 X111.592 Y14.824 E0.60691
G1 X113.883 Y14.835 E0.88183
G1 X113.883 Y14.828 E0.88267
G1 X118.648 Y14.849 E1.45448
G1 X119.045 Y14.866 E1.50216
G1 X119.558 Y14.961 E1.56477
G1 X120.225 Y15.166 E1.64850
G1 X120.954 Y15.563 E1.74811
G1 X122.591 Y16.905 E2.00213
G1 X122.578 Y20.116 E2.38745
G1 X122.570 Y21.553 E2.55989
G1 X122.565 Y22.725 E2.70053
G1 X122.554 Y25.804 E3.07002
G1 X122.545 Y27.907 E3.32238
G1 X122.395 Y29.183 E3.47655
G1 X122.317 Y29.800 E3.55118
G1 X122.248 Y30.393 E3.62282
G1 X122.188 Y31.001 E3.69614
G1 X122.059 Y32.028 E3.82034
G1 X122.008 Y32.931 E3.92888
G1 X121.949 Y33.623 E4.01222
G1 X121.917 Y34.160 E4.07677
G1 X121.874 Y34.770 E4.15015
G1 X121.849 Y35.342 E4.21886
G1 X121.808 Y36.028 E4.30133
G1 X121.772 Y36.561 E4.36543
G1 X121.744 Y37.094 E4.42948
G1 X121.707 Y37.661 E4.49767
G1 X121.670 Y38.221 E4.56501
G1 X121.637 Y38.784 E4.63269
G1 X121.595 Y39.418 E4.70893
G1 X121.548 Y39.998 E4.77876
G1 X121.490 Y40.936 E4.89154
G1 X121.339 Y42.839 E5.12062
G1 X119.492 Y44.158 E5.39297
G1 X118.621 Y44.489 E5.50478
G1 X118.573 Y44.498 E5.51064
G1 X118.368 Y44.611 E5.53873
G1 X117.875 Y44.833 E5.60361
G1 X117.088 Y45.101 E5.70338
G1 X116.277 Y45.284 E5.80315
G1 X115.517 Y45.379 E5.89506
G1 X114.701 Y45.399 E5.99301
G1 X113.584 Y45.284 E6.12775
G1 X112.611 Y45.047 E6.24793
G1 X111.725 Y44.710 E6.36168
G1 X111.434 Y44.560 E6.40097
G1 X110.467 Y44.207 E6.52450
G1 X109.515 Y43.528 E6.66482
G1 X108.489 Y42.200 E6.86620
G1 X108.363 Y40.393 E7.08356
G1 X108.259 Y38.672 E7.29046
G1 X108.228 Y38.044 E7.36591
G1 X108.169 Y37.023 E7.48864
G1 X108.126 Y36.124 E7.59664
G1 X108.084 Y35.324 E7.69277
G1 X108.043 Y34.672 E7.77117
G1 X108.009 Y34.115 E7.83813
G1 X107.966 Y33.440 E7.91929
G1 X107.936 Y32.931 E7.98048
G1 X107.858 Y32.018 E8.09044
G1 X107.800 Y31.329 E8.17341
G1 X107.721 Y30.499 E8.27346
G1 X107.655 Y29.873 E8.34900
G1 X107.467 Y28.177 E8.55376
G1 X107.433 Y27.827 E8.59596
G1 X107.444 Y24.583 E8.98524
G1 X107.457 Y21.208 E9.39025
G1 X107.470 Y17.335 E9.85501
G0 F9000 X107.870 Y17.479
G1 F1200 X108.800 Y16.342 E10.03128
G1 X109.411 Y15.841 E10.12610
G1 X110.165 Y15.455 E10.22774
G1 X111.066 Y15.232 E10.33913
G1 X111.594 Y15.224 E10.40249
G1 X114.281 Y15.237 E10.72494
G1 X114.281 Y15.229 E10.72590
G1 X118.639 Y15.249 E11.24886
G1 X119.000 Y15.264 E11.29222
G1 X119.462 Y15.350 E11.34861
G1 X120.069 Y15.536 E11.42479
G1 X120.730 Y15.896 E11.51512
G1 X122.190 Y17.094 E11.74175
G1 X122.178 Y20.114 E12.10415
G1 X122.170 Y21.551 E12.27659
G1 X122.165 Y22.724 E12.41735
G1 X122.154 Y25.803 E12.78684
G1 X122.145 Y27.883 E13.03644
G1 X121.997 Y29.134 E13.18761
G1 X121.920 Y29.750 E13.26210
G1 X121.850 Y30.346 E13.33411
G1 X121.790 Y30.956 E13.40767
G1 X121.661 Y31.984 E13.53199
G1 X121.609 Y32.903 E13.64245
G1 X121.554 Y33.545 E13.71977
G1 X121.518 Y34.134 E13.79058
G1 X121.474 Y34.756 E13.86541
G1 X121.450 Y35.322 E13.93339
G1 X121.409 Y36.002 E14.01514
G1 X121.373 Y36.535 E14.07925
G1 X121.345 Y37.070 E14.14353
G1 X121.308 Y37.635 E14.21148
G1 X121.271 Y38.194 E14.27871
G1 X121.238 Y38.759 E14.34662
G1 X121.197 Y39.388 E14.42226
G1 X121.151 Y39.943 E14.48909
G1 X121.091 Y40.908 E14.60511
G1 X120.955 Y42.621 E14.81132
G1 X119.301 Y43.802 E15.05520
G1 X118.511 Y44.103 E15.15665
G1 X118.433 Y44.118 E15.16618
G1 X118.189 Y44.252 E15.19959
G1 X117.728 Y44.461 E15.26033
G1 X116.979 Y44.715 E15.35523
G1 X116.208 Y44.889 E15.45008
G1 X115.487 Y44.979 E15.53727
G1 X114.717 Y44.998 E15.62970
G1 X113.652 Y44.889 E15.75817
G1 X112.730 Y44.664 E15.87206
G1 X111.888 Y44.344 E15.98015
G1 X111.573 Y44.182 E16.02265
G1 X111.561 Y44.181 E16.02410
G1 X110.655 Y43.850 E16.13985
G1 X109.795 Y43.237 E16.26658
G1 X108.879 Y42.052 E16.44631
G1 X108.762 Y40.367 E16.64900
G1 X108.659 Y38.650 E16.85541
G1 X108.627 Y38.024 E16.93062
G1 X108.568 Y37.002 E17.05347
G1 X108.527 Y36.121 E17.15930
G1 X108.526 Y36.121 E17.15942
G1 X108.483 Y35.303 E17.25772
G1 X108.442 Y34.647 E17.33659
G1 X108.409 Y34.091 E17.40343
G1 X108.365 Y33.415 E17.48472
G1 X108.333 Y32.877 E17.54940
G1 X108.256 Y31.985 E17.65683
G1 X108.195 Y31.256 E17.74462
G1 X108.119 Y30.461 E17.84045
G1 X108.120 Y30.461 E17.84057
G1 X108.055 Y29.847 E17.91467
G1 X108.054 Y29.847 E17.91479
G1 X107.865 Y28.136 E18.12136
G1 X107.834 Y27.809 E18.16077
G1 X107.844 Y24.585 E18.54765
G1 X107.857 Y21.210 E18.95266
G1 X107.870 Y17.479 E19.40038
G10
G0 F9000 X114.568 Y35.338
;TYPE:FILL
G11
G1 F1200 X114.091 Y35.814 E19.48124
G0 F9000 X114.092 Y36.053
G0 X117.393 Y35.125
G0 X117.390 Y35.365
G1 F1200 X117.492 Y35.468 E19.49864
G0 F9000 X117.616 Y35.758
;TYPE:WALL-INNER
G1 F1200 X117.603 Y35.946 E19.52125
G1 X116.287 Y35.948 E19.67917
G1 X112.940 Y35.956 E20.08081
G1 X112.323 Y35.959 E20.15485
G1 X112.282 Y35.177 E20.24882
G1 X114.673 Y35.198 E20.53575
G1 X117.648 Y35.228 E20.89277
G1 X117.616 Y35.758 E20.95649
G10
G0 F9000 X117.234 Y39.077
G11
G1 F1200 X117.417 Y38.947 E20.98343
G1 X117.359 Y39.702 E21.07429
G1 X117.312 Y40.447 E21.16387
G1 X117.217 Y40.452 E21.17529
G1 X116.497 Y40.847 E21.27383
G1 X116.328 Y40.923 E21.29607
G1 X115.945 Y41.053 E21.34461
G1 X115.552 Y41.142 E21.39296
G1 X115.210 Y41.185 E21.43432
G1 X114.864 Y41.193 E21.47585
G1 X114.299 Y41.135 E21.54401
G1 X113.860 Y41.028 E21.59823
G1 X113.436 Y40.867 E21.65266
G1 X112.979 Y40.632 E21.71432
G1 X112.758 Y40.495 E21.74553
G1 X112.579 Y40.474 E21.76715
G1 X112.480 Y38.888 E21.95784
G1 X112.736 Y39.068 E21.99540
G1 X113.097 Y39.209 E22.04190
G1 X113.411 Y39.241 E22.07978
G1 X116.541 Y39.253 E22.45538
G1 X116.852 Y39.225 E22.49285
G1 X117.234 Y39.077 E22.54201
G10
G0 F9000 X118.024 Y30.428
G11
G1 F1200 X118.031 Y28.414 E22.78369
G1 X112.003 Y28.392 E23.50706
G1 X111.993 Y31.061 E23.82734
G1 X111.902 Y30.098 E23.94342
G1 X111.832 Y29.430 E24.02402
G1 X111.644 Y27.741 E24.22795
G1 X111.634 Y27.636 E24.24060
G1 X111.665 Y19.024 E25.27405
G1 X112.036 Y19.026 E25.31857
G1 X112.015 Y24.956 E26.03018
G1 X112.010 Y25.930 E26.14706
G1 X113.110 Y25.930 E26.27906
G1 X113.109 Y26.110 E26.30066
G1 X113.154 Y26.501 E26.34789
G1 X113.267 Y26.848 E26.39168
G1 X113.444 Y27.167 E26.43546
G1 X113.680 Y27.451 E26.47977
G1 X113.969 Y27.684 E26.52432
G1 X114.298 Y27.858 E26.56898
G1 X114.644 Y27.964 E26.61240
G1 X114.990 Y27.999 E26.65413
G1 X115.066 Y27.999 E26.66325
G1 X115.414 Y27.961 E26.70526
G1 X115.775 Y27.849 E26.75062
G1 X116.105 Y27.669 E26.79573
G1 X116.391 Y27.430 E26.84045
G1 X116.627 Y27.140 E26.88532
G1 X116.801 Y26.811 E26.92998
G1 X116.908 Y26.457 E26.97436
G1 X116.943 Y26.117 E27.01537
G1 X116.943 Y25.943 E27.03625
G1 X118.041 Y25.957 E27.16803
G1 X118.048 Y23.962 E27.40743
G1 X118.053 Y23.025 E27.51987
G1 X118.054 Y22.438 E27.59031
G1 X118.067 Y19.047 E27.99723
G1 X118.382 Y19.048 E28.03503
G1 X118.346 Y27.651 E29.06740
G1 X118.226 Y28.672 E29.19076
G1 X118.149 Y29.279 E29.26419
G1 X118.075 Y29.909 E29.34031
G1 X118.024 Y30.428 E29.40289
G0 F9000 X118.411 Y30.578
;TYPE:WALL-OUTER
G1 F1200 X118.273 Y31.675 E29.53557
G1 X118.217 Y32.665 E29.65456
G1 X118.163 Y33.298 E29.73079
G1 X118.125 Y33.911 E29.80449
G1 X118.079 Y34.555 E29.88197
G1 X118.054 Y35.145 E29.95283
G1 X118.015 Y35.785 E30.02978
G1 X117.980 Y36.309 E30.09280
G1 X117.950 Y36.869 E30.16009
G1 X117.878 Y37.970 E30.29249
G1 X117.844 Y38.547 E30.36185
G1 X117.805 Y39.141 E30.43329
G1 X117.758 Y39.731 E30.50431
G1 X117.699 Y40.670 E30.61721
G1 X117.691 Y40.774 E30.62973
G1 X117.572 Y40.822 E30.64513
G1 X117.494 Y40.838 E30.65468
G1 X117.329 Y40.847 E30.67451
G1 X116.670 Y41.208 E30.76468
G1 X116.059 Y41.438 E30.84302
G1 X115.619 Y41.537 E30.89714
G1 X115.239 Y41.584 E30.94309
G1 X114.848 Y41.594 E30.99003
G1 X114.228 Y41.530 E31.06482
G1 X113.744 Y41.412 E31.12460
G1 X113.272 Y41.233 E31.18518
G1 X112.786 Y40.983 E31.25076
G1 X112.623 Y40.882 E31.27377
G1 X112.352 Y40.850 E31.30652
G1 X112.254 Y40.814 E31.31905
G1 X112.199 Y40.775 E31.32714
G1 X112.155 Y40.146 E31.40280
G1 X112.054 Y38.461 E31.60537
G1 X112.023 Y37.851 E31.67866
G1 X111.964 Y36.823 E31.80222
G1 X111.879 Y35.124 E32.00636
G1 X111.724 Y32.638 E32.30526
G1 X111.583 Y30.970 E32.50613
G1 X111.504 Y30.138 E32.60642
G1 X111.434 Y29.473 E32.68666
G1 X111.247 Y27.785 E32.89046
G1 X111.234 Y27.653 E32.90638
G1 X111.266 Y18.718 E33.97858
G1 X111.365 Y18.660 E33.99235
G1 X111.505 Y18.626 E34.00964
G1 X111.613 Y18.624 E34.02260
G1 X112.437 Y18.628 E34.12148
G1 X112.412 Y25.530 E34.94973
G1 X113.427 Y25.530 E35.07153
G1 X113.511 Y25.531 E35.08161
G1 X113.509 Y26.088 E35.14845
G1 X113.547 Y26.415 E35.18796
G1 X113.636 Y26.688 E35.22241
G1 X113.775 Y26.940 E35.25695
G1 X113.962 Y27.164 E35.29196
G1 X114.190 Y27.349 E35.32720
G1 X114.451 Y27.487 E35.36263
G1 X114.723 Y27.570 E35.39675
G1 X115.010 Y27.599 E35.43137
G1 X115.045 Y27.599 E35.43557
G1 X115.333 Y27.568 E35.47033
G1 X115.618 Y27.479 E35.50615
G1 X115.879 Y27.337 E35.54181
G1 X116.105 Y27.148 E35.57716
G1 X116.292 Y26.919 E35.61264
G1 X116.429 Y26.658 E35.64801
G1 X116.514 Y26.378 E35.68313
G1 X116.543 Y26.096 E35.71715
G1 X116.545 Y25.542 E35.78363
G1 X117.386 Y25.545 E35.88455
G1 X117.642 Y25.550 E35.91527
G1 X117.668 Y18.645 E36.74388
G1 X118.558 Y18.649 E36.85068
G1 X118.655 Y18.659 E36.86238
G1 X118.784 Y18.708 E36.87894
G1 X118.746 Y27.673 E37.95475
G1 X118.622 Y28.724 E38.08175
G1 X118.546 Y29.327 E38.15468
G1 X118.473 Y29.952 E38.23019
G1 X118.411 Y30.578 E38.30568
G0 F9000 X118.113 Y30.545
G0 X117.929 Y28.814
G0 X117.630 Y28.813
G1 F1200 X112.401 Y28.793 E38.93316
G1 X112.383 Y33.290 E39.47281
G1 X112.384 Y33.467 E39.49405
G1 X112.380 Y33.985 E39.55621
G1 X112.381 Y34.309 E39.59509
G1 X112.378 Y34.777 E39.65125
G1 X117.608 Y34.828 E40.27888
G1 X117.630 Y28.813 E41.00068
G10
G0 F9000 X117.602 Y36.347
G11
G1 F1200 X112.372 Y36.358 E41.62828
G1 X112.367 Y37.762 E41.79677
G1 X112.374 Y37.897 E41.81299
G1 X112.435 Y38.146 E41.84375
G1 X112.561 Y38.385 E41.87617
G1 X112.738 Y38.581 E41.90786
G1 X112.926 Y38.713 E41.93543
G1 X113.192 Y38.816 E41.96966
G1 X113.432 Y38.841 E41.99861
G1 X116.524 Y38.853 E42.36966
G1 X116.760 Y38.832 E42.39809
G1 X117.043 Y38.722 E42.43452
G1 X117.243 Y38.579 E42.46403
G1 X117.406 Y38.394 E42.49362
G1 X117.525 Y38.171 E42.52395
G1 X117.589 Y37.919 E42.55515
G1 X117.599 Y37.108 E42.65247
G1 X117.602 Y36.347 E42.74380
G0 F9000 X117.476 Y35.735
;TYPE:SKIN
G1 F1200 X117.043 Y35.584 E42.80694
G1 X116.475 Y35.582 E42.88294
G1 X115.908 Y35.581 E42.96017
G1 X115.340 Y35.578 E43.03872
G1 X114.772 Y35.576 E43.11847
G1 X114.204 Y35.574 E43.19924
G1 X113.637 Y35.572 E43.28140
G1 X113.069 Y35.570 E43.36455
G1 X112.535 Y35.319 E43.43536
G0 F9000 X112.179 Y34.397
G1 F1200 X112.102 Y34.037 E43.46164
G1 X112.084 Y33.454 E43.49472
G1 X112.066 Y32.870 E43.53468
G1 X112.046 Y32.284 E43.58200
G1 X112.020 Y31.693 E43.63879
G1 X111.857 Y31.247 E43.69577
G0 F9000 X111.907 Y31.244
G0 X112.061 Y28.451
G0 X112.255 Y28.494
G0 X112.256 Y28.252
G1 F1200 X111.790 Y27.785 E43.77494
G0 F9000 X111.774 Y27.204
G1 F1200 X112.824 Y28.254 E43.95313
G0 F9000 X113.391 Y28.255
G1 F1200 X111.775 Y26.640 E44.22729
G0 F9000 X111.777 Y26.075
G1 F1200 X113.959 Y28.258 E44.59767
G0 F9000 X114.261 Y27.994
G1 F1200 X114.748 Y28.198 E44.64266
G1 X115.289 Y28.174 E44.66378
G1 X115.782 Y28.101 E44.69383
G1 X116.242 Y27.995 E44.74934
G1 X116.798 Y28.268 E44.82367
G0 F9000 X117.366 Y28.270
G1 F1200 X116.550 Y27.454 E44.96215
G0 F9000 X116.789 Y27.128
G1 F1200 X117.934 Y28.272 E45.15638
G0 F9000 X118.169 Y27.942
G1 F1200 X116.967 Y26.740 E45.36037
G0 F9000 X117.065 Y26.273
G1 F1200 X118.206 Y27.413 E45.55392
G0 F9000 X118.208 Y26.850
G1 F1200 X117.447 Y26.089 E45.68306
G0 F9000 X118.021 Y26.097
G1 F1200 X118.210 Y26.286 E45.71514
G0 F9000 X118.452 Y26.287
G0 X117.923 Y30.607
G0 X118.005 Y30.607
G1 F1200 X118.001 Y30.886 E45.74519
G1 X117.969 Y31.419 E45.79613
G1 X117.940 Y31.956 E45.83791
G1 X117.924 Y32.505 E45.87499
G1 X117.905 Y33.052 E45.90618
G1 X117.956 Y33.386 E45.94673
G10
G0 F9000 X117.071 Y39.289
G11
G1 F1200 X117.239 Y39.457 E45.97524
G0 F9000 X117.201 Y39.985
G1 F1200 X116.604 Y39.387 E46.07664
G0 F9000 X116.041 Y39.391
G1 F1200 X117.038 Y40.388 E46.24583
G0 F9000 X116.674 Y40.589
G1 F1200 X115.474 Y39.389 E46.44948
G0 F9000 X114.906 Y39.387
G1 F1200 X116.299 Y40.780 E46.68588
G0 F9000 X115.877 Y40.924
G1 F1200 X114.338 Y39.385 E46.94706
G0 F9000 X113.769 Y39.382
G1 F1200 X115.406 Y41.019 E47.22487
G0 F9000 X114.874 Y41.052
G1 F1200 X113.180 Y39.358 E47.51235
G0 F9000 X112.651 Y39.395
G1 F1200 X114.230 Y40.974 E47.78031
G0 F9000 X113.363 Y40.672
G1 F1200 X112.688 Y39.998 E47.89478
G10
G0 F9000 X113.121 Y26.854
G11
G1 F1200 X112.337 Y26.070 E48.02783
G0 F9000 X112.903 Y26.070
G1 F1200 X112.970 Y26.138 E48.03928
;LAYER:1
M106 S10
G0 F9000 X113.136 Y26.429 Z0.500
;TYPE:WALL-INNER
G1 F1620 X113.236 Y26.780 E48.06848
G1 X113.407 Y27.116 E48.09864
G1 X113.693 Y27.464 E48.13468
G1 X113.982 Y27.691 E48.16408
G1 X114.278 Y27.852 E48.19103
G1 X114.640 Y27.964 E48.22135
G1 X115.017 Y28.002 E48.25166
G1 X115.393 Y27.967 E48.28187
G1 X115.754 Y27.858 E48.31204
G1 X116.061 Y27.698 E48.33973
G1 X116.402 Y27.418 E48.37503
G1 X116.636 Y27.124 E48.40509
G1 X116.805 Y26.797 E48.43454
G1 X116.908 Y26.447 E48.46373
G1 X116.942 Y26.117 E48.49027
G1 X118.040 Y26.088 E48.57814
G1 X118.065 Y19.058 E49.14054
G1 X118.543 Y19.062 E49.17878
G1 X118.540 Y20.733 E49.31246
G1 X118.534 Y21.530 E49.37622
G1 X118.511 Y27.666 E49.86711
G1 X118.341 Y29.304 E49.99885
G1 X118.273 Y30.022 E50.05655
G1 X118.219 Y30.550 E50.09901
G1 X118.129 Y31.468 E50.17280
G1 X118.078 Y32.166 E50.22879
G1 X118.015 Y32.887 E50.28669
G1 X118.030 Y28.422 E50.64389
G1 X111.999 Y28.400 E51.12637
G1 X111.997 Y29.555 E51.21878
G1 X111.983 Y33.340 E51.52158
G1 X111.848 Y31.564 E51.66407
G1 X111.799 Y30.952 E51.71318
G1 X111.729 Y30.117 E51.78022
G1 X111.653 Y29.281 E51.84737
G1 X111.593 Y28.667 E51.89673
G1 X111.504 Y27.645 E51.97880
G1 X111.527 Y21.505 E52.47000
G1 X111.531 Y19.043 E52.66696
G1 X111.683 Y19.036 E52.67913
G1 X112.035 Y19.038 E52.70729
G1 X112.010 Y26.144 E53.27578
G1 X113.112 Y26.148 E53.36394
G1 X113.136 Y26.429 E53.38650
G0 F9000 X113.300 Y28.405
G0 X117.971 Y28.480
G0 X117.946 Y35.047
G0 X113.862 Y35.081
G1 F1620 X117.853 Y35.106 E53.70579
G1 X117.806 Y35.720 E53.75505
G1 X117.782 Y36.075 E53.78352
G1 X112.785 Y36.066 E54.18328
G1 X112.160 Y36.069 E54.23328
G1 X112.103 Y35.108 E54.31029
G1 X112.101 Y35.073 E54.31310
G1 X113.862 Y35.081 E54.45398
G10
G0 F9000 X112.456 Y38.847
G11
G1 F1620 X112.750 Y39.052 E54.48265
G1 X113.077 Y39.179 E54.51071
G1 X113.396 Y39.226 E54.53651
G1 X116.138 Y39.238 E54.75587
G1 X116.553 Y39.239 E54.78907
G1 X116.871 Y39.197 E54.81473
G1 X117.202 Y39.073 E54.84301
G1 X117.499 Y38.870 E54.87179
G1 X117.613 Y38.741 E54.88556
G1 X117.557 Y39.596 E54.95411
G1 X117.487 Y40.736 E55.04548
G1 X117.477 Y40.755 E55.04720
G1 X117.438 Y40.765 E55.05042
G1 X117.196 Y40.785 E55.06985
G1 X116.697 Y41.078 E55.11614
G1 X116.322 Y41.250 E55.14914
G1 X115.956 Y41.374 E55.18006
G1 X115.350 Y41.491 E55.22943
G1 X114.898 Y41.518 E55.26566
G1 X114.580 Y41.500 E55.29114
G1 X114.267 Y41.456 E55.31642
G1 X113.764 Y41.325 E55.35801
G1 X113.546 Y41.245 E55.37658
G1 X113.078 Y41.020 E55.41813
G1 X112.739 Y40.815 E55.44982
G1 X112.463 Y40.791 E55.47198
G1 X112.437 Y40.755 E55.47554
G1 X112.348 Y39.314 E55.59104
G1 X112.312 Y38.682 E55.64168
G1 X112.456 Y38.847 E55.65920
G0 F9000 X112.725 Y38.547
;TYPE:WALL-OUTER
G1 F1620 X112.939 Y38.697 E55.68010
G1 X113.180 Y38.790 E55.70077
G1 X113.426 Y38.826 E55.72066
G1 X116.527 Y38.839 E55.96874
G1 X116.774 Y38.806 E55.98868
G1 X117.016 Y38.716 E56.00933
G1 X117.232 Y38.568 E56.03028
G1 X117.405 Y38.371 E56.05125
G1 X117.526 Y38.141 E56.07204
G1 X117.589 Y37.887 E56.09298
G1 X117.602 Y36.474 E56.20603
G1 X112.786 Y36.466 E56.59131
G1 X112.371 Y36.468 E56.62451
G1 X112.366 Y37.394 E56.69859
