;FLAVOR:UltiGCode
;TIME:3930
;MATERIAL:8647
;MATERIAL2:0

;Layer count: 163
;LAYER:0
M107
G0 F9000 X28.166 Y40.163 Z0.300
;TYPE:SKIRT
G1 F1800 X65.004 Y40.163 E4.42056
G1 X68.280 Y43.439 E4.97652
G1 X68.280 Y52.256 E6.03456
G1 X66.067 Y54.471 E6.41028
G1 X65.004 Y55.534 E6.59068
G1 X61.275 Y55.534 E7.03816
G1 X61.275 Y59.113 E7.46764
G1 X31.895 Y59.113 E10.99324
G1 X31.895 Y55.534 E11.42272
G1 X28.165 Y55.534 E11.87032
G1 X25.952 Y53.320 E12.24596
G1 X24.890 Y52.257 E12.42628
G1 X24.890 Y43.439 E13.48444
G1 X28.166 Y40.163 E14.04039
G0 F9000 X28.332 Y40.563
G1 F1800 X64.838 Y40.563 E18.42111
G1 X67.880 Y43.605 E18.93736
G1 X67.880 Y52.091 E19.95568
G1 X65.784 Y54.188 E20.31146
G1 X64.838 Y55.134 E20.47201
G1 X60.875 Y55.134 E20.94757
G1 X60.875 Y58.713 E21.37705
G1 X32.295 Y58.713 E24.80665
G1 X32.295 Y55.134 E25.23613
G1 X28.331 Y55.134 E25.71181
G1 X26.234 Y53.036 E26.06776
G1 X25.290 Y52.091 E26.22805
G1 X25.290 Y43.605 E27.24637
G1 X28.332 Y40.563 E27.76262
G10
G0 F9000 X29.560 Y44.903
;TYPE:FILL
G11
G1 F1800 X29.959 Y45.302 E27.83033
G0 F9000 X30.774 Y44.502
G1 F1800 X30.885 Y44.612 E27.84908
G0 F9000 X32.742 Y44.335
G0 X35.619 Y44.502
G1 F1800 X36.709 Y45.592 E28.03406
G0 F9000 X37.545 Y44.813
G1 F1800 X37.234 Y44.502 E28.08684
G0 F9000 X35.951 Y46.449
G1 F1800 X36.138 Y46.636 E28.11857
G0 F9000 X37.741 Y44.849
G0 X39.746 Y44.335
G0 X42.079 Y44.502
G1 F1800 X43.487 Y45.909 E28.35743
G0 F9000 X44.235 Y45.042
G1 F1800 X43.694 Y44.502 E28.44916
G0 F9000 X48.540 Y44.503
G1 F1800 X50.300 Y46.262 E28.74776
G0 F9000 X50.961 Y45.309
G1 F1800 X50.155 Y44.503 E28.88454
G0 F9000 X51.770 Y44.503
G1 F1800 X51.880 Y44.612 E28.90312
G0 F9000 X53.992 Y44.353
G0 X56.615 Y44.503
G1 F1800 X57.710 Y45.597 E29.08887
G0 F9000 X58.551 Y44.823
G1 F1800 X58.230 Y44.503 E29.14326
G0 F9000 X56.969 Y46.471
G1 F1800 X57.142 Y46.645 E29.17270
G0 F9000 X58.942 Y44.742
G0 X60.997 Y44.353
G0 X63.076 Y44.503
G1 F1800 X63.939 Y45.366 E29.31916
G0 F9000 X63.968 Y48.844
G0 X63.620 Y49.892
G1 F1800 X63.939 Y50.211 E29.37329
G0 F9000 X63.256 Y51.143
G1 F1800 X62.840 Y50.727 E29.44389
G0 F9000 X62.866 Y50.536
;TYPE:WALL-INNER
G1 F1800 X63.249 Y50.157 E29.50855
G1 X63.554 Y49.750 E29.56958
G1 X63.788 Y49.328 E29.62748
G1 X63.970 Y48.844 E29.68954
G1 X64.076 Y48.366 E29.74829
G1 X64.080 Y48.313 E29.75467
G1 X64.080 Y50.518 E30.01927
G1 X63.265 Y51.334 E30.15766
G1 X61.056 Y51.334 E30.42274
G1 X61.510 Y51.247 E30.47821
G1 X61.972 Y51.087 E30.53688
G1 X62.434 Y50.849 E30.59925
G1 X62.866 Y50.536 E30.66326
G0 F9000 X60.998 Y51.343
G0 X59.962 Y51.311
G1 F1800 X60.168 Y51.334 E30.68814
G1 X55.727 Y51.334 E31.22106
G1 X55.727 Y52.445 E31.35438
G1 X57.075 Y54.780 E31.67792
G1 X57.075 Y54.913 E31.69388
G1 X36.095 Y54.913 E34.21148
G1 X36.095 Y54.780 E34.22744
G1 X37.354 Y52.599 E34.52963
G1 X37.443 Y52.450 E34.55046
G1 X37.443 Y51.334 E34.68438
G1 X32.997 Y51.334 E35.21790
G1 X33.241 Y51.305 E35.24739
G1 X33.744 Y51.167 E35.30998
G1 X34.228 Y50.956 E35.37334
G1 X34.677 Y50.669 E35.43728
G1 X35.044 Y50.356 E35.49516
G1 X35.368 Y49.994 E35.55346
G1 X35.652 Y49.559 E35.61580
G1 X35.870 Y49.089 E35.67797
G1 X36.016 Y48.593 E35.74002
G1 X36.083 Y48.136 E35.79545
G1 X36.104 Y48.397 E35.82687
G1 X36.214 Y48.876 E35.88584
G1 X36.403 Y49.363 E35.94853
G1 X36.666 Y49.822 E36.01201
G1 X37.000 Y50.239 E36.07612
G1 X37.352 Y50.572 E36.13427
G1 X37.774 Y50.868 E36.19613
G1 X38.237 Y51.100 E36.25827
G1 X38.727 Y51.261 E36.32016
G1 X39.205 Y51.347 E36.37844
G1 X39.672 Y51.366 E36.43453
G1 X39.748 Y51.364 E36.44365
G1 X40.246 Y51.305 E36.50383
G1 X40.749 Y51.167 E36.56642
G1 X41.232 Y50.956 E36.62967
G1 X41.682 Y50.670 E36.69365
G1 X42.049 Y50.356 E36.75161
G1 X42.373 Y49.994 E36.80991
G1 X42.657 Y49.559 E36.87225
G1 X42.875 Y49.089 E36.93442
G1 X43.021 Y48.593 E36.99647
G1 X43.088 Y48.136 E37.05190
G1 X43.109 Y48.397 E37.08332
G1 X43.219 Y48.876 E37.14229
G1 X43.408 Y49.363 E37.20498
G1 X43.671 Y49.822 E37.26846
G1 X44.005 Y50.239 E37.33257
G1 X44.357 Y50.572 E37.39072
G1 X44.779 Y50.868 E37.45257
G1 X45.242 Y51.100 E37.51472
G1 X45.731 Y51.261 E37.57650
G1 X46.209 Y51.347 E37.63478
G1 X46.676 Y51.366 E37.69087
G1 X46.752 Y51.364 E37.69999
G1 X47.250 Y51.305 E37.76017
G1 X47.753 Y51.167 E37.82276
G1 X48.236 Y50.956 E37.88601
G1 X48.686 Y50.669 E37.95005
G1 X49.052 Y50.356 E38.00784
G1 X49.376 Y49.994 E38.06614
G1 X49.661 Y49.559 E38.12855
G1 X49.879 Y49.088 E38.19083
G1 X50.024 Y48.592 E38.25284
G1 X50.088 Y48.156 E38.30572
G1 X50.153 Y48.619 E38.36183
G1 X50.295 Y49.090 E38.42086
G1 X50.541 Y49.608 E38.48967
G1 X50.832 Y50.036 E38.55178
G1 X51.157 Y50.392 E38.60962
G1 X51.533 Y50.706 E38.66841
G1 X52.010 Y50.993 E38.73521
G1 X52.486 Y51.189 E38.79698
G1 X52.957 Y51.311 E38.85537
G1 X53.423 Y51.363 E38.91163
G1 X53.496 Y51.365 E38.92040
G1 X53.994 Y51.345 E38.98021
G1 X54.505 Y51.247 E39.04264
G1 X54.968 Y51.087 E39.10143
G1 X55.430 Y50.848 E39.16385
G1 X55.862 Y50.536 E39.22779
G1 X56.244 Y50.157 E39.29237
G1 X56.549 Y49.750 E39.35340
G1 X56.783 Y49.328 E39.41130
G1 X56.964 Y48.845 E39.47320
G1 X57.072 Y48.366 E39.53212
G1 X57.089 Y48.130 E39.56052
G1 X57.158 Y48.619 E39.61978
G1 X57.300 Y49.090 E39.67881
G1 X57.546 Y49.608 E39.74762
G1 X57.837 Y50.036 E39.80973
G1 X58.162 Y50.392 E39.86757
G1 X58.538 Y50.706 E39.92636
G1 X59.014 Y50.993 E39.99306
G1 X59.491 Y51.189 E40.05494
G1 X59.962 Y51.311 E40.11333
G0 F9000 X58.163 Y50.392
G0 X57.159 Y48.618
G0 X57.066 Y47.301
G1 F1800 X56.956 Y46.822 E40.17230
G1 X56.767 Y46.335 E40.23499
G1 X56.505 Y45.877 E40.29831
G1 X56.171 Y45.458 E40.36261
G1 X55.817 Y45.124 E40.42101
G1 X55.395 Y44.828 E40.48287
G1 X54.936 Y44.598 E40.54447
G1 X54.475 Y44.442 E40.60288
G1 X54.051 Y44.363 E40.65463
G1 X60.176 Y44.363 E41.38963
G1 X59.929 Y44.392 E41.41947
G1 X59.426 Y44.530 E41.48207
G1 X58.942 Y44.741 E41.54542
G1 X58.493 Y45.028 E41.60937
G1 X58.125 Y45.341 E41.66734
G1 X57.802 Y45.704 E41.72565
G1 X57.518 Y46.138 E41.78789
G1 X57.300 Y46.608 E41.85006
G1 X57.154 Y47.104 E41.91211
G1 X57.087 Y47.561 E41.96753
G1 X57.066 Y47.301 E41.99884
G0 F9000 X56.170 Y45.459
G0 X54.474 Y44.443
G0 X52.924 Y44.392
G1 F1800 X52.421 Y44.530 E42.06143
G1 X51.938 Y44.741 E42.12468
G1 X51.488 Y45.027 E42.18866
G1 X51.120 Y45.341 E42.24671
G1 X50.797 Y45.704 E42.30502
G1 X50.513 Y46.138 E42.36726
G1 X50.295 Y46.608 E42.42943
G1 X50.149 Y47.104 E42.49147
G1 X50.085 Y47.541 E42.54447
G1 X50.020 Y47.077 E42.60070
G1 X49.867 Y46.575 E42.66367
G1 X49.642 Y46.104 E42.72631
G1 X49.374 Y45.701 E42.78439
G1 X49.017 Y45.306 E42.84828
G1 X48.641 Y44.991 E42.90714
G1 X48.164 Y44.704 E42.97394
G1 X47.688 Y44.508 E43.03571
G1 X47.217 Y44.386 E43.09410
G1 X47.011 Y44.363 E43.11897
G1 X53.172 Y44.363 E43.85829
G1 X52.924 Y44.392 E43.88826
G0 F9000 X45.670 Y44.450
G1 F1800 X45.207 Y44.610 E43.94704
G1 X44.745 Y44.848 E44.00940
G1 X44.314 Y45.160 E44.07325
G1 X43.934 Y45.537 E44.13749
G1 X43.643 Y45.917 E44.19492
G1 X43.392 Y46.370 E44.25707
G1 X43.211 Y46.853 E44.31897
G1 X43.103 Y47.331 E44.37777
G1 X43.086 Y47.568 E44.40628
G1 X43.017 Y47.078 E44.46566
G1 X42.875 Y46.606 E44.52481
G1 X42.639 Y46.105 E44.59127
G1 X42.370 Y45.701 E44.64951
G1 X42.014 Y45.306 E44.71332
G1 X41.637 Y44.991 E44.77228
G1 X41.160 Y44.704 E44.83908
G1 X40.684 Y44.508 E44.90085
G1 X40.213 Y44.386 E44.95924
G1 X40.007 Y44.363 E44.98411
G1 X46.123 Y44.363 E45.71803
G1 X45.670 Y44.450 E45.77338
G0 F9000 X38.665 Y44.450
G1 F1800 X38.202 Y44.610 E45.83217
G1 X37.740 Y44.848 E45.89453
G1 X37.309 Y45.160 E45.95838
G1 X36.928 Y45.537 E46.02270
G1 X36.639 Y45.917 E46.07999
G1 X36.387 Y46.370 E46.14219
G1 X36.206 Y46.853 E46.20409
G1 X36.098 Y47.331 E46.26290
G1 X36.081 Y47.568 E46.29141
G1 X36.012 Y47.078 E46.35079
G1 X35.870 Y46.606 E46.40994
G1 X35.634 Y46.105 E46.47639
G1 X35.365 Y45.701 E46.53464
G1 X35.009 Y45.306 E46.59845
G1 X34.632 Y44.991 E46.65740
G1 X34.156 Y44.704 E46.72410
G1 X33.679 Y44.508 E46.78598
G1 X33.208 Y44.386 E46.84437
G1 X33.002 Y44.363 E46.86924
G1 X39.119 Y44.363 E47.60328
G1 X38.665 Y44.450 E47.65875
G0 F9000 X31.660 Y44.450
G1 F1800 X31.198 Y44.610 E47.71742
G1 X30.736 Y44.848 E47.77979
G1 X30.304 Y45.160 E47.84373
G1 X29.923 Y45.537 E47.90805
G1 X29.634 Y45.917 E47.96534
G1 X29.382 Y46.370 E48.02755
G1 X29.201 Y46.854 E48.08956
G1 X29.094 Y47.331 E48.14822
G1 X29.090 Y47.384 E48.15460
G1 X29.090 Y45.178 E48.41932
G1 X29.905 Y44.363 E48.55763
G1 X32.114 Y44.363 E48.82271
G1 X31.660 Y44.450 E48.87818
G0 F9000 X29.924 Y45.537
G0 X29.095 Y47.331
G0 X29.101 Y48.397
G1 F1800 X29.209 Y48.876 E48.93710
G1 X29.398 Y49.363 E48.99979
G1 X29.661 Y49.822 E49.06327
G1 X29.995 Y50.239 E49.12738
G1 X30.348 Y50.572 E49.18561
G1 X30.771 Y50.869 E49.24764
G1 X31.233 Y51.100 E49.30962
G1 X31.722 Y51.261 E49.37140
G1 X32.128 Y51.334 E49.42090
G1 X29.905 Y51.334 E49.68766
G1 X29.090 Y50.518 E49.82606
G1 X29.090 Y48.267 E50.09618
G1 X29.101 Y48.397 E50.11183
G0 F9000 X29.995 Y50.238
G0 X31.723 Y51.260
G0 X33.743 Y51.166
G0 X35.366 Y49.993
G0 X36.086 Y48.108
G0 X36.639 Y45.917
G0 X38.203 Y44.611
G0 X40.213 Y44.388
G0 X42.013 Y45.307
G0 X46.750 Y44.335
G0 X48.640 Y44.991
G0 X53.992 Y44.353
G0 X61.056 Y44.363
G1 F1800 X63.265 Y44.363 E50.37691
G1 X64.080 Y45.178 E50.51522
G1 X64.080 Y47.431 E50.78558
G1 X64.069 Y47.301 E50.80124
G1 X63.961 Y46.822 E50.86016
G1 X63.772 Y46.335 E50.92285
G1 X63.510 Y45.877 E50.98616
G1 X63.176 Y45.458 E51.05046
G1 X62.822 Y45.123 E51.10895
G1 X62.399 Y44.828 E51.17084
G1 X61.940 Y44.598 E51.23244
G1 X61.480 Y44.442 E51.29073
G1 X61.056 Y44.363 E51.34249
G0 F9000 X60.952 Y44.751
;TYPE:WALL-OUTER
G1 F1800 X60.465 Y44.732 E51.40097
G1 X60.006 Y44.786 E51.45643
G1 X59.559 Y44.908 E51.51203
G1 X59.131 Y45.095 E51.56808
G1 X58.732 Y45.350 E51.62490
G1 X58.406 Y45.628 E51.67632
G1 X58.121 Y45.948 E51.72774
G1 X57.869 Y46.333 E51.78296
G1 X57.675 Y46.749 E51.83804
G1 X57.546 Y47.190 E51.89317
G1 X57.483 Y47.619 E51.94521
G1 X57.482 Y48.051 E51.99705
G1 X57.550 Y48.533 E52.05546
G1 X57.675 Y48.947 E52.10735
G1 X57.889 Y49.401 E52.16758
G1 X58.152 Y49.787 E52.22363
G1 X58.439 Y50.103 E52.27486
G1 X58.771 Y50.379 E52.32667
G1 X59.194 Y50.634 E52.38594
G1 X59.618 Y50.808 E52.44094
G1 X60.035 Y50.916 E52.49263
G1 X60.457 Y50.964 E52.54359
G1 X60.499 Y50.965 E52.54863
G1 X60.953 Y50.946 E52.60316
G1 X61.407 Y50.860 E52.65861
G1 X61.814 Y50.718 E52.71034
G1 X62.224 Y50.507 E52.76567
G1 X62.607 Y50.230 E52.82239
G1 X62.946 Y49.894 E52.87967
G1 X63.217 Y49.532 E52.93393
G1 X63.424 Y49.160 E52.98502
G1 X63.585 Y48.730 E53.04012
G1 X63.679 Y48.307 E53.09211
G1 X63.714 Y47.848 E53.14735
G1 X63.673 Y47.362 E53.20588
G1 X63.578 Y46.939 E53.25791
G1 X63.410 Y46.508 E53.31342
G1 X63.178 Y46.102 E53.36953
G1 X62.881 Y45.729 E53.42675
G1 X62.569 Y45.434 E53.47827
G1 X62.194 Y45.173 E53.53310
G1 X61.785 Y44.968 E53.58800
G1 X61.379 Y44.830 E53.63946
G1 X60.952 Y44.751 E53.69156
G0 F9000 X60.963 Y44.451
G0 X63.284 Y44.240
G0 X63.431 Y43.963
G1 F1800 X64.480 Y45.012 E53.86959
G1 X64.480 Y50.684 E54.55023
G1 X63.431 Y51.734 E54.72833
G1 X56.127 Y51.734 E55.60481
G1 X56.127 Y52.338 E55.67729
G1 X57.475 Y54.672 E56.00073
G1 X57.475 Y55.313 E56.07765
G1 X35.695 Y55.313 E58.69125
G1 X35.695 Y54.672 E58.76817
G1 X37.005 Y52.402 E59.08267
G1 X37.043 Y52.339 E59.09150
G1 X37.043 Y51.734 E59.16410
G1 X29.739 Y51.734 E60.04058
G1 X28.690 Y50.684 E60.21869
G1 X28.690 Y45.012 E60.89933
G1 X29.739 Y43.963 E61.07735
G1 X63.431 Y43.963 E65.12039
G0 F9000 X63.284 Y44.240
G0 X59.427 Y44.531
G0 X57.804 Y45.705
G0 X56.685 Y46.400
G0 X56.405 Y46.508
G1 F1800 X56.173 Y46.102 E65.17650
G1 X55.876 Y45.729 E65.23372
G1 X55.564 Y45.435 E65.28516
G1 X55.190 Y45.173 E65.33996
G1 X54.781 Y44.968 E65.39486
G1 X54.374 Y44.830 E65.44643
G1 X53.947 Y44.751 E65.49854
G1 X53.461 Y44.732 E65.55690
G1 X53.001 Y44.786 E65.61248
G1 X52.554 Y44.908 E65.66809
G1 X52.127 Y45.095 E65.72402
G1 X51.727 Y45.350 E65.78095
G1 X51.401 Y45.628 E65.83236
G1 X51.116 Y45.948 E65.88378
G1 X50.864 Y46.333 E65.93900
G1 X50.670 Y46.749 E65.99408
G1 X50.541 Y47.190 E66.04922
G1 X50.478 Y47.619 E66.10125
G1 X50.477 Y48.051 E66.15309
G1 X50.545 Y48.533 E66.21150
G1 X50.670 Y48.947 E66.26340
G1 X50.884 Y49.401 E66.32363
G1 X51.147 Y49.787 E66.37968
G1 X51.434 Y50.103 E66.43090
G1 X51.766 Y50.379 E66.48271
G1 X52.190 Y50.634 E66.54208
G1 X52.613 Y50.808 E66.59697
G1 X53.030 Y50.916 E66.64866
G1 X53.453 Y50.964 E66.69975
G1 X53.495 Y50.965 E66.70479
G1 X53.948 Y50.946 E66.75920
G1 X54.402 Y50.860 E66.81465
G1 X54.810 Y50.718 E66.86649
G1 X55.220 Y50.507 E66.92182
G1 X55.602 Y50.230 E66.97844
G1 X55.941 Y49.894 E67.03572
G1 X56.212 Y49.532 E67.08998
G1 X56.419 Y49.160 E67.14107
G1 X56.580 Y48.730 E67.19617
G1 X56.675 Y48.307 E67.24819
G1 X56.709 Y47.848 E67.30342
G1 X56.669 Y47.362 E67.36194
G1 X56.573 Y46.939 E67.41399
G1 X56.405 Y46.508 E67.46950
G0 F9000 X56.685 Y46.400
G0 X55.394 Y44.830
G0 X53.446 Y44.332
G0 X51.490 Y45.029
G0 X50.296 Y46.609
G0 X49.995 Y47.648
G0 X49.696 Y47.647
G1 F1800 X49.628 Y47.164 E67.52803
G1 X49.493 Y46.720 E67.58372
G1 X49.293 Y46.302 E67.63933
G1 X49.057 Y45.947 E67.69048
G1 X48.739 Y45.595 E67.74741
G1 X48.408 Y45.318 E67.79920
G1 X47.984 Y45.063 E67.85857
G1 X47.561 Y44.889 E67.91346
G1 X47.144 Y44.781 E67.96515
G1 X46.721 Y44.733 E68.01624
G1 X46.679 Y44.732 E68.02128
G1 X46.226 Y44.751 E68.07568
G1 X45.773 Y44.837 E68.13102
G1 X45.365 Y44.979 E68.18286
G1 X44.955 Y45.190 E68.23819
G1 X44.573 Y45.466 E68.29474
G1 X44.235 Y45.802 E68.35193
G1 X43.978 Y46.136 E68.40251
G1 X43.756 Y46.538 E68.45761
G1 X43.595 Y46.968 E68.51271
G1 X43.500 Y47.390 E68.56462
G1 X43.466 Y47.850 E68.61997
G1 X43.506 Y48.336 E68.67849
G1 X43.602 Y48.759 E68.73054
G1 X43.770 Y49.190 E68.78605
G1 X44.002 Y49.596 E68.84216
G1 X44.300 Y49.967 E68.89926
G1 X44.611 Y50.261 E68.95062
G1 X44.985 Y50.524 E69.00549
G1 X45.395 Y50.729 E69.06049
G1 X45.829 Y50.872 E69.11533
G1 X46.253 Y50.948 E69.16702
G1 X46.677 Y50.966 E69.21794
G1 X46.721 Y50.965 E69.22323
G1 X47.173 Y50.911 E69.27785
G1 X47.620 Y50.789 E69.33345
G1 X48.047 Y50.602 E69.38939
G1 X48.447 Y50.347 E69.44632
G1 X48.772 Y50.069 E69.49764
G1 X49.058 Y49.750 E69.54905
G1 X49.310 Y49.364 E69.60437
G1 X49.504 Y48.947 E69.65956
G1 X49.632 Y48.507 E69.71455
G1 X49.695 Y48.079 E69.76646
G1 X49.696 Y47.647 E69.81830
G0 F9000 X49.995 Y47.648
G0 X49.642 Y46.105
G0 X48.163 Y44.706
G0 X46.181 Y44.354
G0 X44.315 Y45.161
G0 X43.212 Y46.853
G0 X42.992 Y47.648
G0 X42.693 Y47.647
G1 F1800 X42.625 Y47.164 E69.87683
G1 X42.500 Y46.749 E69.92884
G1 X42.290 Y46.302 E69.98810
G1 X42.053 Y45.947 E70.03933
G1 X41.736 Y45.595 E70.09617
G1 X41.404 Y45.318 E70.14806
G1 X40.980 Y45.063 E70.20743
G1 X40.557 Y44.889 E70.26232
G1 X40.140 Y44.781 E70.31401
G1 X39.717 Y44.733 E70.36509
G1 X39.675 Y44.732 E70.37013
G1 X39.222 Y44.751 E70.42454
G1 X38.768 Y44.837 E70.47999
G1 X38.360 Y44.979 E70.53183
G1 X37.950 Y45.190 E70.58716
G1 X37.568 Y45.466 E70.64372
G1 X37.229 Y45.802 E70.70099
G1 X36.974 Y46.136 E70.75142
G1 X36.751 Y46.538 E70.80658
G1 X36.590 Y46.968 E70.86168
G1 X36.495 Y47.390 E70.91359
G1 X36.461 Y47.850 E70.96894
G1 X36.501 Y48.336 E71.02746
G1 X36.597 Y48.759 E71.07951
G1 X36.765 Y49.190 E71.13502
G1 X36.997 Y49.596 E71.19113
G1 X37.295 Y49.967 E71.24824
G1 X37.606 Y50.261 E71.29959
G1 X37.980 Y50.524 E71.35446
G1 X38.390 Y50.729 E71.40946
G1 X38.825 Y50.872 E71.46441
G1 X39.249 Y50.948 E71.51610
G1 X39.673 Y50.966 E71.56703
G1 X39.717 Y50.965 E71.57231
G1 X40.169 Y50.911 E71.62694
G1 X40.616 Y50.789 E71.68254
G1 X41.043 Y50.602 E71.73848
G1 X41.443 Y50.347 E71.79540
G1 X41.769 Y50.069 E71.84681
G1 X42.054 Y49.750 E71.89815
G1 X42.306 Y49.364 E71.95346
G1 X42.500 Y48.948 E72.00854
G1 X42.629 Y48.507 E72.06368
G1 X42.692 Y48.079 E72.11560
G1 X42.693 Y47.647 E72.16744
G0 F9000 X42.992 Y47.648
G0 X42.638 Y46.106
G0 X41.159 Y44.706
G0 X39.177 Y44.354
G0 X37.310 Y45.161
G0 X36.207 Y46.853
G0 X35.987 Y47.648
G0 X35.688 Y47.647
G1 F1800 X35.620 Y47.164 E72.22597
G1 X35.495 Y46.749 E72.27798
G1 X35.285 Y46.302 E72.33724
G1 X35.048 Y45.947 E72.38846
G1 X34.731 Y45.595 E72.44531
G1 X34.399 Y45.318 E72.49719
