;FLAVOR:UltiGCode
;TIME:5928
;MATERIAL:14073
;MATERIAL2:0

;Layer count: 87
;LAYER:0
M107
G0 F9000 X47.511 Y12.885 Z0.300
;TYPE:SKIRT
G1 F1800 X52.100 Y12.890 E0.55068
G1 X54.937 Y12.881 E0.89112
G1 X55.916 Y12.871 E1.00861
G1 X56.272 Y12.876 E1.05133
G1 X56.287 Y12.876 E1.05313
G1 X60.781 Y12.940 E1.59247
G1 X60.781 Y23.864 E2.90335
G1 X61.652 Y23.864 E3.00787
G1 X61.720 Y27.658 E3.46322
G1 X61.692 Y28.519 E3.56659
G1 X61.676 Y29.288 E3.65889
G1 X61.657 Y30.093 E3.75552
G1 X61.640 Y30.885 E3.85058
G1 X61.626 Y31.681 E3.94612
G1 X61.596 Y33.272 E4.13707
G1 X61.597 Y33.272 E4.13719
G1 X61.573 Y34.882 E4.33041
G1 X61.562 Y35.685 E4.42678
G1 X61.559 Y36.347 E4.50622
G1 X61.486 Y40.111 E4.95799
G1 X60.489 Y40.111 E5.07763
G1 X60.489 Y50.195 E6.28771
G1 X55.951 Y50.214 E6.83227
G1 X52.787 Y50.214 E7.21195
G1 X52.332 Y50.215 E7.26655
G1 X52.143 Y50.214 E7.28923
G1 X51.859 Y50.214 E7.32331
G1 X51.859 Y50.212 E7.32355
G1 X47.803 Y50.191 E7.81028
G1 X47.803 Y40.111 E9.01988
G1 X46.786 Y40.111 E9.14192
G1 X46.725 Y35.691 E9.67237
G1 X46.711 Y34.768 E9.78314
G1 X46.696 Y33.846 E9.89380
G1 X46.682 Y32.919 E10.00505
G1 X46.683 Y32.919 E10.00517
G1 X46.667 Y32.002 E10.11523
G1 X46.650 Y31.074 E10.22661
G1 X46.639 Y30.464 E10.29982
G1 X46.626 Y29.890 E10.36872
G1 X46.610 Y29.229 E10.44806
G1 X46.588 Y28.273 E10.56281
G1 X46.522 Y23.864 E11.09195
G1 X47.511 Y23.864 E11.21063
G1 X47.511 Y12.885 E12.52811
G0 F9000 X47.911 Y13.286
G1 F1800 X52.100 Y13.290 E13.03079
G1 X55.012 Y13.280 E13.38023
G1 X55.915 Y13.271 E13.48860
G1 X60.381 Y13.334 E14.02457
G1 X60.381 Y24.264 E15.33617
G1 X61.259 Y24.264 E15.44153
G1 X61.320 Y27.655 E15.84852
G1 X61.292 Y28.506 E15.95069
G1 X61.276 Y29.279 E16.04347
G1 X61.257 Y30.084 E16.14010
G1 X61.240 Y30.865 E16.23384
G1 X61.241 Y30.865 E16.23396
G1 X61.226 Y31.674 E16.33106
G1 X61.196 Y33.267 E16.52225
G1 X61.197 Y33.267 E16.52237
G1 X61.173 Y34.877 E16.71559
G1 X61.162 Y35.680 E16.81196
G1 X61.159 Y36.342 E16.89140
G1 X61.094 Y39.711 E17.29576
G1 X60.089 Y39.711 E17.41636
G1 X60.089 Y49.796 E18.62656
G1 X55.950 Y49.814 E19.12324
G1 X52.794 Y49.814 E19.50196
G1 X52.333 Y49.815 E19.55728
G1 X48.203 Y49.793 E20.05289
G1 X48.203 Y39.711 E21.26273
G1 X47.181 Y39.711 E21.38537
G1 X47.125 Y35.685 E21.86854
G1 X47.111 Y34.762 E21.97931
G1 X47.096 Y33.840 E22.08996
G1 X47.082 Y32.913 E22.20122
G1 X47.066 Y31.995 E22.31139
G1 X47.067 Y31.995 E22.31151
G1 X47.049 Y31.067 E22.42289
G1 X47.039 Y30.458 E22.49598
G1 X47.026 Y29.881 E22.56524
G1 X47.010 Y29.219 E22.64470
G1 X46.988 Y28.265 E22.75921
G1 X46.928 Y24.264 E23.23939
G1 X47.911 Y24.264 E23.35735
G1 X47.911 Y13.286 E24.67471
G10
G0 F9000 X51.711 Y17.090
;TYPE:WALL-INNER
G11
G1 F1800 X52.087 Y17.090 E24.71983
G1 X52.087 Y28.064 E26.03671
G1 X56.205 Y28.064 E26.53087
G1 X56.205 Y17.075 E27.84955
G1 X56.581 Y17.081 E27.89467
G1 X56.581 Y28.064 E29.21263
G1 X57.504 Y28.064 E29.32339
G1 X57.477 Y29.193 E29.45891
G1 X57.458 Y29.995 E29.55518
G1 X57.441 Y30.797 E29.65144
G1 X57.397 Y33.209 E29.94093
G1 X57.362 Y35.630 E30.23148
G1 X57.361 Y35.911 E30.26520
G1 X56.289 Y35.911 E30.39384
G1 X56.289 Y46.013 E31.60608
G1 X56.059 Y46.013 E31.63368
G1 X56.059 Y35.912 E32.84580
G1 X55.113 Y35.915 E32.95932
G1 X53.256 Y35.914 E33.18216
G1 X52.215 Y35.916 E33.30708
G1 X52.215 Y46.014 E34.51884
G1 X52.003 Y46.013 E34.54428
G1 X52.003 Y35.911 E35.75652
G1 X50.928 Y35.911 E35.88552
G1 X50.911 Y34.705 E36.03026
G1 X50.866 Y31.930 E36.36330
G1 X50.849 Y31.000 E36.47492
G1 X50.839 Y30.393 E36.54777
G1 X50.787 Y28.190 E36.81220
G1 X50.785 Y28.064 E36.82732
G1 X51.711 Y28.064 E36.93844
G1 X51.711 Y17.090 E38.25532
G0 F9000 X51.311 Y16.689
;TYPE:WALL-OUTER
G1 F1800 X52.487 Y16.688 E38.39644
G1 X52.487 Y27.664 E39.71356
G1 X55.805 Y27.664 E40.11172
G1 X55.805 Y16.672 E41.43076
G1 X55.907 Y16.671 E41.44300
G1 X56.981 Y16.686 E41.57190
G1 X56.981 Y27.664 E42.88926
G1 X57.918 Y27.664 E43.00170
G1 X57.894 Y28.397 E43.08970
G1 X57.797 Y33.215 E43.66798
G1 X57.762 Y35.634 E43.95829
G1 X57.759 Y36.300 E44.03821
G1 X57.759 Y36.311 E44.03953
G1 X56.689 Y36.311 E44.16793
G1 X56.689 Y46.411 E45.37993
G1 X55.659 Y46.413 E45.50353
G1 X55.659 Y36.313 E46.71553
G1 X52.615 Y36.316 E47.08081
G1 X52.616 Y46.414 E48.29257
G1 X52.339 Y46.415 E48.32581
G1 X51.603 Y46.411 E48.41413
G1 X51.603 Y36.311 E49.62613
G1 X50.534 Y36.311 E49.75441
G1 X50.439 Y30.401 E50.46371
G1 X50.387 Y28.199 E50.72802
G1 X50.379 Y27.664 E50.79223
G1 X51.311 Y27.664 E50.90407
G1 X51.311 Y16.689 E52.22107
G0 F9000 X51.611 Y16.899
G0 X51.652 Y28.005
G0 X51.113 Y28.203
;TYPE:SKIN
G1 F1800 X57.245 Y34.334 E53.26162
G0 F9000 X57.255 Y33.779
G1 F1800 X51.679 Y28.203 E54.20790
G0 F9000 X52.245 Y28.203
G1 F1800 X57.266 Y33.224 E55.05999
G0 F9000 X57.276 Y32.669
G1 F1800 X52.810 Y28.203 E55.81789
G0 F9000 X53.376 Y28.203
G1 F1800 X57.286 Y32.113 E56.48144
G0 F9000 X57.296 Y31.558
G1 F1800 X53.942 Y28.203 E57.05072
G0 F9000 X54.508 Y28.203
G1 F1800 X57.307 Y31.003 E57.52581
G0 F9000 X57.318 Y30.448
G1 F1800 X55.073 Y28.203 E57.90680
G0 F9000 X55.639 Y28.203
G1 F1800 X57.327 Y29.892 E58.19335
G0 F9000 X57.338 Y29.337
G1 F1800 X56.205 Y28.203 E58.38571
G0 F9000 X56.770 Y28.203
G1 F1800 X57.348 Y28.781 E58.48380
G0 F9000 X57.235 Y34.890
G1 F1800 X50.933 Y28.589 E59.55320
G0 F9000 X50.944 Y29.165
G1 F1800 X57.224 Y35.445 E60.61895
G0 F9000 X56.983 Y35.770
G1 F1800 X50.954 Y29.741 E61.64210
G0 F9000 X50.965 Y30.317
G1 F1800 X56.418 Y35.771 E62.56759
G0 F9000 X55.853 Y35.771
G1 F1800 X50.976 Y30.894 E63.39525
G0 F9000 X50.986 Y31.470
G1 F1800 X55.288 Y35.772 E64.12532
G0 F9000 X54.723 Y35.773
G1 F1800 X50.997 Y32.046 E64.75773
G0 F9000 X51.007 Y32.623
G1 F1800 X54.158 Y35.773 E65.29239
G0 F9000 X53.593 Y35.774
G1 F1800 X51.018 Y33.199 E65.72938
G0 F9000 X51.029 Y33.775
G1 F1800 X53.028 Y35.775 E66.06871
G0 F9000 X52.463 Y35.776
G1 F1800 X51.039 Y34.351 E66.31045
G0 F9000 X51.050 Y34.928
G1 F1800 X51.893 Y35.771 E66.45351
G0 F9000 X51.327 Y35.771
G1 F1800 X51.060 Y35.504 E66.49883
;LAYER:1
M106 S255
G0 F9000 X50.625 Y35.141 Z0.500
;TYPE:WALL-INNER
G1 F2520 X50.605 Y34.249 E66.57020
G1 X50.583 Y33.357 E66.64159
G1 X50.569 Y32.826 E66.68408
G1 X50.542 Y31.881 E66.75971
G1 X50.473 Y29.783 E66.92764
G1 X50.399 Y28.064 E67.06529
G1 X51.711 Y28.064 E67.17025
G1 X51.711 Y16.405 E68.10297
G1 X52.087 Y16.405 E68.13305
G1 X52.087 Y28.064 E69.06577
G1 X56.205 Y28.064 E69.39521
G1 X56.205 Y16.394 E70.32881
G1 X56.581 Y16.398 E70.35889
G1 X56.581 Y28.064 E71.29217
G1 X57.884 Y28.064 E71.39641
G1 X57.866 Y28.565 E71.43652
G1 X57.833 Y29.394 E71.50289
G1 X57.802 Y30.224 E71.56934
G1 X57.774 Y31.054 E71.63577
G1 X57.704 Y33.537 E71.83449
G1 X57.669 Y35.191 E71.96684
G1 X57.655 Y35.911 E72.02445
G1 X56.289 Y35.911 E72.13373
G1 X56.289 Y46.696 E72.99653
G1 X56.059 Y46.697 E73.01493
G1 X56.059 Y35.913 E73.87765
G1 X54.770 Y35.915 E73.98077
G1 X53.699 Y35.914 E74.06645
G1 X52.216 Y35.916 E74.18509
G1 X52.217 Y46.698 E75.04765
G1 X52.003 Y46.697 E75.06477
G1 X52.003 Y35.911 E75.92765
G1 X50.639 Y35.911 E76.03677
G1 X50.625 Y35.141 E76.09838
G0 F9000 X51.944 Y35.970
G0 X51.903 Y36.311
G0 X51.603 Y36.311
;TYPE:WALL-OUTER
G1 F1920 X50.247 Y36.311 E76.20686
G1 X50.183 Y33.367 E76.44244
G1 X50.142 Y31.893 E76.56040
G1 X50.073 Y29.798 E76.72810
G1 X49.999 Y28.058 E76.86742
G1 X49.986 Y27.664 E76.89896
G1 X51.311 Y27.664 E77.00496
G1 X51.311 Y16.005 E77.93768
G1 X52.487 Y16.005 E78.03176
G1 X52.487 Y27.664 E78.96448
G1 X55.805 Y27.664 E79.22992
G1 X55.805 Y15.990 E80.16384
G1 X56.981 Y16.002 E80.25792
G1 X56.981 Y27.664 E81.19088
G1 X58.303 Y27.664 E81.29664
G1 X58.174 Y31.067 E81.56908
G1 X58.104 Y33.547 E81.76756
G1 X58.046 Y36.311 E81.98873
G1 X56.689 Y36.311 E82.09729
G1 X56.689 Y47.095 E82.96001
G1 X55.659 Y47.097 E83.04241
G1 X55.659 Y36.314 E83.90505
G1 X52.616 Y36.315 E84.14849
G1 X52.617 Y47.099 E85.01121
G1 X51.603 Y47.095 E85.09233
G1 X51.603 Y36.311 E85.95505
G0 F9000 X51.627 Y35.771
;TYPE:SKIN
G1 F1740 X57.692 Y29.705 E86.64128
G0 F9000 X57.675 Y30.288
G1 F1740 X52.188 Y35.776 E87.26212
G0 F9000 X52.753 Y35.776
G1 F1740 X57.658 Y30.870 E87.81711
G0 F9000 X57.641 Y31.453
G1 F1740 X53.320 Y35.775 E88.30604
G0 F9000 X53.886 Y35.774
G1 F1740 X57.624 Y32.036 E88.72894
G0 F9000 X57.607 Y32.618
G1 F1740 X54.452 Y35.774 E89.08595
G0 F9000 X55.018 Y35.773
G1 F1740 X57.591 Y33.201 E89.37699
G0 F9000 X57.574 Y33.784
G1 F1740 X55.584 Y35.773 E89.60208
G0 F9000 X56.152 Y35.771
G1 F1740 X57.557 Y34.366 E89.76104
G0 F9000 X57.539 Y34.950
G1 F1740 X56.718 Y35.771 E89.85392
G0 F9000 X57.284 Y35.771
G1 F1740 X57.522 Y35.532 E89.88090
G0 F9000 X57.710 Y29.122
G1 F1740 X51.061 Y35.771 E90.63315
G0 F9000 X50.768 Y35.498
G1 F1740 X57.727 Y28.539 E91.42047
G0 F9000 X57.497 Y28.203
G1 F1740 X50.753 Y34.948 E92.18353
G0 F9000 X50.738 Y34.397
G1 F1740 X56.931 Y28.203 E92.88424
G0 F9000 X56.366 Y28.203
G1 F1740 X50.722 Y33.847 E93.52279
G0 F9000 X50.708 Y33.296
G1 F1740 X55.800 Y28.203 E94.09894
G0 F9000 X55.234 Y28.203
G1 F1740 X50.693 Y32.745 E94.61275
G0 F9000 X50.678 Y32.194
G1 F1740 X54.669 Y28.203 E95.06428
G0 F9000 X54.103 Y28.203
G1 F1740 X50.662 Y31.644 E95.45358
G0 F9000 X50.647 Y31.093
G1 F1740 X53.537 Y28.203 E95.78055
G0 F9000 X52.972 Y28.203
G1 F1740 X50.633 Y30.542 E96.04518
G0 F9000 X50.618 Y29.991
G1 F1740 X52.406 Y28.203 E96.24747
G0 F9000 X51.840 Y28.203
G1 F1740 X50.597 Y29.446 E96.38810
G0 F9000 X50.574 Y28.904
G1 F1740 X51.275 Y28.203 E96.46741
G0 F9000 X50.709 Y28.203
G1 F1740 X50.551 Y28.362 E96.48534
;LAYER:2
G0 F9000 X50.165 Y28.880 Z0.700
;TYPE:WALL-INNER
G1 F3300 X50.117 Y28.064 E96.55073
G1 X51.711 Y28.064 E96.67825
G1 X51.711 Y15.904 E97.65105
G1 X52.087 Y15.904 E97.68113
G1 X52.087 Y28.064 E98.65393
G1 X56.205 Y28.064 E98.98337
G1 X56.205 Y15.893 E99.95705
G1 X56.581 Y15.897 E99.98713
G1 X56.581 Y28.064 E100.96049
G1 X58.175 Y28.064 E101.08801
G1 X58.115 Y29.068 E101.16848
G1 X58.073 Y29.852 E101.23129
G1 X58.036 Y30.636 E101.29408
G1 X58.002 Y31.420 E101.35685
G1 X57.969 Y32.204 E101.41963
G1 X57.941 Y32.993 E101.48279
G1 X57.900 Y34.361 E101.59228
G1 X57.878 Y35.188 E101.65846
G1 X57.862 Y35.911 E101.71632
G1 X56.289 Y35.911 E101.84216
G1 X56.289 Y47.198 E102.74512
G1 X56.059 Y47.199 E102.76352
G1 X56.059 Y35.913 E103.66640
G1 X54.765 Y35.915 E103.76992
G1 X54.141 Y35.914 E103.81984
G1 X52.218 Y35.916 E103.97368
G1 X52.218 Y47.199 E104.87632
G1 X52.003 Y47.199 E104.89352
G1 X52.003 Y35.911 E105.79656
G1 X50.430 Y35.911 E105.92240
G1 X50.411 Y35.138 E105.98426
G1 X50.387 Y34.246 E106.05564
G1 X50.360 Y33.352 E106.12719
G1 X50.329 Y32.459 E106.19868
G1 X50.295 Y31.565 E106.27025
G1 X50.227 Y30.017 E106.39421
G1 X50.196 Y29.495 E106.43604
G1 X50.165 Y28.880 E106.48530
G0 F9000 X49.766 Y28.902
;TYPE:WALL-OUTER
G1 F2100 X49.713 Y28.007 E106.55703
G1 X49.690 Y27.664 E106.58453
G1 X51.311 Y27.664 E106.71421
G1 X51.311 Y15.503 E107.68709
G1 X52.487 Y15.503 E107.78117
G1 X52.487 Y27.664 E108.75405
G1 X55.805 Y27.664 E109.01949
G1 X55.805 Y15.489 E109.99349
G1 X56.981 Y15.501 E110.08758
G1 X56.981 Y27.664 E111.06062
G1 X58.602 Y27.664 E111.19030
G1 X58.559 Y28.315 E111.24249
G1 X58.472 Y29.871 E111.36716
G1 X58.401 Y31.436 E111.49249
G1 X58.369 Y32.219 E111.55519
G1 X58.341 Y33.006 E111.61819
G1 X58.278 Y35.198 E111.79362
G1 X58.252 Y36.311 E111.88268
G1 X56.689 Y36.311 E112.00772
G1 X56.689 Y47.597 E112.91060
G1 X55.927 Y47.599 E112.97156
G1 X55.659 Y47.598 E112.99300
G1 X55.659 Y36.314 E113.89572
G1 X52.618 Y36.315 E114.13900
G1 X52.618 Y47.598 E115.04164
G1 X52.356 Y47.600 E115.06260
G1 X51.603 Y47.597 E115.12284
G1 X51.603 Y36.311 E116.02572
G1 X50.040 Y36.311 E116.15076
G1 X49.960 Y33.366 E116.38645
G1 X49.895 Y31.582 E116.52926
G1 X49.828 Y30.038 E116.65290
G1 X49.797 Y29.519 E116.69450
G1 X49.766 Y28.902 E116.74392
G0 F9000 X50.309 Y29.096
;TYPE:SKIN
G1 F1800 X56.984 Y35.771 E117.49911
G0 F9000 X56.418 Y35.771
G1 F1800 X50.340 Y29.692 E118.18681
G0 F9000 X50.370 Y30.288
G1 F1800 X55.854 Y35.772 E118.80726
G0 F9000 X55.289 Y35.773
G1 F1800 X50.399 Y30.883 E119.36050
G0 F9000 X50.430 Y31.479
G1 F1800 X54.723 Y35.773 E119.84625
G0 F9000 X54.158 Y35.773
G1 F1800 X50.449 Y32.065 E120.26582
G0 F9000 X50.468 Y32.649
G1 F1800 X53.593 Y35.774 E120.61937
G0 F9000 X53.028 Y35.774
G1 F1800 X50.486 Y33.233 E120.90691
G0 F9000 X50.505 Y33.817
G1 F1800 X52.463 Y35.775 E121.12843
G0 F9000 X51.893 Y35.771
G1 F1800 X50.523 Y34.401 E121.28343
G0 F9000 X50.541 Y34.985
G1 F1800 X51.327 Y35.771 E121.37236
G0 F9000 X50.761 Y35.771
G1 F1800 X50.560 Y35.569 E121.39515
G0 F9000 X57.550 Y35.771
G1 F1800 X50.280 Y28.501 E122.21766
G0 F9000 X50.548 Y28.203
G1 F1800 X57.733 Y35.388 E123.03055
G0 F9000 X57.749 Y34.839
G1 F1800 X51.113 Y28.203 E123.78133
G0 F9000 X51.679 Y28.203
G1 F1800 X57.767 Y34.291 E124.47011
G0 F9000 X57.784 Y33.743
G1 F1800 X52.245 Y28.203 E125.09683
G0 F9000 X52.810 Y28.203
G1 F1800 X57.803 Y33.195 E125.66167
G0 F9000 X57.820 Y32.647
G1 F1800 X53.376 Y28.203 E126.16445
G0 F9000 X53.942 Y28.203
G1 F1800 X57.839 Y32.100 E126.60534
G0 F9000 X57.856 Y31.552
G1 F1800 X54.508 Y28.203 E126.98418
G0 F9000 X55.073 Y28.203
G1 F1800 X57.882 Y31.012 E127.30198
G0 F9000 X57.909 Y30.474
G1 F1800 X55.639 Y28.203 E127.55886
G0 F9000 X56.205 Y28.203
G1 F1800 X57.936 Y29.935 E127.75476
G0 F9000 X57.964 Y29.397
G1 F1800 X56.770 Y28.203 E127.88984
G0 F9000 X57.336 Y28.203
G1 F1800 X57.991 Y28.859 E127.96401
G0 F9000 X58.019 Y28.321
G1 F1800 X57.902 Y28.203 E127.97730
;LAYER:3
G0 F9000 X58.200 Y28.203 Z0.900
;TYPE:FILL
G1 F4920 X54.889 Y31.515 E128.35195
G0 F9000 X53.398 Y31.390
G1 F4920 X50.353 Y34.435 E128.69645
G0 F9000 X50.633 Y35.771
G1 F4920 X53.398 Y33.005 E129.00934
G0 F9000 X54.888 Y33.130
G1 F4920 X58.147 Y29.871 E129.37805
G0 F9000 X58.052 Y31.581
G1 F4920 X54.887 Y34.747 E129.73618
G0 F9000 X55.475 Y35.773
G1 F4920 X57.974 Y33.275 E130.01886
G0 F9000 X57.917 Y34.946
G1 F4920 X57.093 Y35.771 E130.11214
G0 F9000 X53.398 Y34.620
G1 F4920 X52.363 Y35.655 E130.22924
G0 F9000 X50.294 Y32.879
G1 F4920 X53.398 Y29.775 E130.58041
G0 F9000 X54.889 Y29.899
G1 F4920 X56.584 Y28.205 E130.77212
G0 F9000 X54.967 Y28.206
G1 F4920 X54.890 Y28.283 E130.78084
G0 F9000 X53.355 Y28.203
G1 F4920 X50.218 Y31.340 E131.13575
G0 F9000 X50.141 Y29.802
G1 F4920 X51.740 Y28.203 E131.31665
G0 F9000 X50.125 Y28.203
G1 F4920 X50.037 Y28.291 E131.32661
G0 F9000 X49.939 Y28.872
;TYPE:WALL-INNER
G1 F4020 X49.881 Y28.064 E131.39142
G1 X51.711 Y28.064 E131.53782
G1 X51.711 Y15.486 E132.54406
G1 X52.087 Y15.486 E132.57414
G1 X52.087 Y28.064 E133.58038
G1 X53.429 Y28.064 E133.68774
G1 X54.145 Y28.081 E133.74503
G1 X54.787 Y28.068 E133.79640
G1 X55.441 Y28.064 E133.84872
G1 X56.205 Y28.064 E133.90984
G1 X56.205 Y15.478 E134.91672
G1 X56.581 Y15.481 E134.94680
G1 X56.581 Y28.064 E135.95344
G1 X58.409 Y28.064 E136.09968
G1 X58.336 Y29.056 E136.17926
G1 X58.285 Y29.838 E136.24195
G1 X58.239 Y30.623 E136.30486
G1 X58.197 Y31.407 E136.36767
G1 X58.159 Y32.196 E136.43086
G1 X58.104 Y33.530 E136.53767
G1 X58.075 Y34.358 E136.60395
G1 X58.049 Y35.186 E136.67023
G1 X58.030 Y35.911 E136.72825
G1 X56.289 Y35.911 E136.86753
G1 X56.289 Y47.614 E137.80377
G1 X56.059 Y47.614 E137.82217
G1 X56.059 Y35.913 E138.75825
G1 X54.964 Y35.915 E138.84585
G1 X54.398 Y35.898 E138.89115
G1 X54.121 Y35.896 E138.91331
G1 X53.448 Y35.914 E138.96717
G1 X52.219 Y35.916 E139.06549
G1 X52.219 Y47.614 E140.00133
G1 X52.003 Y47.615 E140.01861
G1 X52.003 Y35.911 E140.95493
G1 X50.262 Y35.911 E141.09421
G1 X50.245 Y35.279 E141.14479
G1 X50.215 Y34.339 E141.22002
G1 X50.179 Y33.392 E141.29584
G1 X50.144 Y32.592 E141.35990
G1 X50.096 Y31.560 E141.44255
G1 X50.009 Y29.923 E141.57369
G1 X49.939 Y28.872 E141.65796
G0 F9000 X49.475 Y28.005
;TYPE:WALL-OUTER
G1 F2220 X49.447 Y27.664 E141.68533
G1 X51.311 Y27.664 E141.83445
G1 X51.311 Y15.087 E142.84061
G1 X52.487 Y15.087 E142.93469
G1 X52.487 Y27.664 E143.94085
G1 X53.439 Y27.664 E144.01701
G1 X54.146 Y27.681 E144.07359
G1 X54.779 Y27.668 E144.12424
G1 X55.438 Y27.664 E144.17696
G1 X55.805 Y27.664 E144.20632
G1 X55.805 Y15.082 E145.21288
G1 X56.244 Y15.078 E145.24800
