;FLAVOR:UltiGCode
;TIME:6495
;MATERIAL:14735
;MATERIAL2:0

;Layer count: 198
;LAYER:0
M107
G0 F9000 X20.023 Y32.667 Z0.300
;TYPE:SKIRT
G1 F1800 X64.127 Y32.667 E5.29248
G1 X67.654 Y36.194 E5.89103
G1 X67.654 Y46.265 E7.09955
G1 X64.127 Y49.792 E7.69810
G1 X59.145 Y49.792 E8.29594
G1 X59.145 Y54.139 E8.81758
G1 X25.005 Y54.139 E12.91438
G1 X25.005 Y49.792 E13.43602
G1 X20.023 Y49.792 E14.03386
G1 X16.496 Y46.265 E14.63242
G1 X16.496 Y36.194 E15.84094
G1 X20.023 Y32.667 E16.43949
G0 F9000 X20.189 Y33.067
G1 F1800 X63.961 Y33.067 E21.69213
G1 X67.254 Y36.360 E22.25097
G1 X67.254 Y46.099 E23.41965
G1 X63.961 Y49.392 E23.97849
G1 X58.745 Y49.392 E24.60441
G1 X58.745 Y53.739 E25.12605
G1 X25.405 Y53.739 E29.12685
G1 X25.405 Y49.392 E29.64849
G1 X20.189 Y49.392 E30.27441
G1 X16.896 Y46.099 E30.83325
G1 X16.896 Y36.360 E32.00193
G1 X20.189 Y33.067 E32.56077
G10
G0 F9000 X21.741 Y37.084
;TYPE:FILL
G11
G1 F1800 X22.478 Y37.821 E32.68584
G0 F9000 X21.667 Y38.625
G1 F1800 X20.933 Y37.891 E32.81041
G0 F9000 X20.836 Y39.409
G1 F1800 X21.084 Y39.657 E32.85249
G0 F9000 X22.388 Y38.061
G0 X23.511 Y37.239
G1 F1800 X23.278 Y37.006 E32.89203
G0 F9000 X21.300 Y39.484
G0 X20.958 Y41.838
G0 X20.835 Y42.638
G1 F1800 X21.139 Y42.942 E32.94363
G0 F9000 X20.835 Y44.253
G1 F1800 X22.033 Y45.451 E33.14693
G0 F9000 X23.350 Y45.153
G1 F1800 X23.648 Y45.451 E33.19751
G0 F9000 X60.580 Y45.237
G1 F1800 X60.794 Y45.452 E33.23391
G0 F9000 X61.627 Y44.669
G1 F1800 X62.370 Y45.412 E33.36000
G0 F9000 X63.177 Y44.605
G1 F1800 X62.447 Y43.874 E33.48397
G0 F9000 X63.313 Y43.125
G1 F1800 X63.044 Y42.856 E33.52962
G0 F9000 X63.312 Y39.894
G1 F1800 X63.057 Y39.639 E33.57289
G0 F9000 X63.312 Y38.279
G1 F1800 X62.040 Y37.007 E33.78876
G0 F9000 X60.666 Y37.248
G1 F1800 X60.425 Y37.007 E33.82966
G0 F9000 X60.135 Y37.217
;TYPE:WALL-INNER
G1 F1800 X59.562 Y37.110 E33.89961
G1 X58.985 Y37.087 E33.96890
G1 X58.912 Y37.087 E33.97766
G1 X58.313 Y37.157 E34.05003
G1 X57.721 Y37.317 E34.12362
G1 X57.154 Y37.564 E34.19784
G1 X56.627 Y37.898 E34.27271
G1 X56.188 Y38.271 E34.34183
G1 X55.804 Y38.702 E34.41110
G1 X55.468 Y39.212 E34.48439
G1 X55.211 Y39.766 E34.55768
G1 X55.039 Y40.349 E34.63062
G1 X54.955 Y40.925 E34.70047
G1 X54.954 Y41.505 E34.77007
G1 X55.038 Y42.108 E34.84313
G1 X55.210 Y42.694 E34.91642
G1 X55.469 Y43.248 E34.98980
G1 X55.805 Y43.759 E35.06319
G1 X56.223 Y44.223 E35.13813
G1 X56.669 Y44.595 E35.20783
G1 X57.193 Y44.915 E35.28150
G1 X57.754 Y45.153 E35.35463
G1 X58.345 Y45.308 E35.42795
G1 X58.902 Y45.369 E35.49519
G1 X58.974 Y45.371 E35.50383
G1 X59.564 Y45.348 E35.57469
G1 X60.165 Y45.233 E35.64811
G1 X60.713 Y45.044 E35.71768
G1 X61.257 Y44.765 E35.79104
G1 X61.763 Y44.399 E35.86598
G1 X62.211 Y43.957 E35.94150
G1 X62.572 Y43.478 E36.01348
G1 X62.851 Y42.974 E36.08261
G1 X63.065 Y42.407 E36.15533
G1 X63.193 Y41.838 E36.22532
G1 X63.238 Y41.230 E36.29848
G1 X63.193 Y40.621 E36.37176
G1 X63.057 Y40.022 E36.44546
G1 X62.835 Y39.450 E36.51909
G1 X62.529 Y38.913 E36.59326
G1 X62.140 Y38.422 E36.66843
G1 X61.720 Y38.024 E36.73787
G1 X61.223 Y37.675 E36.81074
G1 X60.682 Y37.402 E36.88346
G1 X60.135 Y37.217 E36.95275
G0 F9000 X62.388 Y36.867
G1 F1800 X63.454 Y37.933 E37.13366
G1 X63.454 Y44.526 E37.92482
G1 X62.388 Y45.592 E38.10572
G1 X53.308 Y45.592 E39.19532
G1 X53.308 Y46.778 E39.33764
G1 X54.945 Y49.614 E39.73059
G1 X54.945 Y49.939 E39.76959
G1 X29.205 Y49.939 E42.85839
G1 X29.205 Y49.614 E42.89739
G1 X30.753 Y46.932 E43.26899
G1 X30.842 Y46.783 E43.28982
G1 X30.842 Y45.592 E43.43274
G1 X21.762 Y45.592 E44.52234
G1 X20.696 Y44.526 E44.70324
G1 X20.696 Y37.933 E45.49440
G1 X21.762 Y36.867 E45.67531
G1 X62.388 Y36.867 E50.55043
G0 F9000 X57.721 Y37.319
G0 X55.805 Y38.703
G0 X54.549 Y40.022
G1 F1800 X54.327 Y39.450 E50.62406
G1 X54.021 Y38.913 E50.69823
G1 X53.632 Y38.422 E50.77340
G1 X53.212 Y38.024 E50.84283
G1 X52.715 Y37.675 E50.91571
G1 X52.174 Y37.402 E50.98842
G1 X51.627 Y37.217 E51.05772
G1 X51.054 Y37.110 E51.12767
G1 X50.477 Y37.087 E51.19696
G1 X50.404 Y37.087 E51.20572
G1 X49.805 Y37.157 E51.27809
G1 X49.213 Y37.317 E51.35168
G1 X48.646 Y37.564 E51.42589
G1 X48.119 Y37.898 E51.50077
G1 X47.680 Y38.271 E51.56989
G1 X47.296 Y38.702 E51.63916
G1 X46.960 Y39.212 E51.71245
G1 X46.703 Y39.766 E51.78574
G1 X46.531 Y40.349 E51.85868
G1 X46.447 Y40.925 E51.92853
G1 X46.446 Y41.505 E51.99813
G1 X46.530 Y42.108 E52.07119
G1 X46.702 Y42.694 E52.14447
G1 X46.961 Y43.248 E52.21786
G1 X47.297 Y43.759 E52.29125
G1 X47.715 Y44.223 E52.36619
G1 X48.161 Y44.595 E52.43588
G1 X48.685 Y44.915 E52.50956
G1 X49.246 Y45.153 E52.58269
G1 X49.837 Y45.308 E52.65601
G1 X50.394 Y45.369 E52.72325
G1 X50.466 Y45.371 E52.73189
G1 X51.056 Y45.348 E52.80274
G1 X51.657 Y45.233 E52.87617
G1 X52.205 Y45.044 E52.94573
G1 X52.749 Y44.765 E53.01910
G1 X53.255 Y44.399 E53.09404
G1 X53.703 Y43.957 E53.16956
G1 X54.064 Y43.478 E53.24154
G1 X54.343 Y42.974 E53.31066
G1 X54.557 Y42.407 E53.38339
G1 X54.685 Y41.838 E53.45338
G1 X54.730 Y41.230 E53.52653
G1 X54.685 Y40.621 E53.59981
G1 X54.549 Y40.022 E53.67352
G0 F9000 X53.211 Y38.026
G0 X51.054 Y37.111
G0 X48.647 Y37.566
G0 X46.962 Y39.213
G0 X46.211 Y40.955
G1 F1800 X46.127 Y40.352 E53.74658
G1 X45.961 Y39.788 E53.81713
G1 X45.933 Y39.714 E53.82663
G1 X45.678 Y39.179 E53.89775
G1 X45.360 Y38.700 E53.96674
G1 X44.942 Y38.235 E54.04177
G1 X44.496 Y37.864 E54.11139
G1 X43.972 Y37.543 E54.18513
G1 X43.411 Y37.305 E54.25826
G1 X42.821 Y37.152 E54.33140
G1 X42.263 Y37.089 E54.39878
G1 X42.191 Y37.087 E54.40743
G1 X41.602 Y37.110 E54.47816
G1 X41.001 Y37.225 E54.55159
G1 X40.452 Y37.414 E54.62126
G1 X39.909 Y37.694 E54.69458
G1 X39.404 Y38.059 E54.76935
G1 X38.957 Y38.499 E54.84461
G1 X38.611 Y38.952 E54.91302
G1 X38.315 Y39.484 E54.98607
G1 X38.101 Y40.053 E55.05902
G1 X37.973 Y40.622 E55.12901
G1 X37.928 Y41.230 E55.20217
G1 X37.973 Y41.839 E55.27545
G1 X38.109 Y42.437 E55.34904
G1 X38.331 Y43.009 E55.42267
G1 X38.638 Y43.547 E55.49700
G1 X39.026 Y44.036 E55.57191
G1 X39.446 Y44.434 E55.64134
G1 X39.943 Y44.784 E55.71429
G1 X40.486 Y45.057 E55.78722
G1 X41.062 Y45.247 E55.86000
G1 X41.631 Y45.350 E55.92939
G1 X42.190 Y45.372 E55.99652
G1 X42.264 Y45.370 E56.00541
G1 X42.851 Y45.302 E56.07632
G1 X43.445 Y45.142 E56.15014
G1 X44.011 Y44.893 E56.22434
G1 X44.538 Y44.561 E56.29908
G1 X44.977 Y44.188 E56.36821
G1 X45.361 Y43.757 E56.43748
G1 X45.696 Y43.248 E56.51060
G1 X45.954 Y42.694 E56.58394
G1 X46.126 Y42.111 E56.65688
G1 X46.210 Y41.535 E56.72673
G1 X46.211 Y40.955 E56.79633
G0 F9000 X45.359 Y38.700
G0 X43.410 Y37.306
G0 X41.002 Y37.225
G0 X38.958 Y38.500
G0 X37.974 Y40.622
G0 X37.704 Y40.955
G1 F1800 X37.620 Y40.352 E56.86939
G1 X37.454 Y39.788 E56.93994
G1 X37.426 Y39.714 E56.94944
G1 X37.171 Y39.179 E57.02056
G1 X36.853 Y38.700 E57.08955
G1 X36.435 Y38.235 E57.16458
G1 X35.989 Y37.864 E57.23420
G1 X35.465 Y37.543 E57.30794
G1 X34.904 Y37.305 E57.38106
G1 X34.314 Y37.152 E57.45421
G1 X33.756 Y37.089 E57.52159
G1 X33.684 Y37.087 E57.53024
G1 X33.094 Y37.110 E57.60109
G1 X32.493 Y37.225 E57.67452
G1 X31.944 Y37.414 E57.74419
G1 X31.401 Y37.694 E57.81751
G1 X30.896 Y38.059 E57.89228
G1 X30.449 Y38.499 E57.96754
G1 X30.103 Y38.952 E58.03595
G1 X29.807 Y39.484 E58.10900
G1 X29.593 Y40.053 E58.18195
G1 X29.465 Y40.622 E58.25194
G1 X29.420 Y41.230 E58.32510
G1 X29.465 Y41.839 E58.39838
G1 X29.601 Y42.437 E58.47197
G1 X29.823 Y43.009 E58.54560
G1 X30.130 Y43.547 E58.61993
G1 X30.518 Y44.036 E58.69484
G1 X30.938 Y44.434 E58.76427
G1 X31.435 Y44.784 E58.83722
G1 X31.978 Y45.057 E58.91015
G1 X32.554 Y45.247 E58.98293
G1 X33.123 Y45.350 E59.05232
G1 X33.683 Y45.372 E59.11957
G1 X33.757 Y45.370 E59.12846
G1 X34.344 Y45.302 E59.19937
G1 X34.938 Y45.142 E59.27319
G1 X35.504 Y44.893 E59.34739
G1 X36.031 Y44.561 E59.42213
G1 X36.470 Y44.188 E59.49126
G1 X36.854 Y43.757 E59.56053
G1 X37.189 Y43.248 E59.63365
G1 X37.447 Y42.694 E59.70699
G1 X37.619 Y42.111 E59.77993
G1 X37.703 Y41.535 E59.84978
G1 X37.704 Y40.955 E59.91938
G0 F9000 X36.852 Y38.700
G0 X34.903 Y37.306
G0 X32.494 Y37.225
G0 X30.450 Y38.500
G0 X29.466 Y40.622
G0 X29.196 Y40.955
G1 F1800 X29.112 Y40.352 E59.99244
G1 X28.946 Y39.788 E60.06299
G1 X28.918 Y39.714 E60.07248
G1 X28.663 Y39.179 E60.14360
G1 X28.345 Y38.700 E60.21260
G1 X27.927 Y38.235 E60.28763
G1 X27.481 Y37.864 E60.35725
G1 X26.957 Y37.543 E60.43099
G1 X26.396 Y37.305 E60.50411
G1 X25.806 Y37.152 E60.57726
G1 X25.248 Y37.089 E60.64464
G1 X25.176 Y37.087 E60.65328
G1 X24.586 Y37.110 E60.72414
G1 X23.985 Y37.225 E60.79757
G1 X23.436 Y37.414 E60.86724
G1 X22.893 Y37.694 E60.94055
G1 X22.388 Y38.059 E61.01533
G1 X21.941 Y38.499 E61.09059
G1 X21.595 Y38.952 E61.15899
G1 X21.299 Y39.484 E61.23205
G1 X21.085 Y40.053 E61.30500
G1 X20.957 Y40.622 E61.37499
G1 X20.912 Y41.230 E61.44815
G1 X20.957 Y41.839 E61.52143
G1 X21.093 Y42.437 E61.59502
G1 X21.315 Y43.009 E61.66865
G1 X21.622 Y43.547 E61.74298
G1 X22.010 Y44.036 E61.81789
G1 X22.430 Y44.434 E61.88732
G1 X22.927 Y44.784 E61.96027
G1 X23.470 Y45.057 E62.03320
G1 X24.046 Y45.247 E62.10598
G1 X24.615 Y45.350 E62.17537
G1 X25.175 Y45.372 E62.24262
G1 X25.249 Y45.370 E62.25151
G1 X25.836 Y45.302 E62.32242
G1 X26.430 Y45.142 E62.39624
G1 X26.996 Y44.893 E62.47044
G1 X27.523 Y44.561 E62.54518
G1 X27.962 Y44.188 E62.61431
G1 X28.346 Y43.757 E62.68358
G1 X28.681 Y43.248 E62.75670
G1 X28.939 Y42.694 E62.83004
G1 X29.111 Y42.111 E62.90298
G1 X29.195 Y41.535 E62.97283
G1 X29.196 Y40.955 E63.04243
G0 F9000 X28.796 Y40.982
;TYPE:WALL-OUTER
G1 F1800 X28.720 Y40.437 E63.10846
G1 X28.567 Y39.915 E63.17374
G1 X28.314 Y39.377 E63.24508
G1 X28.028 Y38.945 E63.30725
G1 X27.649 Y38.524 E63.37523
G1 X27.248 Y38.190 E63.43785
G1 X26.774 Y37.900 E63.50453
G1 X26.267 Y37.685 E63.57062
G1 X25.733 Y37.546 E63.63683
G1 X25.219 Y37.488 E63.69890
G1 X25.177 Y37.487 E63.70395
G1 X24.632 Y37.509 E63.76940
G1 X24.088 Y37.612 E63.83584
G1 X23.594 Y37.783 E63.89857
G1 X23.103 Y38.036 E63.96485
G1 X22.647 Y38.366 E64.03240
G1 X22.242 Y38.764 E64.10054
G1 X21.930 Y39.172 E64.16217
G1 X21.663 Y39.653 E64.22819
G1 X21.469 Y40.168 E64.29423
G1 X21.354 Y40.681 E64.35732
G1 X21.313 Y41.230 E64.42338
G1 X21.354 Y41.780 E64.48956
G1 X21.476 Y42.320 E64.55600
G1 X21.677 Y42.836 E64.62245
G1 X21.954 Y43.322 E64.68957
G1 X22.306 Y43.765 E64.75747
G1 X22.684 Y44.124 E64.82003
G1 X23.133 Y44.440 E64.88592
G1 X23.623 Y44.686 E64.95171
G1 X24.145 Y44.858 E65.01766
G1 X24.659 Y44.951 E65.08035
G1 X25.176 Y44.972 E65.14244
G1 X25.218 Y44.971 E65.14748
G1 X25.761 Y44.908 E65.21307
G1 X26.297 Y44.763 E65.27971
G1 X26.808 Y44.539 E65.34666
G1 X27.286 Y44.238 E65.41444
G1 X27.682 Y43.901 E65.47684
G1 X28.028 Y43.513 E65.53923
G1 X28.331 Y43.053 E65.60533
G1 X28.564 Y42.553 E65.67152
G1 X28.719 Y42.025 E65.73755
G1 X28.795 Y41.506 E65.80050
G1 X28.796 Y40.982 E65.86338
G0 F9000 X29.821 Y41.230
G1 F1800 X29.862 Y41.780 E65.92956
G1 X29.984 Y42.320 E65.99600
G1 X30.185 Y42.836 E66.06245
G1 X30.462 Y43.322 E66.12957
G1 X30.814 Y43.765 E66.19747
G1 X31.192 Y44.124 E66.26003
G1 X31.641 Y44.440 E66.32592
G1 X32.131 Y44.686 E66.39171
G1 X32.653 Y44.858 E66.45766
G1 X33.167 Y44.951 E66.52035
G1 X33.684 Y44.972 E66.58244
G1 X33.726 Y44.971 E66.58748
G1 X34.269 Y44.908 E66.65307
G1 X34.805 Y44.763 E66.71971
G1 X35.316 Y44.539 E66.78666
G1 X35.794 Y44.238 E66.85444
G1 X36.190 Y43.901 E66.91684
G1 X36.536 Y43.513 E66.97923
G1 X36.839 Y43.053 E67.04533
G1 X37.072 Y42.553 E67.11152
G1 X37.227 Y42.025 E67.17755
G1 X37.303 Y41.506 E67.24050
G1 X37.304 Y40.982 E67.30338
G1 X37.228 Y40.437 E67.36941
G1 X37.075 Y39.915 E67.43469
G1 X36.822 Y39.377 E67.50603
G1 X36.536 Y38.945 E67.56820
G1 X36.157 Y38.524 E67.63618
G1 X35.756 Y38.190 E67.69880
G1 X35.282 Y37.900 E67.76548
G1 X34.775 Y37.685 E67.83157
G1 X34.241 Y37.546 E67.89778
G1 X33.727 Y37.488 E67.95985
G1 X33.685 Y37.487 E67.96490
G1 X33.140 Y37.509 E68.03035
G1 X32.596 Y37.612 E68.09679
G1 X32.102 Y37.783 E68.15952
G1 X31.611 Y38.036 E68.22580
G1 X31.155 Y38.366 E68.29335
G1 X30.750 Y38.764 E68.36149
G1 X30.438 Y39.172 E68.42312
G1 X30.171 Y39.653 E68.48914
G1 X29.977 Y40.168 E68.55518
G1 X29.862 Y40.681 E68.61826
G1 X29.821 Y41.230 E68.68433
G0 F9000 X29.524 Y41.209
G0 X29.601 Y42.436
G0 X30.742 Y45.992
G0 X30.442 Y45.992
G1 F1800 X21.596 Y45.992 E69.74585
G1 X20.296 Y44.692 E69.96647
G1 X20.296 Y37.767 E70.79747
G1 X21.596 Y36.467 E71.01808
G1 X62.554 Y36.467 E75.93304
G1 X63.854 Y37.767 E76.15366
G1 X63.854 Y44.692 E76.98466
G1 X62.554 Y45.992 E77.20528
G1 X53.708 Y45.992 E78.26680
G1 X53.708 Y46.671 E78.34828
G1 X55.345 Y49.506 E78.74112
G1 X55.345 Y50.339 E78.84108
G1 X28.805 Y50.339 E82.02588
G1 X28.805 Y49.506 E82.12584
G1 X30.404 Y46.735 E82.50975
G1 X30.442 Y46.672 E82.51858
G1 X30.442 Y45.992 E82.60018
G0 F9000 X30.742 Y45.992
G0 X35.503 Y44.892
G0 X38.414 Y42.945
G0 X38.693 Y42.836
G1 F1800 X38.970 Y43.322 E82.66731
G1 X39.322 Y43.765 E82.73520
G1 X39.700 Y44.124 E82.79776
G1 X40.149 Y44.440 E82.86365
G1 X40.639 Y44.686 E82.92944
G1 X41.161 Y44.858 E82.99540
G1 X41.675 Y44.951 E83.05808
G1 X42.191 Y44.972 E83.12005
G1 X42.233 Y44.971 E83.12509
G1 X42.776 Y44.908 E83.19069
G1 X43.312 Y44.763 E83.25732
G1 X43.823 Y44.539 E83.32427
G1 X44.301 Y44.238 E83.39206
G1 X44.697 Y43.901 E83.45445
G1 X45.043 Y43.513 E83.51684
G1 X45.346 Y43.053 E83.58294
G1 X45.579 Y42.553 E83.64913
G1 X45.734 Y42.025 E83.71517
G1 X45.810 Y41.506 E83.77811
G1 X45.811 Y40.982 E83.84099
G1 X45.735 Y40.437 E83.90702
G1 X45.582 Y39.915 E83.97230
G1 X45.329 Y39.377 E84.04364
G1 X45.043 Y38.945 E84.10581
G1 X44.664 Y38.524 E84.17379
G1 X44.263 Y38.190 E84.23641
G1 X43.789 Y37.900 E84.30309
G1 X43.282 Y37.685 E84.36918
G1 X42.748 Y37.546 E84.43539
G1 X42.234 Y37.488 E84.49747
G1 X42.192 Y37.487 E84.50251
G1 X41.648 Y37.509 E84.56784
G1 X41.104 Y37.612 E84.63428
G1 X40.610 Y37.783 E84.69701
G1 X40.119 Y38.036 E84.76329
G1 X39.663 Y38.366 E84.83084
G1 X39.258 Y38.764 E84.89898
G1 X38.946 Y39.172 E84.96061
G1 X38.679 Y39.653 E85.02663
G1 X38.485 Y40.168 E85.09267
G1 X38.370 Y40.681 E85.15576
G1 X38.329 Y41.230 E85.22182
G1 X38.370 Y41.780 E85.28800
G1 X38.492 Y42.320 E85.35444
G1 X38.693 Y42.836 E85.42089
G0 F9000 X38.414 Y42.945
G0 X39.447 Y44.433
G0 X41.632 Y45.349
G0 X44.010 Y44.892
G0 X45.695 Y43.247
G0 X46.547 Y41.477
G0 X46.846 Y41.478
G1 F1800 X46.922 Y42.023 E85.48692
G1 X47.077 Y42.552 E85.55307
G1 X47.311 Y43.053 E85.61942
G1 X47.614 Y43.514 E85.68562
G1 X47.993 Y43.934 E85.75351
G1 X48.394 Y44.269 E85.81621
G1 X48.868 Y44.558 E85.88283
G1 X49.375 Y44.774 E85.94896
G1 X49.910 Y44.913 E86.01529
G1 X50.423 Y44.970 E86.07723
G1 X50.465 Y44.971 E86.08227
G1 X51.010 Y44.949 E86.14773
G1 X51.554 Y44.846 E86.21417
G1 X52.048 Y44.675 E86.27690
G1 X52.539 Y44.423 E86.34313
G1 X52.996 Y44.093 E86.41077
G1 X53.401 Y43.693 E86.47908
G1 X53.728 Y43.259 E86.54428
G1 X53.979 Y42.806 E86.60643
G1 X54.173 Y42.292 E86.67236
G1 X54.288 Y41.779 E86.73545
G1 X54.329 Y41.230 E86.80151
G1 X54.288 Y40.680 E86.86769
G1 X54.166 Y40.139 E86.93424
G1 X53.965 Y39.623 E87.00070
G1 X53.688 Y39.138 E87.06772
G1 X53.336 Y38.693 E87.13581
G1 X52.958 Y38.335 E87.19828
G1 X52.509 Y38.019 E87.26417
G1 X52.019 Y37.772 E87.33001
G1 X51.526 Y37.605 E87.39248
G1 X51.009 Y37.509 E87.45558
G1 X50.469 Y37.487 E87.52043
G1 X50.427 Y37.487 E87.52547
G1 X49.881 Y37.551 E87.59144
G1 X49.346 Y37.696 E87.65795
G1 X48.834 Y37.919 E87.72497
G1 X48.356 Y38.221 E87.79282
G1 X47.960 Y38.558 E87.85522
G1 X47.614 Y38.946 E87.91760
G1 X47.311 Y39.407 E87.98380
G1 X47.078 Y39.907 E88.05000
G1 X46.923 Y40.435 E88.11603
G1 X46.847 Y40.954 E88.17897
G1 X46.846 Y41.478 E88.24185
G0 F9000 X46.547 Y41.477
G0 X46.962 Y43.248
G0 X48.686 Y44.914
G0 X51.055 Y45.346
G0 X53.254 Y44.398
G0 X54.556 Y42.406
G0 X55.055 Y41.477
G0 X55.354 Y41.478
G1 F1800 X55.430 Y42.023 E88.30789
G1 X55.585 Y42.552 E88.37403
G1 X55.819 Y43.053 E88.44039
G1 X56.122 Y43.514 E88.50659
G1 X56.501 Y43.934 E88.57448
G1 X56.902 Y44.269 E88.63718
G1 X57.376 Y44.558 E88.70380
G1 X57.883 Y44.774 E88.76993
G1 X58.418 Y44.913 E88.83626
G1 X58.931 Y44.970 E88.89820
G1 X58.973 Y44.971 E88.90324
