;FLAVOR:UltiGCode
;TIME:5451
;MATERIAL:14736
;MATERIAL2:0

;Layer count: 198
;LAYER:0
M107
G0 F9000 X57.229 Y27.102 Z0.300
;TYPE:SKIRT
G1 F1800 X60.756 Y23.575 E0.59855
G1 X104.860 Y23.575 E5.89103
G1 X108.387 Y27.102 E6.48958
G1 X108.387 Y37.173 E7.69810
G1 X104.860 Y40.700 E8.29666
G1 X99.878 Y40.700 E8.89450
G1 X99.878 Y45.047 E9.41614
G1 X65.738 Y45.047 E13.51294
G1 X65.738 Y40.700 E14.03458
G1 X60.756 Y40.700 E14.63242
G1 X57.229 Y37.173 E15.23097
G1 X57.229 Y27.102 E16.43949
G0 F9000 X57.629 Y27.268
G1 F1800 X60.922 Y23.975 E16.99833
G1 X104.694 Y23.975 E22.25097
G1 X107.987 Y27.268 E22.80981
G1 X107.987 Y37.007 E23.97849
G1 X104.694 Y40.300 E24.53733
G1 X99.478 Y40.300 E25.16325
G1 X99.478 Y44.647 E25.68489
G1 X66.138 Y44.647 E29.68569
G1 X66.138 Y40.300 E30.20733
G1 X60.922 Y40.300 E30.83325
G1 X57.629 Y37.007 E31.39209
G1 X57.629 Y27.268 E32.56077
G10
G0 F9000 X61.786 Y28.678
;TYPE:FILL
G11
G1 F1800 X62.505 Y29.397 E32.68279
G0 F9000 X63.350 Y28.627
G1 F1800 X62.638 Y27.915 E32.80362
G0 F9000 X64.253 Y27.915
G1 F1800 X64.423 Y28.085 E32.83247
G0 F9000 X63.121 Y28.969
G0 X61.882 Y30.389
G1 F1800 X61.567 Y30.074 E32.88593
G0 F9000 X61.589 Y33.325
G1 F1800 X61.716 Y33.453 E32.90756
G0 F9000 X61.568 Y34.920
G1 F1800 X63.008 Y36.360 E33.15194
G0 F9000 X64.460 Y36.197
G1 F1800 X64.623 Y36.360 E33.17960
G0 F9000 X101.492 Y36.083
G1 F1800 X101.768 Y36.360 E33.22652
G0 F9000 X102.500 Y35.476
G1 F1800 X103.223 Y36.199 E33.34922
G0 F9000 X104.030 Y35.392
G1 F1800 X103.283 Y34.644 E33.47608
G0 F9000 X104.046 Y33.792
G1 F1800 X103.843 Y33.589 E33.51053
G0 F9000 X104.046 Y30.562
G1 F1800 X103.576 Y30.092 E33.59029
G0 F9000 X104.046 Y28.947
G1 F1800 X103.014 Y27.915 E33.76543
G0 F9000 X101.865 Y28.381
G1 F1800 X101.399 Y27.915 E33.84451
G0 F9000 X101.415 Y28.310
;TYPE:WALL-INNER
G1 F1800 X100.868 Y28.125 E33.91380
G1 X100.295 Y28.018 E33.98375
G1 X99.718 Y27.995 E34.05304
G1 X99.645 Y27.995 E34.06180
G1 X99.046 Y28.065 E34.13417
G1 X98.454 Y28.225 E34.20776
G1 X97.887 Y28.472 E34.28198
G1 X97.360 Y28.806 E34.35685
G1 X96.921 Y29.179 E34.42598
G1 X96.537 Y29.610 E34.49525
G1 X96.201 Y30.120 E34.56853
G1 X95.944 Y30.674 E34.64182
G1 X95.772 Y31.257 E34.71476
G1 X95.688 Y31.833 E34.78461
G1 X95.687 Y32.413 E34.85421
G1 X95.771 Y33.016 E34.92727
G1 X95.943 Y33.602 E35.00056
G1 X96.202 Y34.156 E35.07394
G1 X96.538 Y34.667 E35.14733
G1 X96.956 Y35.131 E35.22227
G1 X97.402 Y35.503 E35.29197
G1 X97.926 Y35.823 E35.36565
G1 X98.487 Y36.061 E35.43877
G1 X99.078 Y36.216 E35.51209
G1 X99.635 Y36.277 E35.57933
G1 X99.707 Y36.279 E35.58797
G1 X100.297 Y36.256 E35.65883
G1 X100.898 Y36.141 E35.73226
G1 X101.446 Y35.952 E35.80182
G1 X101.990 Y35.673 E35.87518
G1 X102.496 Y35.307 E35.95012
G1 X102.944 Y34.865 E36.02564
G1 X103.305 Y34.386 E36.09762
G1 X103.584 Y33.882 E36.16675
G1 X103.798 Y33.315 E36.23947
G1 X103.926 Y32.746 E36.30946
G1 X103.971 Y32.138 E36.38262
G1 X103.926 Y31.529 E36.45590
G1 X103.790 Y30.930 E36.52961
G1 X103.568 Y30.358 E36.60323
G1 X103.262 Y29.821 E36.67740
G1 X102.873 Y29.330 E36.75257
G1 X102.453 Y28.932 E36.82201
G1 X101.956 Y28.583 E36.89488
G1 X101.415 Y28.310 E36.96760
G0 F9000 X103.121 Y27.775
G1 F1800 X104.187 Y28.841 E37.14851
G1 X104.187 Y35.434 E37.93967
G1 X103.121 Y36.500 E38.12057
G1 X94.041 Y36.500 E39.21017
G1 X94.041 Y37.686 E39.35249
G1 X95.678 Y40.522 E39.74544
G1 X95.678 Y40.847 E39.78444
G1 X69.938 Y40.847 E42.87324
G1 X69.938 Y40.522 E42.91224
G1 X71.486 Y37.840 E43.28384
G1 X71.575 Y37.691 E43.30467
G1 X71.575 Y36.500 E43.44759
G1 X62.495 Y36.500 E44.53719
G1 X61.429 Y35.434 E44.71809
G1 X61.429 Y28.841 E45.50925
G1 X62.495 Y27.775 E45.69016
G1 X103.121 Y27.775 E50.56528
G0 F9000 X98.454 Y28.227
G0 X96.538 Y29.611
G0 X95.282 Y30.930
G1 F1800 X95.060 Y30.358 E50.63891
G1 X94.754 Y29.821 E50.71308
G1 X94.365 Y29.330 E50.78825
G1 X93.945 Y28.932 E50.85768
G1 X93.448 Y28.583 E50.93056
G1 X92.907 Y28.310 E51.00327
G1 X92.360 Y28.125 E51.07257
G1 X91.787 Y28.018 E51.14252
G1 X91.210 Y27.995 E51.21181
G1 X91.137 Y27.995 E51.22057
G1 X90.538 Y28.065 E51.29294
G1 X89.946 Y28.225 E51.36653
G1 X89.379 Y28.472 E51.44074
G1 X88.852 Y28.806 E51.51562
G1 X88.413 Y29.179 E51.58474
G1 X88.029 Y29.610 E51.65401
G1 X87.693 Y30.120 E51.72730
G1 X87.436 Y30.674 E51.80059
G1 X87.264 Y31.257 E51.87353
G1 X87.180 Y31.833 E51.94338
G1 X87.179 Y32.413 E52.01298
G1 X87.263 Y33.016 E52.08604
G1 X87.435 Y33.602 E52.15932
G1 X87.694 Y34.156 E52.23271
G1 X88.030 Y34.667 E52.30610
G1 X88.448 Y35.131 E52.38104
G1 X88.894 Y35.503 E52.45073
G1 X89.418 Y35.823 E52.52441
G1 X89.979 Y36.061 E52.59754
G1 X90.570 Y36.216 E52.67086
G1 X91.127 Y36.277 E52.73810
G1 X91.199 Y36.279 E52.74674
G1 X91.789 Y36.256 E52.81759
G1 X92.390 Y36.141 E52.89102
G1 X92.938 Y35.952 E52.96058
G1 X93.482 Y35.673 E53.03395
G1 X93.988 Y35.307 E53.10889
G1 X94.436 Y34.865 E53.18441
G1 X94.797 Y34.386 E53.25638
G1 X95.076 Y33.882 E53.32551
G1 X95.290 Y33.315 E53.39824
G1 X95.418 Y32.746 E53.46822
G1 X95.463 Y32.138 E53.54138
G1 X95.418 Y31.529 E53.61466
G1 X95.282 Y30.930 E53.68837
G0 F9000 X93.944 Y28.934
G0 X91.787 Y28.019
G0 X89.380 Y28.474
G0 X87.695 Y30.121
G0 X86.944 Y31.863
G1 F1800 X86.860 Y31.260 E53.76143
G1 X86.694 Y30.696 E53.83198
G1 X86.666 Y30.622 E53.84148
G1 X86.411 Y30.087 E53.91260
G1 X86.093 Y29.608 E53.98159
G1 X85.675 Y29.143 E54.05662
G1 X85.229 Y28.772 E54.12624
G1 X84.705 Y28.451 E54.19998
G1 X84.144 Y28.213 E54.27311
G1 X83.554 Y28.060 E54.34625
G1 X82.996 Y27.997 E54.41363
G1 X82.924 Y27.995 E54.42228
G1 X82.335 Y28.018 E54.49301
G1 X81.734 Y28.133 E54.56644
G1 X81.185 Y28.322 E54.63611
G1 X80.642 Y28.602 E54.70943
G1 X80.137 Y28.967 E54.78420
G1 X79.690 Y29.407 E54.85946
G1 X79.344 Y29.860 E54.92787
G1 X79.048 Y30.392 E55.00092
G1 X78.834 Y30.961 E55.07387
G1 X78.706 Y31.530 E55.14386
G1 X78.661 Y32.138 E55.21702
G1 X78.706 Y32.747 E55.29030
G1 X78.842 Y33.345 E55.36389
G1 X79.064 Y33.917 E55.43752
G1 X79.371 Y34.455 E55.51185
G1 X79.759 Y34.944 E55.58676
G1 X80.179 Y35.342 E55.65619
G1 X80.676 Y35.692 E55.72914
G1 X81.219 Y35.965 E55.80207
G1 X81.795 Y36.155 E55.87485
G1 X82.364 Y36.258 E55.94424
G1 X82.923 Y36.280 E56.01137
G1 X82.997 Y36.278 E56.02026
G1 X83.584 Y36.210 E56.09117
G1 X84.178 Y36.050 E56.16499
G1 X84.744 Y35.801 E56.23919
G1 X85.271 Y35.469 E56.31393
G1 X85.710 Y35.096 E56.38306
G1 X86.094 Y34.665 E56.45233
G1 X86.429 Y34.156 E56.52545
G1 X86.687 Y33.602 E56.59879
G1 X86.859 Y33.019 E56.67173
G1 X86.943 Y32.443 E56.74158
G1 X86.944 Y31.863 E56.81118
G0 F9000 X86.092 Y29.608
G0 X84.143 Y28.214
G0 X81.735 Y28.133
G0 X79.691 Y29.408
G0 X78.707 Y31.530
G0 X78.437 Y31.863
G1 F1800 X78.353 Y31.260 E56.88424
G1 X78.187 Y30.696 E56.95479
G1 X78.159 Y30.622 E56.96429
G1 X77.904 Y30.087 E57.03540
G1 X77.586 Y29.608 E57.10440
G1 X77.168 Y29.143 E57.17943
G1 X76.722 Y28.772 E57.24905
G1 X76.198 Y28.451 E57.32279
G1 X75.637 Y28.213 E57.39591
G1 X75.047 Y28.060 E57.46906
G1 X74.489 Y27.997 E57.53644
G1 X74.417 Y27.995 E57.54508
G1 X73.827 Y28.018 E57.61594
G1 X73.226 Y28.133 E57.68937
G1 X72.677 Y28.322 E57.75904
G1 X72.134 Y28.602 E57.83235
G1 X71.629 Y28.967 E57.90713
G1 X71.182 Y29.407 E57.98239
G1 X70.836 Y29.860 E58.05080
G1 X70.540 Y30.392 E58.12385
G1 X70.326 Y30.961 E58.19680
G1 X70.198 Y31.530 E58.26679
G1 X70.153 Y32.138 E58.33995
G1 X70.198 Y32.747 E58.41323
G1 X70.334 Y33.345 E58.48682
G1 X70.556 Y33.917 E58.56045
G1 X70.863 Y34.455 E58.63478
G1 X71.251 Y34.944 E58.70969
G1 X71.671 Y35.342 E58.77912
G1 X72.168 Y35.692 E58.85207
G1 X72.711 Y35.965 E58.92500
G1 X73.287 Y36.155 E58.99778
G1 X73.856 Y36.258 E59.06717
G1 X74.416 Y36.280 E59.13442
G1 X74.490 Y36.278 E59.14331
G1 X75.077 Y36.210 E59.21422
G1 X75.671 Y36.050 E59.28804
G1 X76.237 Y35.801 E59.36224
G1 X76.764 Y35.469 E59.43698
G1 X77.203 Y35.096 E59.50611
G1 X77.587 Y34.665 E59.57538
G1 X77.922 Y34.156 E59.64850
G1 X78.180 Y33.602 E59.72184
G1 X78.352 Y33.019 E59.79478
G1 X78.436 Y32.443 E59.86463
G1 X78.437 Y31.863 E59.93423
G0 F9000 X77.585 Y29.608
G0 X75.636 Y28.214
G0 X73.227 Y28.133
G0 X71.183 Y29.408
G0 X70.199 Y31.530
G0 X69.929 Y31.863
G1 F1800 X69.845 Y31.260 E60.00729
G1 X69.679 Y30.696 E60.07784
G1 X69.651 Y30.622 E60.08733
G1 X69.396 Y30.087 E60.15845
G1 X69.078 Y29.608 E60.22745
G1 X68.660 Y29.143 E60.30248
G1 X68.214 Y28.772 E60.37209
G1 X67.690 Y28.451 E60.44584
G1 X67.129 Y28.213 E60.51896
G1 X66.539 Y28.060 E60.59210
G1 X65.981 Y27.997 E60.65949
G1 X65.909 Y27.995 E60.66813
G1 X65.319 Y28.018 E60.73899
G1 X64.718 Y28.133 E60.81242
G1 X64.169 Y28.322 E60.88209
G1 X63.626 Y28.602 E60.95540
G1 X63.121 Y28.967 E61.03017
G1 X62.674 Y29.407 E61.10544
G1 X62.328 Y29.860 E61.17384
G1 X62.032 Y30.392 E61.24690
G1 X61.818 Y30.961 E61.31985
G1 X61.690 Y31.530 E61.38984
G1 X61.645 Y32.138 E61.46300
G1 X61.690 Y32.747 E61.53628
G1 X61.826 Y33.345 E61.60987
G1 X62.048 Y33.917 E61.68350
G1 X62.355 Y34.455 E61.75783
G1 X62.743 Y34.944 E61.83274
G1 X63.163 Y35.342 E61.90217
G1 X63.660 Y35.692 E61.97511
G1 X64.203 Y35.965 E62.04805
G1 X64.779 Y36.155 E62.12083
G1 X65.348 Y36.258 E62.19022
G1 X65.908 Y36.280 E62.25747
G1 X65.982 Y36.278 E62.26635
G1 X66.569 Y36.210 E62.33727
G1 X67.163 Y36.050 E62.41109
G1 X67.729 Y35.801 E62.48529
G1 X68.256 Y35.469 E62.56003
G1 X68.695 Y35.096 E62.62916
G1 X69.079 Y34.665 E62.69843
G1 X69.414 Y34.156 E62.77155
G1 X69.672 Y33.602 E62.84489
G1 X69.844 Y33.019 E62.91783
G1 X69.928 Y32.443 E62.98768
G1 X69.929 Y31.863 E63.05728
G0 F9000 X69.529 Y31.890
;TYPE:WALL-OUTER
G1 F1800 X69.453 Y31.345 E63.12331
G1 X69.300 Y30.823 E63.18859
G1 X69.047 Y30.285 E63.25993
G1 X68.761 Y29.853 E63.32210
G1 X68.382 Y29.432 E63.39008
G1 X67.981 Y29.098 E63.45270
G1 X67.507 Y28.808 E63.51938
G1 X67.000 Y28.593 E63.58547
G1 X66.466 Y28.454 E63.65168
G1 X65.952 Y28.396 E63.71375
G1 X65.910 Y28.395 E63.71880
G1 X65.365 Y28.417 E63.78425
G1 X64.821 Y28.520 E63.85069
G1 X64.327 Y28.691 E63.91342
G1 X63.836 Y28.944 E63.97970
G1 X63.380 Y29.274 E64.04725
G1 X62.975 Y29.672 E64.11539
G1 X62.663 Y30.080 E64.17702
G1 X62.396 Y30.561 E64.24304
G1 X62.202 Y31.076 E64.30908
G1 X62.087 Y31.589 E64.37216
G1 X62.046 Y32.138 E64.43823
G1 X62.087 Y32.688 E64.50441
G1 X62.209 Y33.228 E64.57084
G1 X62.410 Y33.744 E64.63730
G1 X62.687 Y34.230 E64.70442
G1 X63.039 Y34.673 E64.77232
G1 X63.417 Y35.032 E64.83488
G1 X63.866 Y35.348 E64.90077
G1 X64.356 Y35.594 E64.96656
G1 X64.878 Y35.766 E65.03251
G1 X65.392 Y35.859 E65.09519
G1 X65.909 Y35.880 E65.15729
G1 X65.951 Y35.879 E65.16233
G1 X66.494 Y35.816 E65.22792
G1 X67.030 Y35.671 E65.29456
G1 X67.541 Y35.447 E65.36151
G1 X68.019 Y35.146 E65.42929
G1 X68.415 Y34.809 E65.49169
G1 X68.761 Y34.421 E65.55408
G1 X69.064 Y33.961 E65.62018
G1 X69.297 Y33.461 E65.68637
G1 X69.452 Y32.933 E65.75240
G1 X69.528 Y32.414 E65.81535
G1 X69.529 Y31.890 E65.87823
G0 F9000 X70.554 Y32.138
G1 F1800 X70.595 Y32.688 E65.94441
G1 X70.717 Y33.228 E66.01084
G1 X70.918 Y33.744 E66.07730
G1 X71.195 Y34.230 E66.14442
G1 X71.547 Y34.673 E66.21232
G1 X71.925 Y35.032 E66.27488
G1 X72.374 Y35.348 E66.34077
G1 X72.864 Y35.594 E66.40656
G1 X73.386 Y35.766 E66.47251
G1 X73.900 Y35.859 E66.53519
G1 X74.417 Y35.880 E66.59729
G1 X74.459 Y35.879 E66.60233
G1 X75.002 Y35.816 E66.66792
G1 X75.538 Y35.671 E66.73456
G1 X76.049 Y35.447 E66.80151
G1 X76.527 Y35.146 E66.86929
G1 X76.923 Y34.809 E66.93169
G1 X77.269 Y34.421 E66.99408
G1 X77.572 Y33.961 E67.06018
G1 X77.805 Y33.461 E67.12637
G1 X77.960 Y32.933 E67.19240
G1 X78.036 Y32.414 E67.25535
G1 X78.037 Y31.890 E67.31823
G1 X77.961 Y31.345 E67.38426
G1 X77.808 Y30.823 E67.44954
G1 X77.555 Y30.285 E67.52088
G1 X77.269 Y29.853 E67.58305
G1 X76.890 Y29.432 E67.65103
G1 X76.489 Y29.098 E67.71365
G1 X76.015 Y28.808 E67.78033
G1 X75.508 Y28.593 E67.84642
G1 X74.974 Y28.454 E67.91263
G1 X74.460 Y28.396 E67.97470
G1 X74.418 Y28.395 E67.97974
G1 X73.873 Y28.417 E68.04520
G1 X73.329 Y28.520 E68.11164
G1 X72.835 Y28.691 E68.17437
G1 X72.344 Y28.944 E68.24065
G1 X71.888 Y29.274 E68.30820
G1 X71.483 Y29.672 E68.37634
G1 X71.171 Y30.080 E68.43797
G1 X70.904 Y30.561 E68.50399
G1 X70.710 Y31.076 E68.57003
G1 X70.595 Y31.589 E68.63311
G1 X70.554 Y32.138 E68.69918
G0 F9000 X70.257 Y32.117
G0 X70.334 Y33.344
G0 X71.475 Y36.900
G0 X71.175 Y36.900
G1 F1800 X62.329 Y36.900 E69.76070
G1 X61.029 Y35.600 E69.98131
G1 X61.029 Y28.675 E70.81231
G1 X62.329 Y27.375 E71.03293
G1 X103.287 Y27.375 E75.94789
G1 X104.587 Y28.675 E76.16851
G1 X104.587 Y35.600 E76.99951
G1 X103.287 Y36.900 E77.22013
G1 X94.441 Y36.900 E78.28165
G1 X94.441 Y37.579 E78.36313
G1 X96.078 Y40.414 E78.75597
G1 X96.078 Y41.247 E78.85593
G1 X69.538 Y41.247 E82.04073
G1 X69.538 Y40.414 E82.14069
G1 X71.137 Y37.643 E82.52460
G1 X71.175 Y37.580 E82.53343
G1 X71.175 Y36.900 E82.61503
G0 F9000 X71.475 Y36.900
G0 X76.236 Y35.800
G0 X79.147 Y33.853
G0 X79.426 Y33.744
G1 F1800 X79.703 Y34.230 E82.68216
G1 X80.055 Y34.673 E82.75005
G1 X80.433 Y35.032 E82.81261
G1 X80.882 Y35.348 E82.87850
G1 X81.372 Y35.594 E82.94429
G1 X81.894 Y35.766 E83.01024
G1 X82.408 Y35.859 E83.07293
G1 X82.924 Y35.880 E83.13490
G1 X82.966 Y35.879 E83.13994
G1 X83.509 Y35.816 E83.20554
G1 X84.045 Y35.671 E83.27217
G1 X84.556 Y35.447 E83.33912
G1 X85.034 Y35.146 E83.40691
G1 X85.430 Y34.809 E83.46930
G1 X85.776 Y34.421 E83.53169
G1 X86.079 Y33.961 E83.59779
G1 X86.312 Y33.461 E83.66398
G1 X86.467 Y32.933 E83.73002
G1 X86.543 Y32.414 E83.79296
G1 X86.544 Y31.890 E83.85584
G1 X86.468 Y31.345 E83.92187
G1 X86.315 Y30.823 E83.98715
G1 X86.062 Y30.285 E84.05849
G1 X85.776 Y29.853 E84.12066
G1 X85.397 Y29.432 E84.18864
G1 X84.996 Y29.098 E84.25126
G1 X84.522 Y28.808 E84.31794
G1 X84.015 Y28.593 E84.38403
G1 X83.481 Y28.454 E84.45024
G1 X82.967 Y28.396 E84.51231
G1 X82.925 Y28.395 E84.51736
G1 X82.381 Y28.417 E84.58269
G1 X81.837 Y28.520 E84.64913
G1 X81.343 Y28.691 E84.71186
G1 X80.852 Y28.944 E84.77814
G1 X80.396 Y29.274 E84.84569
G1 X79.991 Y29.672 E84.91383
G1 X79.679 Y30.080 E84.97546
G1 X79.412 Y30.561 E85.04148
G1 X79.218 Y31.076 E85.10752
G1 X79.103 Y31.589 E85.17061
G1 X79.062 Y32.138 E85.23667
G1 X79.103 Y32.688 E85.30285
G1 X79.225 Y33.228 E85.36929
G1 X79.426 Y33.744 E85.43574
G0 F9000 X79.147 Y33.853
G0 X80.180 Y35.341
G0 X82.365 Y36.257
G0 X84.743 Y35.800
G0 X86.428 Y34.155
G0 X87.280 Y32.385
G0 X87.579 Y32.386
G1 F1800 X87.655 Y32.931 E85.50177
G1 X87.810 Y33.460 E85.56792
G1 X88.044 Y33.961 E85.63427
G1 X88.347 Y34.422 E85.70047
G1 X88.726 Y34.842 E85.76836
G1 X89.127 Y35.177 E85.83106
G1 X89.601 Y35.466 E85.89768
G1 X90.108 Y35.682 E85.96381
G1 X90.643 Y35.821 E86.03014
G1 X91.156 Y35.878 E86.09208
G1 X91.198 Y35.879 E86.09712
G1 X91.743 Y35.857 E86.16258
G1 X92.287 Y35.754 E86.22902
G1 X92.781 Y35.583 E86.29175
G1 X93.272 Y35.331 E86.35797
G1 X93.729 Y35.001 E86.42562
G1 X94.134 Y34.601 E86.49393
G1 X94.461 Y34.167 E86.55913
G1 X94.712 Y33.714 E86.62128
G1 X94.906 Y33.200 E86.68721
G1 X95.021 Y32.687 E86.75030
G1 X95.062 Y32.138 E86.81636
G1 X95.021 Y31.588 E86.88254
G1 X94.899 Y31.047 E86.94909
G1 X94.698 Y30.531 E87.01554
G1 X94.421 Y30.046 E87.08257
G1 X94.069 Y29.601 E87.15065
G1 X93.691 Y29.243 E87.21313
G1 X93.242 Y28.927 E87.27902
G1 X92.752 Y28.680 E87.34486
G1 X92.259 Y28.513 E87.40733
G1 X91.742 Y28.417 E87.47043
G1 X91.202 Y28.395 E87.53528
G1 X91.160 Y28.395 E87.54032
G1 X90.614 Y28.459 E87.60629
G1 X90.079 Y28.604 E87.67280
G1 X89.567 Y28.827 E87.73982
G1 X89.089 Y29.129 E87.80767
G1 X88.693 Y29.466 E87.87007
G1 X88.347 Y29.854 E87.93245
G1 X88.044 Y30.315 E87.99865
G1 X87.811 Y30.815 E88.06484
G1 X87.656 Y31.343 E88.13088
G1 X87.580 Y31.862 E88.19382
G1 X87.579 Y32.386 E88.25670
G0 F9000 X87.280 Y32.385
G0 X87.695 Y34.156
G0 X89.419 Y35.822
G0 X91.788 Y36.254
G0 X93.987 Y35.306
G0 X95.289 Y33.314
G0 X95.788 Y32.385
G0 X96.087 Y32.386
G1 F1800 X96.163 Y32.931 E88.32274
G1 X96.318 Y33.460 E88.38888
G1 X96.552 Y33.961 E88.45524
G1 X96.855 Y34.422 E88.52144
G1 X97.234 Y34.842 E88.58932
G1 X97.635 Y35.177 E88.65203
G1 X98.109 Y35.466 E88.71865
G1 X98.616 Y35.682 E88.78478
G1 X99.151 Y35.821 E88.85111
G1 X99.664 Y35.878 E88.91305
G1 X99.706 Y35.879 E88.91809
