;FLAVOR:UltiGCode
;TIME:7255
;MATERIAL:6474
;MATERIAL2:0

;Layer count: 129
;LAYER:0
M107
G0 F9000 X109.131 Y26.885 Z0.300
;TYPE:SKIRT
G1 F1200 X113.245 Y26.893 E0.49368
G1 X115.496 Y26.893 E0.76380
G1 X116.578 Y26.884 E0.89365
G1 X117.366 Y26.893 E0.98821
G1 X117.510 Y26.893 E1.00549
G1 X117.510 Y26.895 E1.00573
G1 X120.869 Y26.933 E1.40884
G1 X120.869 Y35.458 E2.43184
G1 X121.504 Y35.458 E2.50804
G1 X121.788 Y39.010 E2.93564
G1 X121.749 Y39.983 E3.05249
G1 X121.727 Y40.550 E3.12058
G1 X121.728 Y40.550 E3.12070
G1 X121.708 Y41.145 E3.19214
G1 X121.673 Y42.299 E3.33069
G1 X121.658 Y42.896 E3.40235
G1 X121.644 Y43.487 E3.47329
G1 X121.618 Y44.672 E3.61552
G1 X121.608 Y45.223 E3.68165
G1 X121.603 Y45.772 E3.74754
G1 X121.603 Y49.420 E4.18530
G1 X120.650 Y49.420 E4.29966
G1 X120.650 Y57.335 E5.24946
G1 X114.361 Y57.330 E6.00414
G1 X113.431 Y57.333 E6.11574
G1 X109.350 Y57.324 E6.60546
G1 X109.350 Y49.420 E7.55394
G1 X108.460 Y49.420 E7.66074
G1 X108.383 Y44.958 E8.19626
G1 X108.369 Y44.268 E8.27908
G1 X108.354 Y43.571 E8.36274
G1 X108.338 Y42.892 E8.44424
G1 X108.302 Y41.573 E8.60258
G1 X108.286 Y41.025 E8.66836
G1 X108.260 Y40.266 E8.75950
G1 X108.087 Y35.458 E9.33683
G1 X109.131 Y35.458 E9.46211
G1 X109.131 Y26.885 E10.49087
G0 F9000 X109.531 Y27.286
G1 F1200 X113.244 Y27.293 E10.93643
G1 X115.471 Y27.293 E11.20367
G1 X116.577 Y27.284 E11.33640
G1 X120.469 Y27.329 E11.80347
G1 X120.469 Y35.858 E12.82695
G1 X121.134 Y35.858 E12.90675
G1 X121.387 Y39.019 E13.28728
G1 X121.349 Y39.959 E13.40017
G1 X121.350 Y39.959 E13.40029
G1 X121.328 Y40.548 E13.47102
G1 X121.308 Y41.121 E13.53982
G1 X121.309 Y41.121 E13.53994
G1 X121.273 Y42.306 E13.68221
G1 X121.258 Y42.886 E13.75183
G1 X121.244 Y43.477 E13.82277
G1 X121.218 Y44.663 E13.96513
G1 X121.208 Y45.219 E14.03186
G1 X121.203 Y45.768 E14.09774
G1 X121.203 Y49.020 E14.48798
G1 X120.250 Y49.020 E14.60234
G1 X120.250 Y56.935 E15.55214
G1 X114.437 Y56.930 E16.24970
G1 X113.431 Y56.933 E16.37042
G1 X109.750 Y56.925 E16.81214
G1 X109.750 Y49.020 E17.76074
G1 X108.853 Y49.020 E17.86838
G1 X108.782 Y44.951 E18.35674
G1 X108.783 Y44.951 E18.35686
G1 X108.769 Y44.260 E18.43979
G1 X108.754 Y43.562 E18.52357
G1 X108.738 Y42.883 E18.60508
G1 X108.702 Y41.562 E18.76365
G1 X108.686 Y41.013 E18.82956
G1 X108.660 Y40.252 E18.92094
G1 X108.502 Y35.858 E19.44856
G1 X109.531 Y35.858 E19.57204
G1 X109.531 Y27.286 E20.60068
G10
G0 F9000 X112.441 Y39.658
;TYPE:WALL-INNER
G11
G1 F1200 X117.558 Y39.658 E21.21472
G1 X117.530 Y40.408 E21.30478
G1 X117.510 Y41.005 E21.37646
G1 X117.474 Y42.192 E21.51897
G1 X117.445 Y43.388 E21.66253
G1 X117.419 Y44.581 E21.80572
G1 X117.408 Y45.182 E21.87785
G1 X117.408 Y45.220 E21.88241
G1 X116.450 Y45.220 E21.99737
G1 X113.550 Y45.223 E22.34537
G1 X112.588 Y45.220 E22.46081
G1 X112.553 Y43.481 E22.66954
G1 X112.537 Y42.793 E22.75212
G1 X112.501 Y41.459 E22.91226
G1 X112.485 Y40.902 E22.97912
G1 X112.441 Y39.658 E23.12850
G0 F9000 X112.931 Y39.258
;TYPE:WALL-OUTER
G1 F1200 X112.931 Y30.692 E24.15642
G1 X113.710 Y30.693 E24.24990
G1 X113.710 Y39.258 E25.27770
G1 X116.290 Y39.258 E25.58730
G1 X116.290 Y30.686 E26.61594
G1 X116.572 Y30.684 E26.64978
G1 X117.069 Y30.690 E26.70942
G1 X117.069 Y39.258 E27.73758
G1 X117.975 Y39.258 E27.84630
G1 X117.930 Y40.422 E27.98609
G1 X117.874 Y42.203 E28.19991
G1 X117.819 Y44.589 E28.48631
G1 X117.808 Y45.187 E28.55808
G1 X117.804 Y45.620 E28.61004
G1 X116.850 Y45.620 E28.72452
G1 X116.850 Y53.532 E29.67396
G1 X116.181 Y53.531 E29.75424
G1 X116.181 Y45.623 E30.70320
G1 X113.806 Y45.623 E30.98820
G1 X113.806 Y53.532 E31.93728
G1 X113.428 Y53.533 E31.98264
G1 X113.150 Y53.532 E32.01600
G1 X113.150 Y45.620 E32.96544
G1 X112.194 Y45.620 E33.08016
G1 X112.153 Y43.490 E33.33581
G1 X112.101 Y41.471 E33.57817
G1 X112.085 Y40.915 E33.64492
G1 X112.026 Y39.258 E33.84389
G1 X112.931 Y39.258 E33.95249
G0 F9000 X113.130 Y39.308
;TYPE:SKIN
G1 F900 X113.299 Y39.477 E33.98117
G0 F9000 X113.054 Y39.798
G1 F900 X117.293 Y44.037 E34.70055
G0 F9000 X117.277 Y44.587
G1 F900 X112.588 Y39.897 E35.49638
G0 F9000 X113.620 Y39.798
G1 F900 X117.309 Y43.487 E36.12243
G0 F9000 X117.324 Y42.936
G1 F900 X114.185 Y39.798 E36.65505
G0 F9000 X114.751 Y39.798
G1 F900 X117.340 Y42.386 E37.09433
G0 F9000 X117.354 Y41.835
G1 F900 X115.317 Y39.798 E37.44002
G0 F9000 X115.882 Y39.798
G1 F900 X117.370 Y41.285 E37.69246
G0 F9000 X117.386 Y40.735
G1 F900 X116.448 Y39.798 E37.85156
G0 F9000 X116.694 Y39.478
G1 F900 X116.678 Y39.179 E37.88623
G1 X116.678 Y38.614 E37.95030
G1 X116.678 Y38.048 E38.01449
G1 X116.678 Y37.482 E38.07867
G1 X116.678 Y36.916 E38.14285
G1 X116.678 Y36.351 E38.20693
G1 X116.678 Y35.785 E38.27111
G1 X116.678 Y35.219 E38.33529
G1 X116.678 Y34.654 E38.39937
G1 X116.678 Y34.088 E38.46355
G1 X116.678 Y33.522 E38.52773
G1 X116.678 Y32.957 E38.59181
G1 X116.678 Y32.391 E38.65599
G1 X116.678 Y31.825 E38.72017
G1 X116.678 Y31.260 E38.78425
G1 X116.587 Y30.885 E38.83055
G0 F9000 X116.631 Y39.599
G0 X113.369 Y39.599
G0 X113.509 Y31.202
G1 F900 X113.165 Y31.140 E38.88298
G1 X113.319 Y31.861 E38.94712
G1 X113.319 Y32.426 E39.01120
G1 X113.319 Y32.992 E39.07538
G1 X113.319 Y33.558 E39.13956
G1 X113.319 Y34.123 E39.20364
G1 X113.319 Y34.689 E39.26782
G1 X113.319 Y35.255 E39.33200
G1 X113.319 Y35.820 E39.39608
G1 X113.319 Y36.386 E39.46026
G1 X113.319 Y36.952 E39.52444
G1 X113.319 Y37.518 E39.58863
G1 X113.319 Y38.083 E39.65270
G1 X113.319 Y38.649 E39.71688
G1 X113.509 Y39.122 E39.77805
G0 F9000 X113.369 Y39.599
G0 X117.014 Y39.798
G1 F900 X117.401 Y40.185 E39.84373
G0 F9000 X112.603 Y40.479
G1 F900 X117.204 Y45.079 E40.62446
G0 F9000 X116.638 Y45.079
G1 F900 X112.618 Y41.059 E41.30668
G0 F9000 X112.634 Y41.640
G1 F900 X116.072 Y45.079 E41.89021
G0 F9000 X116.393 Y45.399
G1 F900 X116.514 Y45.803 E41.93360
G1 X116.514 Y46.369 E41.97911
G1 X116.514 Y46.935 E42.02462
G1 X116.514 Y47.500 E42.07004
G1 X116.514 Y48.066 E42.11555
G1 X116.514 Y48.632 E42.16106
G1 X116.514 Y49.197 E42.20648
G1 X116.514 Y49.763 E42.25199
G1 X116.514 Y50.329 E42.29749
G1 X116.514 Y50.894 E42.34292
G1 X116.514 Y51.460 E42.38843
G1 X116.514 Y52.026 E42.43393
G1 X116.514 Y52.591 E42.47936
G1 X116.649 Y53.009 E42.53207
G0 F9000 X116.522 Y45.282
G0 X113.465 Y45.282
G0 X113.605 Y52.794
G1 F900 X113.477 Y52.383 E42.57546
G1 X113.477 Y51.817 E42.61876
G1 X113.477 Y51.251 E42.66206
G1 X113.477 Y50.685 E42.70536
G1 X113.477 Y50.120 E42.74875
G1 X113.477 Y49.554 E42.79205
G1 X113.477 Y48.988 E42.83535
G1 X113.477 Y48.423 E42.87874
G1 X113.477 Y47.857 E42.92204
G1 X113.477 Y47.291 E42.96534
G1 X113.477 Y46.726 E43.00873
G1 X113.477 Y46.160 E43.05203
G1 X113.296 Y45.414 E43.09533
G1 X112.709 Y44.544 E43.22127
G0 F9000 X112.694 Y43.963
G1 F900 X113.810 Y45.079 E43.41066
G0 F9000 X114.375 Y45.079
G1 F900 X112.679 Y43.383 E43.69848
G0 F9000 X112.664 Y42.801
G1 F900 X114.941 Y45.079 E44.08498
G0 F9000 X115.507 Y45.079
G1 F900 X112.649 Y42.221 E44.57000
G0 F9000 X113.491 Y45.279
G0 X113.450 Y53.103
G0 X113.349 Y53.103
G1 F900 X113.578 Y53.332 E44.60886
;LAYER:1
M106 S127
G0 F9000 X113.550 Y45.223 Z0.400
;TYPE:WALL-INNER
G1 F1800 X112.468 Y45.220 E44.65214
G1 X112.443 Y44.125 E44.69596
G1 X112.406 Y42.790 E44.74938
G1 X112.385 Y42.121 E44.77615
G1 X112.332 Y40.784 E44.82967
G1 X112.303 Y40.113 E44.85654
G1 X112.281 Y39.658 E44.87476
G1 X117.716 Y39.658 E45.09216
G1 X117.657 Y40.947 E45.14377
G1 X117.633 Y41.540 E45.16751
G1 X117.592 Y42.722 E45.21482
G1 X117.574 Y43.317 E45.23863
G1 X117.530 Y45.098 E45.30989
G1 X117.528 Y45.220 E45.31477
G1 X116.450 Y45.220 E45.35789
G1 X113.550 Y45.223 E45.47389
G0 F9000 X113.807 Y45.623
;TYPE:WALL-OUTER
G1 F1320 X113.807 Y53.824 E45.80193
G1 X113.150 Y53.828 E45.82821
G1 X113.150 Y45.620 E46.15653
G1 X112.076 Y45.620 E46.19949
G1 X112.025 Y43.470 E46.28552
G1 X111.985 Y42.135 E46.33894
G1 X111.904 Y40.132 E46.41913
G1 X111.871 Y39.463 E46.44592
G1 X111.863 Y39.258 E46.45413
G1 X112.931 Y39.258 E46.49685
G1 X112.931 Y30.397 E46.85129
G1 X113.710 Y30.398 E46.88245
G1 X113.710 Y39.258 E47.23685
G1 X116.290 Y39.258 E47.34005
G1 X116.290 Y30.402 E47.69429
G1 X117.069 Y30.394 E47.72545
G1 X117.069 Y39.258 E48.08001
G1 X118.134 Y39.258 E48.12261
G1 X118.056 Y40.964 E48.19092
G1 X118.012 Y42.146 E48.23823
G1 X117.974 Y43.328 E48.28554
G1 X117.930 Y45.106 E48.35668
G1 X117.922 Y45.620 E48.37724
G1 X116.850 Y45.620 E48.42012
G1 X116.850 Y53.828 E48.74844
G1 X116.181 Y53.825 E48.77520
G1 X116.181 Y45.623 E49.10328
G1 X113.807 Y45.623 E49.19824
G0 F9000 X113.605 Y45.634
;TYPE:SKIN
G1 F900 X113.477 Y46.045 E49.21270
G1 X113.477 Y46.610 E49.22717
G1 X113.477 Y47.176 E49.24160
G1 X113.477 Y47.742 E49.25603
G1 X113.477 Y48.307 E49.27050
G1 X113.477 Y48.873 E49.28493
G1 X113.477 Y49.439 E49.29936
G1 X113.477 Y50.005 E49.31380
G1 X113.477 Y50.570 E49.32826
G1 X113.477 Y51.136 E49.34269
G1 X113.477 Y51.702 E49.35713
G1 X113.477 Y52.267 E49.37159
G1 X113.477 Y52.833 E49.38602
G1 X113.477 Y53.399 E49.40046
G1 X113.533 Y53.626 E49.40981
G0 F9000 X113.533 Y53.525
G0 X113.466 Y45.282
G0 X116.522 Y45.282
G0 X116.481 Y53.607
G0 X116.380 Y53.607
G1 F900 X116.514 Y53.190 E49.42496
G1 X116.514 Y52.624 E49.44013
G1 X116.514 Y52.058 E49.45530
G1 X116.514 Y51.493 E49.47044
G1 X116.514 Y50.927 E49.48561
G1 X116.514 Y50.361 E49.50078
G1 X116.514 Y49.796 E49.51592
G1 X116.514 Y49.230 E49.53109
G1 X116.514 Y48.664 E49.54626
G1 X116.514 Y48.099 E49.56140
G1 X116.514 Y47.533 E49.57657
G1 X116.514 Y46.967 E49.59174
G1 X116.514 Y46.401 E49.60691
G1 X116.514 Y45.836 E49.62205
G1 X116.649 Y45.419 E49.63958
G0 F9000 X116.423 Y45.080
G1 F900 X117.414 Y44.088 E49.69567
G0 F9000 X117.400 Y44.668
G1 F900 X116.988 Y45.080 E49.71898
G0 F9000 X115.857 Y45.080
G1 F900 X117.428 Y43.508 E49.80788
G0 F9000 X117.448 Y42.923
G1 F900 X115.291 Y45.080 E49.92989
G0 F9000 X114.725 Y45.080
G1 F900 X117.470 Y42.335 E50.08517
G0 F9000 X117.493 Y41.746
G1 F900 X114.160 Y45.080 E50.27375
G0 F9000 X113.594 Y45.080
G1 F900 X117.516 Y41.158 E50.49561
G0 F9000 X117.538 Y40.570
G1 F900 X113.028 Y45.080 E50.75073
G0 F9000 X112.600 Y44.942
G1 F900 X117.561 Y39.981 E51.03137
G0 F9000 X117.179 Y39.798
G1 F900 X112.582 Y44.394 E51.29139
G0 F9000 X112.565 Y43.846
G1 F900 X116.613 Y39.798 E51.52038
G0 F9000 X116.489 Y39.356
G1 F900 X116.678 Y38.884 E51.54178
G1 X116.678 Y38.318 E51.56317
G1 X116.678 Y37.752 E51.58457
G1 X116.678 Y37.187 E51.60593
G1 X116.678 Y36.621 E51.62732
G1 X116.678 Y36.055 E51.64872
G1 X116.678 Y35.490 E51.67007
G1 X116.678 Y34.924 E51.69147
G1 X116.678 Y34.358 E51.71286
G1 X116.678 Y33.793 E51.73422
G1 X116.678 Y33.227 E51.75561
G1 X116.678 Y32.661 E51.77701
G1 X116.678 Y32.095 E51.79840
G1 X116.678 Y31.530 E51.81976
G1 X116.678 Y30.964 E51.84116
G1 X116.763 Y30.597 E51.85622
G0 F9000 X116.764 Y30.698
G0 X116.631 Y39.599
G0 X113.369 Y39.599
G0 X113.509 Y31.023
G1 F900 X113.319 Y31.495 E51.87765
G1 X113.319 Y32.060 E51.89900
G1 X113.319 Y32.626 E51.92040
G1 X113.319 Y33.192 E51.94179
G1 X113.319 Y33.758 E51.96319
G1 X113.319 Y34.323 E51.98454
G1 X113.319 Y34.889 E52.00594
G1 X113.319 Y35.455 E52.02733
G1 X113.319 Y36.020 E52.04869
G1 X113.319 Y36.586 E52.07009
G1 X113.319 Y37.152 E52.09148
G1 X113.319 Y37.717 E52.11284
G1 X113.319 Y38.283 E52.13423
G1 X113.319 Y38.849 E52.15563
G1 X113.130 Y39.321 E52.17596
G0 F9000 X113.219 Y39.798
G1 F900 X112.457 Y40.560 E52.21907
G0 F9000 X112.438 Y40.013
G1 F900 X112.654 Y39.798 E52.23126
G0 F9000 X113.785 Y39.798
G1 F900 X112.475 Y41.108 E52.30536
G0 F9000 X112.492 Y41.656
G1 F900 X114.351 Y39.798 E52.41050
G0 F9000 X114.916 Y39.798
G1 F900 X112.511 Y42.203 E52.54654
G0 F9000 X112.528 Y42.751
G1 F900 X115.482 Y39.798 E52.71362
G0 F9000 X116.048 Y39.798
G1 F900 X112.546 Y43.299 E52.91169
G0 F9000 X113.272 Y39.599
G0 X113.231 Y30.836
G0 X113.130 Y30.836
G1 F900 X113.369 Y30.597 E52.92521
;LAYER:2
M106 S255
G0 F9000 X113.272 Y39.599 Z0.500
G0 X112.174 Y40.107
;TYPE:WALL-INNER
G1 F2400 X112.147 Y39.658 E52.94321
G1 X117.852 Y39.658 E53.17141
G1 X117.817 Y40.256 E53.19537
G1 X117.786 Y40.843 E53.21888
G1 X117.757 Y41.427 E53.24227
G1 X117.707 Y42.603 E53.28935
G1 X117.686 Y43.194 E53.31301
G1 X117.668 Y43.784 E53.33662
G1 X117.651 Y44.375 E53.36027
G1 X117.636 Y44.967 E53.38396
G1 X117.631 Y45.220 E53.39408
G1 X116.450 Y45.220 E53.44132
G1 X113.550 Y45.223 E53.55732
G1 X112.368 Y45.220 E53.60460
G1 X112.340 Y44.122 E53.64853
G1 X112.297 Y42.787 E53.70196
G1 X112.270 Y42.117 E53.72878
G1 X112.241 Y41.449 E53.75553
G1 X112.210 Y40.779 E53.78235
G1 X112.174 Y40.107 E53.80927
G0 F9000 X111.775 Y40.130
;TYPE:WALL-OUTER
G1 F1500 X111.735 Y39.460 E53.83612
G1 X111.720 Y39.258 E53.84422
G1 X112.931 Y39.258 E53.89266
G1 X112.931 Y30.163 E54.25646
G1 X113.710 Y30.163 E54.28762
G1 X113.710 Y39.258 E54.65142
G1 X116.290 Y39.258 E54.75462
G1 X116.290 Y30.153 E55.11882
G1 X117.069 Y30.161 E55.14998
G1 X117.069 Y39.258 E55.51386
G1 X118.279 Y39.258 E55.56226
G1 X118.216 Y40.278 E55.60314
G1 X118.156 Y41.445 E55.64988
G1 X118.107 Y42.618 E55.69685
G1 X118.086 Y43.207 E55.72042
G1 X118.051 Y44.385 E55.76756
G1 X118.023 Y45.620 E55.81697
G1 X116.850 Y45.620 E55.86389
G1 X116.850 Y54.061 E56.20153
G1 X116.181 Y54.063 E56.22829
G1 X116.181 Y45.623 E56.56589
G1 X113.808 Y45.623 E56.66081
G1 X113.807 Y54.063 E56.99841
G1 X113.674 Y54.064 E57.00373
G1 X113.150 Y54.062 E57.02469
G1 X113.150 Y45.620 E57.36237
G1 X111.977 Y45.620 E57.40929
G1 X111.940 Y44.135 E57.46871
G1 X111.897 Y42.801 E57.52210
G1 X111.842 Y41.467 E57.57551
G1 X111.811 Y40.799 E57.60225
G1 X111.775 Y40.130 E57.62905
G0 F9000 X112.316 Y40.191
;TYPE:SKIN
G1 F900 X117.205 Y45.080 E57.90562
G0 F9000 X117.500 Y44.810
G1 F900 X112.488 Y39.798 E58.18914
G0 F9000 X113.054 Y39.798
G1 F900 X117.514 Y44.258 E58.44143
G0 F9000 X117.534 Y43.712
G1 F900 X113.620 Y39.798 E58.66284
G0 F9000 X113.299 Y39.477
G1 F900 X113.319 Y39.214 E58.67242
G1 X113.319 Y38.648 E58.69381
G1 X113.319 Y38.083 E58.71517
G1 X113.319 Y37.517 E58.73656
G1 X113.319 Y36.951 E58.75796
G1 X113.319 Y36.385 E58.77935
G1 X113.319 Y35.820 E58.80071
G1 X113.319 Y35.254 E58.82211
G1 X113.319 Y34.688 E58.84350
G1 X113.319 Y34.123 E58.86486
G1 X113.319 Y33.557 E58.88625
G1 X113.319 Y32.991 E58.90765
G1 X113.319 Y32.426 E58.92900
G1 X113.319 Y31.860 E58.95040
G1 X113.319 Y31.294 E58.97179
G1 X113.319 Y30.729 E58.99315
G1 X113.236 Y30.363 E59.00816
G0 F9000 X116.590 Y30.787
G0 X116.488 Y30.787
G1 F900 X116.678 Y31.260 E59.02967
G1 X116.678 Y31.825 E59.05109
G1 X116.678 Y32.391 E59.07254
G1 X116.678 Y32.957 E59.09399
G1 X116.678 Y33.522 E59.11540
G1 X116.678 Y34.088 E59.13685
G1 X116.678 Y34.654 E59.15831
G1 X116.678 Y35.219 E59.17972
G1 X116.678 Y35.785 E59.20117
G1 X116.678 Y36.351 E59.22262
G1 X116.678 Y36.916 E59.24404
G1 X116.678 Y37.482 E59.26549
G1 X116.678 Y38.048 E59.28694
G1 X116.678 Y38.614 E59.30839
G1 X116.678 Y39.179 E59.32980
G1 X116.694 Y39.478 E59.34178
G0 F9000 X116.448 Y39.798
G1 F900 X117.639 Y40.988 E59.40913
G0 F9000 X117.668 Y40.452
G1 F900 X117.014 Y39.798 E59.44612
G0 F9000 X117.579 Y39.798
G1 F900 X117.697 Y39.915 E59.45277
G0 F9000 X117.612 Y41.527
G1 F900 X115.882 Y39.798 E59.55060
G0 F9000 X115.317 Y39.798
G1 F900 X117.593 Y42.074 E59.67935
G0 F9000 X117.573 Y42.620
G1 F900 X114.751 Y39.798 E59.83899
G0 F9000 X114.185 Y39.798
G1 F900 X117.553 Y43.166 E60.02951
G0 F9000 X116.639 Y45.080
G1 F900 X112.346 Y40.787 E60.27236
G0 F9000 X112.376 Y41.383
G1 F900 X116.073 Y45.080 E60.48150
G0 F9000 X116.393 Y45.399
G1 F900 X116.514 Y45.803 E60.49596
G1 X116.514 Y46.369 E60.51119
G1 X116.514 Y46.935 E60.52641
G1 X116.514 Y47.500 E60.54161
G1 X116.514 Y48.066 E60.55684
G1 X116.514 Y48.632 E60.57206
G1 X116.514 Y49.197 E60.58726
G1 X116.514 Y49.763 E60.60248
G1 X116.514 Y50.329 E60.61771
G1 X116.514 Y50.894 E60.63291
G1 X116.514 Y51.460 E60.64813
G1 X116.514 Y52.026 E60.66336
G1 X116.514 Y52.591 E60.67856
G1 X116.514 Y53.157 E60.69378
G1 X116.649 Y53.575 E60.71135
G0 F9000 X113.606 Y53.361
G1 F900 X113.477 Y52.949 E60.72590
G1 X113.477 Y52.383 E60.74039
G1 X113.477 Y51.818 E60.75486
G1 X113.477 Y51.252 E60.76940
G1 X113.477 Y50.686 E60.78395
