;FLAVOR:UltiGCode
;TIME:4914
;MATERIAL:4277
;MATERIAL2:0

;Layer count: 18
;LAYER:0
M107
G0 F9000 X25.229 Y54.093 Z0.300
;TYPE:SKIRT
G1 F1200 X26.232 Y53.699 E0.12931
G1 X27.368 Y53.517 E0.26737
G1 X28.165 Y53.545 E0.36307
G1 X28.650 Y53.603 E0.42169
G1 X29.327 Y53.776 E0.50554
G1 X29.823 Y53.950 E0.56861
G1 X30.781 Y54.461 E0.69890
G1 X31.652 Y55.205 E0.83636
G1 X32.242 Y55.942 E0.94965
G1 X32.756 Y56.896 E1.07969
G1 X33.031 Y57.767 E1.18930
G1 X33.154 Y58.492 E1.27754
G1 X33.167 Y71.741 E2.86742
G1 X33.167 Y81.031 E3.98222
G1 X38.295 Y81.040 E4.59758
G1 X42.221 Y81.040 E5.06870
G1 X42.230 Y73.771 E5.94098
G1 X42.230 Y66.999 E6.75362
G1 X42.288 Y66.319 E6.83552
G1 X42.359 Y65.872 E6.88983
G1 X42.524 Y65.252 E6.96682
G1 X42.755 Y64.652 E7.04397
G1 X43.083 Y64.010 E7.13049
G1 X43.734 Y63.114 E7.26339
G1 X44.245 Y62.603 E7.35011
G1 X44.775 Y62.175 E7.43186
G1 X45.443 Y61.765 E7.52591
G1 X45.858 Y61.559 E7.58151
G1 X46.518 Y61.304 E7.66641
G1 X47.602 Y61.076 E7.79934
G1 X48.324 Y61.035 E7.88612
G1 X49.175 Y61.082 E7.98840
G1 X50.007 Y61.213 E8.08947
G1 X50.828 Y61.432 E8.19143
G1 X51.621 Y61.737 E8.29339
G1 X52.375 Y62.122 E8.39498
G1 X53.085 Y62.583 E8.49656
G1 X53.745 Y63.116 E8.59837
G1 X54.346 Y63.717 E8.70036
G1 X54.879 Y64.377 E8.80216
G1 X55.340 Y65.087 E8.90374
G1 X55.725 Y65.841 E9.00534
G1 X56.030 Y66.634 E9.10729
G1 X56.249 Y67.455 E9.20926
G1 X56.380 Y68.287 E9.31033
G1 X56.422 Y69.048 E9.40179
G1 X56.422 Y71.850 E9.73803
G1 X56.367 Y72.483 E9.81427
G1 X56.162 Y73.236 E9.90792
G1 X55.837 Y73.924 E9.99923
G1 X55.399 Y74.549 E10.09081
G1 X54.850 Y75.094 E10.18364
G1 X54.223 Y75.530 E10.27529
G1 X53.523 Y75.856 E10.36795
G1 X52.772 Y76.053 E10.46112
G1 X52.014 Y76.116 E10.55239
G1 X51.253 Y76.048 E10.64407
G1 X50.295 Y75.793 E10.76304
G1 X50.295 Y82.096 E11.51940
G1 X50.259 Y82.753 E11.59836
G1 X50.144 Y83.483 E11.68704
G1 X49.951 Y84.204 E11.77660
G1 X49.683 Y84.898 E11.86588
G1 X49.348 Y85.557 E11.95459
G1 X48.944 Y86.179 E12.04359
G1 X48.477 Y86.758 E12.13285
G1 X47.914 Y87.321 E12.22840
G1 X47.093 Y87.944 E12.35207
G1 X46.143 Y88.472 E12.48250
G1 X45.394 Y88.761 E12.57883
G1 X44.673 Y88.954 E12.66840
G1 X43.863 Y89.082 E12.76681
G1 X37.114 Y89.105 E13.57669
G1 X32.113 Y89.105 E14.17681
G1 X31.454 Y89.069 E14.25601
G1 X30.724 Y88.954 E14.34469
G1 X29.958 Y88.749 E14.43984
G1 X29.103 Y88.390 E14.55112
G1 X28.644 Y88.154 E14.61306
G1 X28.028 Y87.754 E14.70119
G1 X27.410 Y87.255 E14.79651
G1 X26.704 Y86.504 E14.92020
G1 X26.076 Y85.610 E15.05130
G1 X25.712 Y84.894 E15.14769
G1 X25.446 Y84.201 E15.23676
G1 X25.255 Y83.486 E15.32557
G1 X25.124 Y82.674 E15.42427
G1 X25.093 Y63.849 E17.68328
G1 X25.051 Y63.829 E17.68886
G1 X24.473 Y63.469 E17.77057
G1 X23.649 Y62.754 E17.90149
G1 X22.964 Y61.836 E18.03893
G1 X22.614 Y61.112 E18.13543
G1 X22.428 Y60.617 E18.19889
G1 X22.223 Y59.648 E18.31774
G1 X22.188 Y58.917 E18.40556
G1 X22.264 Y58.104 E18.50355
G1 X22.470 Y57.270 E18.60664
G1 X22.716 Y56.667 E18.68479
G1 X23.037 Y56.071 E18.76602
G1 X23.654 Y55.271 E18.88726
G1 X24.183 Y54.773 E18.97444
G1 X24.772 Y54.357 E19.06097
G1 X25.229 Y54.093 E19.12430
G10
G0 F9000 X26.889 Y57.523
;TYPE:WALL-INNER
G11
G1 F1200 X27.238 Y57.386 E19.16929
G1 X27.601 Y57.328 E19.21341
G1 X27.952 Y57.347 E19.25559
G1 X28.294 Y57.441 E19.29815
G1 X28.629 Y57.619 E19.34367
G1 X28.906 Y57.856 E19.38742
G1 X29.061 Y58.050 E19.41722
G1 X29.241 Y58.384 E19.46275
G1 X29.327 Y58.657 E19.49709
G1 X29.354 Y58.815 E19.51633
G1 X29.367 Y82.025 E22.30153
G1 X29.382 Y82.316 E22.33650
G1 X29.504 Y82.882 E22.40598
G1 X29.616 Y83.176 E22.44373
G1 X29.905 Y83.676 E22.51303
G1 X30.301 Y84.116 E22.58407
G1 X30.781 Y84.465 E22.65528
G1 X31.307 Y84.698 E22.72432
G1 X31.608 Y84.779 E22.76172
G1 X31.917 Y84.829 E22.79928
G1 X38.288 Y84.840 E23.56380
G1 X43.213 Y84.840 E24.15480
G1 X43.511 Y84.826 E24.19060
G1 X44.060 Y84.708 E24.25799
G1 X44.351 Y84.597 E24.29536
G1 X44.629 Y84.455 E24.33282
G1 X45.097 Y84.116 E24.40217
G1 X45.483 Y83.687 E24.47142
G1 X45.661 Y83.412 E24.51073
G1 X45.888 Y82.900 E24.57794
G1 X45.969 Y82.599 E24.61534
G1 X46.019 Y82.291 E24.65279
G1 X46.030 Y67.164 E26.46803
G1 X46.083 Y66.656 E26.52932
G1 X46.143 Y66.429 E26.55749
G1 X46.231 Y66.200 E26.58693
G1 X46.331 Y66.004 E26.61334
G1 X46.633 Y65.589 E26.67493
G1 X46.967 Y65.288 E26.72888
G1 X47.288 Y65.091 E26.77408
G1 X47.386 Y65.043 E26.78717
G1 X47.604 Y64.959 E26.81521
G1 X48.103 Y64.853 E26.87642
G1 X48.327 Y64.841 E26.90334
G1 X48.769 Y64.865 E26.95646
G1 X49.219 Y64.936 E27.01113
G1 X49.654 Y65.052 E27.06515
G1 X50.067 Y65.211 E27.11826
G1 X50.478 Y65.421 E27.17364
G1 X50.854 Y65.665 E27.22743
G1 X51.198 Y65.943 E27.28050
G1 X51.519 Y66.264 E27.33498
G1 X51.797 Y66.608 E27.38806
G1 X52.041 Y66.984 E27.44184
G1 X52.251 Y67.395 E27.49723
G1 X52.410 Y67.808 E27.55033
G1 X52.526 Y68.243 E27.60436
G1 X52.597 Y68.693 E27.65903
G1 X52.622 Y71.683 E28.01784
G1 X52.611 Y71.815 E28.03373
G1 X52.583 Y71.915 E28.04620
G1 X52.541 Y72.005 E28.05811
G1 X52.480 Y72.092 E28.07086
G1 X52.405 Y72.167 E28.08359
G1 X52.323 Y72.223 E28.09551
G1 X52.227 Y72.268 E28.10823
G1 X52.146 Y72.289 E28.11827
G1 X52.152 Y71.131 E28.25723
G1 X52.157 Y69.122 E28.49831
G1 X52.138 Y68.736 E28.54469
G1 X52.075 Y68.339 E28.59293
G1 X51.970 Y67.951 E28.64116
G1 X51.827 Y67.577 E28.68921
G1 X51.645 Y67.219 E28.73740
G1 X51.426 Y66.883 E28.78553
G1 X51.173 Y66.571 E28.83373
G1 X50.891 Y66.289 E28.88159
G1 X50.579 Y66.036 E28.92979
G1 X50.243 Y65.817 E28.97792
G1 X49.885 Y65.635 E29.02611
G1 X49.511 Y65.492 E29.07416
G1 X49.123 Y65.387 E29.12240
G1 X48.726 Y65.324 E29.17063
G1 X48.323 Y65.304 E29.21905
G1 X48.087 Y65.319 E29.24743
G1 X47.850 Y65.365 E29.27640
G1 X47.624 Y65.443 E29.30509
G1 X47.408 Y65.548 E29.33391
G1 X47.192 Y65.693 E29.36513
G1 X46.867 Y66.018 E29.42028
G1 X46.639 Y66.416 E29.47533
G1 X46.555 Y66.661 E29.50641
G1 X46.505 Y66.916 E29.53759
G1 X46.495 Y81.995 E31.34707
G1 X46.476 Y82.346 E31.38925
G1 X46.421 Y82.694 E31.43153
G1 X46.332 Y83.027 E31.47289
G1 X46.208 Y83.347 E31.51407
G1 X46.050 Y83.658 E31.55593
G1 X45.865 Y83.943 E31.59671
G1 X45.644 Y84.217 E31.63895
G1 X45.413 Y84.448 E31.67815
G1 X45.006 Y84.757 E31.73947
G1 X44.532 Y85.020 E31.80452
G1 X44.217 Y85.142 E31.84506
G1 X43.884 Y85.231 E31.88642
G1 X43.554 Y85.283 E31.92651
G1 X37.107 Y85.305 E32.70015
G1 X32.212 Y85.305 E33.28755
G1 X31.861 Y85.286 E33.32974
G1 X31.513 Y85.231 E33.37201
G1 X31.185 Y85.143 E33.41277
G1 X30.722 Y84.949 E33.47301
G1 X30.546 Y84.859 E33.49673
G1 X30.264 Y84.675 E33.53713
G1 X30.000 Y84.462 E33.57784
G1 X29.659 Y84.099 E33.63760
G1 X29.341 Y83.646 E33.70402
G1 X29.188 Y83.345 E33.74454
G1 X29.067 Y83.031 E33.78492
G1 X28.975 Y82.687 E33.82765
G1 X28.924 Y82.368 E33.86642
G1 X28.888 Y60.586 E36.48026
G1 X28.183 Y60.632 E36.56504
G1 X27.749 Y60.692 E36.61762
G1 X27.496 Y60.680 E36.64801
G1 X27.202 Y60.624 E36.68392
G1 X26.871 Y60.486 E36.72696
G1 X26.737 Y60.402 E36.74594
G1 X26.451 Y60.154 E36.79136
G1 X26.226 Y59.853 E36.83646
G1 X26.086 Y59.547 E36.87684
G1 X26.004 Y59.157 E36.92466
G1 X25.996 Y59.003 E36.94317
G1 X26.020 Y58.747 E36.97402
G1 X26.094 Y58.450 E37.01075
G1 X26.237 Y58.144 E37.05128
G1 X26.477 Y57.832 E37.09852
G1 X26.593 Y57.723 E37.11762
G1 X26.889 Y57.523 E37.16049
G0 F9000 X26.343 Y57.410
;TYPE:WALL-OUTER
G1 F1200 X26.709 Y57.164 E37.21341
G1 X27.134 Y56.997 E37.26820
G1 X27.578 Y56.927 E37.32214
G1 X28.023 Y56.953 E37.37563
G1 X28.456 Y57.074 E37.42958
G1 X28.853 Y57.286 E37.48359
G1 X29.199 Y57.581 E37.53815
G1 X29.394 Y57.825 E37.57563
G1 X29.610 Y58.226 E37.63029
G1 X29.719 Y58.569 E37.67348
G1 X29.754 Y58.777 E37.69879
G1 X29.767 Y82.014 E40.48723
G1 X29.780 Y82.267 E40.51763
G1 X29.885 Y82.760 E40.57812
G1 X29.978 Y83.003 E40.60934
G1 X30.230 Y83.439 E40.66977
G1 X30.570 Y83.817 E40.73078
G1 X30.982 Y84.116 E40.79187
G1 X31.441 Y84.320 E40.85214
G1 X31.692 Y84.388 E40.88335
G1 X31.949 Y84.429 E40.91458
G1 X43.204 Y84.440 E42.26518
G1 X43.459 Y84.428 E42.29581
G1 X43.946 Y84.323 E42.35560
G1 X44.188 Y84.231 E42.38666
G1 X44.420 Y84.113 E42.41790
G1 X44.828 Y83.817 E42.47839
G1 X45.164 Y83.443 E42.53872
G1 X45.308 Y83.221 E42.57047
G1 X45.510 Y82.766 E42.63021
G1 X45.578 Y82.515 E42.66142
G1 X45.619 Y82.259 E42.69253
G1 X45.630 Y67.136 E44.50729
G1 X45.665 Y66.737 E44.55535
G1 X45.692 Y66.566 E44.57613
G1 X45.866 Y66.037 E44.64295
G1 X45.988 Y65.797 E44.67526
G1 X46.332 Y65.324 E44.74544
G1 X46.738 Y64.959 E44.81096
G1 X47.225 Y64.676 E44.87855
G1 X47.489 Y64.574 E44.91251
G1 X48.050 Y64.456 E44.98130
G1 X48.326 Y64.441 E45.01447
G1 X48.815 Y64.467 E45.07323
G1 X49.306 Y64.545 E45.13289
G1 X49.772 Y64.669 E45.19076
G1 X50.238 Y64.849 E45.25071
G1 X50.670 Y65.069 E45.30888
G1 X51.088 Y65.340 E45.36866
G1 X51.470 Y65.649 E45.42762
G1 X51.813 Y65.992 E45.48583
G1 X52.121 Y66.373 E45.54462
G1 X52.393 Y66.792 E45.60456
G1 X52.613 Y67.224 E45.66274
G1 X52.793 Y67.690 E45.72269
G1 X52.917 Y68.156 E45.78055
G1 X52.995 Y68.647 E45.84021
G1 X53.022 Y69.147 E45.90030
G1 X53.022 Y71.712 E46.20810
G1 X53.007 Y71.883 E46.22870
G1 X52.961 Y72.051 E46.24960
G1 X52.886 Y72.209 E46.27059
G1 X52.787 Y72.351 E46.29136
G1 X52.663 Y72.474 E46.31232
G1 X52.521 Y72.573 E46.33309
G1 X52.365 Y72.645 E46.35371
G1 X52.197 Y72.689 E46.37455
G1 X52.026 Y72.704 E46.39515
G1 X51.843 Y72.687 E46.41720
G1 X51.746 Y72.662 E46.42922
G1 X51.757 Y69.132 E46.85282
G1 X51.739 Y68.777 E46.89548
G1 X51.683 Y68.422 E46.93861
G1 X51.589 Y68.075 E46.98175
G1 X51.461 Y67.740 E47.02478
G1 X51.298 Y67.420 E47.06788
G1 X51.102 Y67.118 E47.11108
G1 X50.876 Y66.839 E47.15417
G1 X50.623 Y66.586 E47.19710
G1 X50.344 Y66.360 E47.24019
G1 X50.042 Y66.164 E47.28339
G1 X49.722 Y66.001 E47.32648
G1 X49.387 Y65.873 E47.36952
G1 X49.040 Y65.779 E47.41266
G1 X48.685 Y65.723 E47.45579
G1 X48.325 Y65.705 E47.49904
G1 X48.138 Y65.716 E47.52152
G1 X47.954 Y65.752 E47.54402
G1 X47.777 Y65.813 E47.56648
G1 X47.609 Y65.895 E47.58892
G1 X47.447 Y66.004 E47.61235
G1 X47.188 Y66.263 E47.65630
G1 X47.005 Y66.582 E47.70043
G1 X46.942 Y66.765 E47.72366
G1 X46.905 Y66.955 E47.74689
G1 X46.895 Y81.998 E49.55205
G1 X46.874 Y82.393 E49.59951
G1 X46.812 Y82.781 E49.64666
G1 X46.715 Y83.146 E49.69199
G1 X46.572 Y83.515 E49.73947
G1 X46.400 Y83.853 E49.78498
G1 X46.189 Y84.178 E49.83148
G1 X45.938 Y84.489 E49.87944
G1 X45.676 Y84.751 E49.92390
G1 X45.232 Y85.088 E49.99079
G1 X44.699 Y85.384 E50.06395
G1 X44.336 Y85.525 E50.11068
G1 X43.971 Y85.622 E50.15600
G1 X43.586 Y85.683 E50.20278
G1 X32.210 Y85.705 E51.56790
G1 X31.814 Y85.684 E51.61549
G1 X31.426 Y85.622 E51.66264
G1 X31.057 Y85.524 E51.70846
G1 X30.549 Y85.310 E51.77460
G1 X30.029 Y84.999 E51.84731
G1 X29.727 Y84.755 E51.89390
G1 X29.348 Y84.352 E51.96029
G1 X28.996 Y83.850 E52.03386
G1 X28.825 Y83.515 E52.07900
G1 X28.683 Y83.146 E52.12644
G1 X28.584 Y82.773 E52.17275
G1 X28.524 Y82.401 E52.21797
G1 X28.489 Y61.013 E54.78453
G1 X28.223 Y61.030 E54.81652
G1 X27.770 Y61.092 E54.87138
G1 X27.445 Y61.077 E54.91043
G1 X27.100 Y61.011 E54.95258
G1 X26.684 Y60.840 E55.00655
G1 X26.496 Y60.723 E55.03312
G1 X26.155 Y60.426 E55.08739
G1 X25.884 Y60.063 E55.14175
G1 X25.742 Y59.770 E55.18082
G1 X25.703 Y59.665 E55.19426
G1 X25.606 Y59.210 E55.25009
G1 X25.596 Y58.992 E55.27627
G1 X25.626 Y58.673 E55.31472
G1 X25.711 Y58.326 E55.35759
G1 X25.795 Y58.120 E55.38429
G1 X25.900 Y57.925 E55.41087
G1 X26.178 Y57.564 E55.46554
G1 X26.343 Y57.410 E55.49263
G0 F9000 X26.558 Y57.954
;TYPE:SKIN
G1 F900 X29.215 Y60.611 E55.94353
G0 F9000 X29.028 Y60.990
G1 F900 X29.122 Y61.366 E55.97504
G1 X29.123 Y61.932 E56.00663
G1 X29.123 Y62.498 E56.03804
G1 X29.124 Y63.065 E56.06934
G1 X29.124 Y63.631 E56.10041
G1 X29.125 Y64.198 E56.13154
G1 X29.126 Y64.764 E56.16244
G1 X29.126 Y65.330 E56.19318
G1 X29.127 Y65.897 E56.22414
G1 X29.128 Y66.463 E56.25470
G1 X29.128 Y67.029 E56.28526
G1 X29.129 Y67.595 E56.31583
G1 X29.129 Y68.162 E56.34611
G1 X29.130 Y68.728 E56.37633
G1 X29.130 Y69.294 E56.40639
G1 X29.131 Y69.860 E56.43644
G1 X29.132 Y70.427 E56.46638
G1 X29.133 Y70.994 E56.49632
G1 X29.133 Y71.559 E56.52598
G1 X29.134 Y72.126 E56.55558
G1 X29.134 Y72.692 E56.58495
G1 X29.135 Y73.259 E56.61455
G1 X29.136 Y73.825 E56.64375
G1 X29.136 Y74.391 E56.67279
G1 X29.137 Y74.957 E56.70183
G1 X29.137 Y75.523 E56.73069
G1 X29.138 Y76.090 E56.75978
G1 X29.139 Y76.656 E56.78864
G1 X29.139 Y77.223 E56.81722
G1 X29.140 Y77.789 E56.84575
G1 X29.140 Y78.355 E56.87410
G1 X29.141 Y78.921 E56.90229
G1 X29.142 Y79.488 E56.93053
G1 X29.226 Y79.854 E56.97559
G0 F9000 X28.824 Y60.653
G0 X27.989 Y60.516
G1 F900 X26.174 Y58.701 E57.28361
G0 F9000 X26.324 Y58.285
G1 F900 X28.508 Y60.469 E57.65424
G0 F9000 X29.214 Y60.044
G1 F900 X26.872 Y57.702 E58.05169
G0 F9000 X27.263 Y57.527
G1 F900 X29.214 Y59.478 E58.38279
G0 F9000 X29.214 Y58.913
G1 F900 X27.779 Y57.477 E58.62640
G0 F9000 X26.169 Y59.261
G1 F900 X27.432 Y60.524 E58.84074
G0 F9000 X29.355 Y58.810
G0 X29.505 Y82.882
G0 X30.782 Y84.463
G0 X31.918 Y84.828
G0 X44.059 Y84.707
G0 X45.661 Y83.411
G0 X46.018 Y82.290
G0 X46.307 Y66.389
G1 F900 X46.327 Y66.691 E58.86507
G1 X46.266 Y67.197 E58.89244
G1 X46.266 Y67.763 E58.92555
G1 X46.266 Y68.327 E58.95855
G1 X46.266 Y68.893 E58.99166
G1 X46.265 Y69.458 E59.02454
G1 X46.265 Y70.023 E59.05776
G1 X46.264 Y70.589 E59.09087
G1 X46.264 Y71.154 E59.12393
G1 X46.264 Y71.719 E59.15715
G1 X46.263 Y72.284 E59.19037
G1 X46.263 Y72.850 E59.22348
G1 X46.262 Y73.415 E59.25670
G1 X46.262 Y73.981 E59.28982
G1 X46.262 Y74.546 E59.32304
G1 X46.261 Y75.111 E59.35626
G1 X46.261 Y75.676 E59.38948
G1 X46.260 Y76.241 E59.42270
G1 X46.260 Y76.807 E59.45581
G1 X46.260 Y77.372 E59.48904
G1 X46.259 Y77.938 E59.52215
G1 X46.259 Y78.503 E59.55520
G1 X46.259 Y79.068 E59.58842
G1 X46.258 Y79.633 E59.62164
G1 X46.257 Y80.198 E59.65487
G1 X46.257 Y80.764 E59.68815
G1 X46.257 Y81.329 E59.72137
G1 X46.257 Y81.895 E59.75448
G1 X46.225 Y82.429 E59.78513
G1 X46.121 Y82.890 E59.81051
G1 X45.965 Y83.300 E59.83459
G1 X45.829 Y83.730 E59.85732
G1 X45.456 Y83.923 E59.87874
G1 X45.305 Y84.337 E59.90135
G1 X44.860 Y84.458 E59.92307
G1 X44.635 Y84.798 E59.94374
G1 X44.173 Y84.902 E59.96704
G1 X43.718 Y85.013 E59.99331
G1 X43.196 Y85.056 E60.02160
G1 X42.634 Y85.061 E60.04925
G1 X42.069 Y85.061 E60.07722
G1 X41.504 Y85.061 E60.10535
G1 X40.938 Y85.061 E60.13388
G1 X40.373 Y85.062 E60.16253
G1 X39.808 Y85.062 E60.19168
G1 X39.242 Y85.062 E60.22105
G1 X38.676 Y85.063 E60.25077
G1 X38.111 Y85.063 E60.28043
G1 X37.546 Y85.064 E60.31043
G1 X36.981 Y85.064 E60.34094
G1 X36.415 Y85.064 E60.37185
G1 X35.850 Y85.064 E60.40304
G1 X35.284 Y85.065 E60.43445
G1 X34.719 Y85.065 E60.46598
G1 X34.154 Y85.065 E60.49784
G1 X33.588 Y85.065 E60.53010
G1 X33.023 Y85.066 E60.56248
G1 X32.457 Y85.066 E60.59525
G1 X31.864 Y85.039 E60.62819
G1 X31.413 Y84.871 E60.68595
G0 F9000 X30.809 Y84.832
G1 F900 X29.367 Y83.390 E60.93066
G0 F9000 X29.344 Y82.801
G1 F900 X29.163 Y82.338 E60.97287
G1 X29.144 Y81.753 E61.00149
G1 X29.144 Y81.187 E61.02917
G1 X29.143 Y80.620 E61.05723
G1 X29.060 Y80.255 E61.10215
G0 F9000 X29.617 Y83.175
G0 X30.782 Y84.463
G0 X31.918 Y84.828
G0 X44.059 Y84.707
G0 X45.661 Y83.411
G0 X46.018 Y82.290
G0 X46.497 Y66.013
G1 F900 X46.749 Y65.982 E61.12485
G1 X46.884 Y65.551 E61.14721
G1 X47.270 Y65.372 E61.16852
G1 X47.661 Y65.197 E61.19166
G1 X48.121 Y65.092 E61.21586
G1 X48.694 Y65.099 E61.24749
G1 X49.380 Y65.219 E61.28406
G1 X49.956 Y65.512 E61.36160
G0 F9000 X50.856 Y65.847
G1 F900 X51.614 Y66.605 E61.49024
G0 F9000 X51.947 Y67.503
G1 F900 X52.241 Y68.080 E61.54425
G1 X52.361 Y68.766 E61.58081
G1 X52.377 Y69.348 E61.60963
G1 X52.379 Y69.915 E61.63855
G1 X52.380 Y70.482 E61.66849
G1 X52.382 Y71.049 E61.69961
G1 X52.383 Y71.616 E61.73193
G1 X52.419 Y71.935 E61.77046
;LAYER:1
M106 S127
G0 F9000 X52.712 Y71.682 Z0.400
;TYPE:WALL-INNER
G1 F1800 X52.699 Y71.826 E61.77624
G1 X52.662 Y71.954 E61.78157
G1 X52.605 Y72.070 E61.78674
G1 X52.551 Y72.148 E61.79053
G1 X52.455 Y72.239 E61.79583
G1 X52.354 Y72.308 E61.80072
G1 X52.244 Y72.357 E61.80554
G1 X52.148 Y72.382 E61.80950
G1 X52.064 Y72.389 E61.81288
