;FLAVOR:UltiGCode
;TIME:4329
;MATERIAL:3993
;MATERIAL2:0

;Layer count: 242
;LAYER:0
M107
G0 F9000 X37.244 Y47.395 Z0.300
;TYPE:SKIRT
G1 F1200 X65.534 Y47.395 E3.39480
G1 X68.516 Y50.377 E3.90086
G1 X68.516 Y57.721 E4.78214
G1 X65.534 Y60.703 E5.28820
G1 X63.279 Y60.703 E5.55880
G1 X63.279 Y63.379 E5.87992
G1 X39.499 Y63.379 E8.73352
G1 X39.499 Y60.703 E9.05464
G1 X37.244 Y60.703 E9.32524
G1 X34.262 Y57.721 E9.83131
G1 X34.262 Y50.377 E10.71259
G1 X37.244 Y47.395 E11.21865
G0 F9000 X37.410 Y47.795
G1 F1200 X65.368 Y47.795 E14.57361
G1 X68.116 Y50.543 E15.03996
G1 X68.116 Y57.555 E15.88140
G1 X65.368 Y60.303 E16.34775
G1 X62.879 Y60.303 E16.64643
G1 X62.879 Y62.979 E16.96755
G1 X39.899 Y62.979 E19.72515
G1 X39.899 Y60.303 E20.04627
G1 X37.410 Y60.303 E20.34495
G1 X34.662 Y57.555 E20.81130
G1 X34.662 Y50.543 E21.65274
G1 X37.410 Y47.795 E22.11909
G10
G0 F9000 X43.248 Y51.734
;TYPE:FILL
G11
G1 F1200 X43.818 Y52.303 E22.21574
G10
G0 F9000 X43.576 Y55.418
G11
G1 F1200 X43.374 Y55.620 E22.25002
G10
G0 F9000 X48.906 Y51.734
G11
G1 F1200 X49.241 Y52.069 E22.30687
G10
G0 F9000 X54.563 Y51.735
G11
G1 F1200 X54.694 Y51.865 E22.32902
G10
G0 F9000 X58.498 Y51.810
G11
G1 F1200 X58.573 Y51.734 E22.34183
G0 F9000 X58.810 Y55.981
G1 F1200 X59.396 Y56.363 E22.40647
G1 X59.823 Y56.142 E22.46416
G0 F9000 X59.946 Y56.067
;TYPE:WALL-INNER
G1 F1200 X60.230 Y56.303 E22.50847
G1 X60.554 Y56.503 E22.55417
G1 X58.072 Y56.503 E22.85201
G1 X58.072 Y57.526 E22.97477
G1 X59.026 Y59.179 E23.20379
G1 X43.752 Y59.179 E25.03667
G1 X44.615 Y57.683 E25.24392
G1 X44.706 Y57.534 E25.26487
G1 X44.706 Y56.503 E25.38859
G1 X42.222 Y56.503 E25.68667
G1 X42.553 Y56.300 E25.73326
G1 X42.884 Y56.016 E25.78560
G1 X43.156 Y55.700 E25.83563
G1 X43.351 Y55.397 E25.87887
G1 X43.512 Y55.059 E25.92380
G1 X43.535 Y54.979 E25.93379
G1 X43.647 Y55.258 E25.96987
G1 X43.859 Y55.626 E26.02083
G1 X44.134 Y55.961 E26.07284
G1 X44.404 Y56.214 E26.11724
G1 X44.738 Y56.443 E26.16584
G1 X45.069 Y56.613 E26.21049
G1 X45.495 Y56.752 E26.26426
G1 X45.863 Y56.816 E26.30908
G1 X46.239 Y56.831 E26.35424
G1 X46.689 Y56.780 E26.40859
G1 X47.094 Y56.668 E26.45901
G1 X47.476 Y56.495 E26.50933
G1 X47.791 Y56.300 E26.55379
G1 X48.121 Y56.015 E26.60611
G1 X48.391 Y55.701 E26.65581
G1 X48.589 Y55.398 E26.69924
G1 X48.747 Y55.059 E26.74412
G1 X48.771 Y54.977 E26.75438
G1 X48.882 Y55.258 E26.79063
G1 X49.096 Y55.626 E26.84172
G1 X49.370 Y55.961 E26.89365
G1 X49.641 Y56.214 E26.93814
G1 X49.974 Y56.443 E26.98664
G1 X50.305 Y56.613 E27.03129
G1 X50.732 Y56.752 E27.08517
G1 X51.099 Y56.816 E27.12988
G1 X51.474 Y56.831 E27.17492
G1 X51.924 Y56.780 E27.22926
G1 X52.331 Y56.668 E27.27992
G1 X52.712 Y56.495 E27.33013
G1 X53.025 Y56.300 E27.37438
G1 X53.357 Y56.015 E27.42689
G1 X53.626 Y55.700 E27.47660
G1 X53.824 Y55.398 E27.51993
G1 X53.982 Y55.059 E27.56481
G1 X54.006 Y54.978 E27.57495
G1 X54.033 Y55.066 E27.58599
G1 X54.216 Y55.444 E27.63639
G1 X54.461 Y55.797 E27.68795
G1 X54.709 Y56.066 E27.73186
G1 X54.992 Y56.303 E27.77615
G1 X55.351 Y56.524 E27.82674
G1 X55.772 Y56.697 E27.88136
G1 X56.170 Y56.792 E27.93046
G1 X56.542 Y56.830 E27.97534
G1 X56.955 Y56.812 E28.02494
G1 X57.366 Y56.732 E28.07519
G1 X57.758 Y56.590 E28.12522
G1 X58.086 Y56.418 E28.16966
G1 X58.433 Y56.165 E28.22120
G1 X58.738 Y55.858 E28.27313
G1 X58.955 Y55.571 E28.31630
G1 X59.154 Y55.211 E28.36566
G1 X59.241 Y54.975 E28.39585
G1 X59.269 Y55.066 E28.40727
G1 X59.453 Y55.444 E28.45772
G1 X59.696 Y55.797 E28.50915
G1 X59.946 Y56.067 E28.55330
G10
G0 F9000 X59.266 Y53.040
G11
G1 F1200 X59.243 Y53.121 E28.56341
G1 X59.131 Y52.842 E28.59948
G1 X58.919 Y52.474 E28.65045
G1 X58.644 Y52.138 E28.70255
G1 X58.378 Y51.889 E28.74627
G1 X58.081 Y51.677 E28.79006
G1 X57.921 Y51.595 E28.81164
G1 X60.553 Y51.595 E29.12748
G1 X60.174 Y51.840 E29.18163
G1 X59.892 Y52.084 E29.22638
G1 X59.622 Y52.399 E29.27617
G1 X59.427 Y52.702 E29.31940
G1 X59.266 Y53.040 E29.36433
G10
G0 F9000 X54.938 Y51.840
G11
G1 F1200 X54.656 Y52.084 E29.40908
G1 X54.387 Y52.399 E29.45879
G1 X54.189 Y52.701 E29.50212
G1 X54.031 Y53.040 E29.54700
G1 X54.007 Y53.121 E29.55714
G1 X53.980 Y53.033 E29.56819
G1 X53.799 Y52.659 E29.61805
G1 X53.595 Y52.354 E29.66208
G1 X53.307 Y52.034 E29.71374
G1 X53.020 Y51.795 E29.75856
G1 X52.697 Y51.595 E29.80415
G1 X55.316 Y51.595 E30.11843
G1 X54.938 Y51.840 E30.17248
G10
G0 F9000 X49.928 Y51.680
G11
G1 F1200 X49.585 Y51.932 E30.22356
G1 X49.319 Y52.191 E30.26811
G1 X49.061 Y52.526 E30.31885
G1 X48.860 Y52.888 E30.36854
G1 X48.773 Y53.123 E30.39861
G1 X48.745 Y53.033 E30.40992
G1 X48.564 Y52.659 E30.45978
G1 X48.360 Y52.353 E30.50391
G1 X48.071 Y52.034 E30.55556
G1 X47.786 Y51.795 E30.60020
G1 X47.462 Y51.595 E30.64589
G1 X50.091 Y51.595 E30.96137
G1 X49.928 Y51.680 E30.98343
G10
G0 F9000 X44.692 Y51.680
G11
G1 F1200 X44.349 Y51.932 E31.03450
G1 X44.082 Y52.191 E31.07914
G1 X43.824 Y52.526 E31.12988
G1 X43.624 Y52.889 E31.17961
G1 X43.537 Y53.124 E31.20968
G1 X43.509 Y53.033 E31.22111
G1 X43.327 Y52.660 E31.27091
G1 X43.124 Y52.354 E31.31498
G1 X42.835 Y52.033 E31.36681
G1 X42.548 Y51.795 E31.41155
G1 X42.225 Y51.595 E31.45714
G1 X44.855 Y51.595 E31.77274
G1 X44.692 Y51.680 E31.79480
G10
G0 F9000 X39.455 Y51.680
G11
G1 F1200 X39.112 Y51.932 E31.84587
G1 X38.846 Y52.191 E31.89042
G1 X38.588 Y52.526 E31.94116
G1 X38.462 Y52.753 E31.97232
G1 X38.462 Y52.116 E32.04876
G1 X38.983 Y51.595 E32.13718
G1 X39.618 Y51.595 E32.21338
G1 X39.455 Y51.680 E32.23544
G10
G0 F9000 X38.624 Y55.626
G11
G1 F1200 X38.898 Y55.961 E32.28737
G1 X39.167 Y56.213 E32.33160
G1 X39.501 Y56.443 E32.38027
G1 X39.618 Y56.503 E32.39604
G1 X38.983 Y56.503 E32.47224
G1 X38.462 Y55.982 E32.56066
G1 X38.462 Y55.349 E32.63662
G1 X38.624 Y55.626 E32.67513
G10
G0 F9000 X63.323 Y56.417
G11
G1 F1200 X63.669 Y56.165 E32.72649
G1 X63.974 Y55.858 E32.77842
G1 X64.191 Y55.571 E32.82160
G1 X64.316 Y55.347 E32.85238
G1 X64.316 Y55.982 E32.92858
G1 X63.795 Y56.503 E33.01700
G1 X63.159 Y56.503 E33.09332
G1 X63.323 Y56.417 E33.11554
G10
G0 F9000 X64.155 Y52.473
G11
G1 F1200 X63.880 Y52.138 E33.16755
G1 X63.614 Y51.889 E33.21127
G1 X63.318 Y51.677 E33.25496
G1 X63.158 Y51.595 E33.27654
G1 X63.795 Y51.595 E33.35298
G1 X64.316 Y52.116 E33.44140
G1 X64.316 Y52.752 E33.51772
G1 X64.155 Y52.473 E33.55637
G0 F9000 X63.825 Y52.702
;TYPE:WALL-OUTER
G1 F1200 X63.587 Y52.412 E33.60139
G1 X63.360 Y52.199 E33.63874
G1 X63.109 Y52.020 E33.67574
G1 X62.793 Y51.857 E33.71841
G1 X62.458 Y51.744 E33.76083
G1 X62.144 Y51.684 E33.79919
G1 X61.797 Y51.669 E33.84087
G1 X61.748 Y51.670 E33.84675
G1 X61.401 Y51.712 E33.88870
G1 X61.057 Y51.808 E33.93155
G1 X60.767 Y51.933 E33.96945
G1 X60.415 Y52.161 E34.01978
G1 X60.177 Y52.367 E34.05755
G1 X59.943 Y52.639 E34.10060
G1 X59.777 Y52.897 E34.13742
G1 X59.641 Y53.183 E34.17542
G1 X59.532 Y53.556 E34.22205
G1 X59.485 Y53.871 E34.26027
G1 X59.483 Y54.193 E34.29891
G1 X59.549 Y54.614 E34.35005
G1 X59.642 Y54.919 E34.38831
G1 X59.800 Y55.242 E34.43146
G1 X60.009 Y55.546 E34.47573
G1 X60.222 Y55.776 E34.51335
G1 X60.464 Y55.978 E34.55118
G1 X60.770 Y56.167 E34.59434
G1 X61.131 Y56.315 E34.64116
G1 X61.473 Y56.397 E34.68336
G1 X61.790 Y56.429 E34.72159
G1 X62.145 Y56.414 E34.76423
G1 X62.495 Y56.345 E34.80704
G1 X62.833 Y56.223 E34.85016
G1 X63.111 Y56.077 E34.88784
G1 X63.408 Y55.860 E34.93198
G1 X63.671 Y55.595 E34.97678
G1 X63.855 Y55.352 E35.01336
G1 X64.026 Y55.045 E35.05553
G1 X64.148 Y54.714 E35.09786
G1 X64.218 Y54.402 E35.13623
G1 X64.244 Y54.048 E35.17883
G1 X64.210 Y53.659 E35.22568
G1 X64.124 Y53.311 E35.26870
G1 X64.007 Y53.017 E35.30667
G1 X63.825 Y52.702 E35.35033
G0 F9000 X64.716 Y51.950
G1 F1200 X64.716 Y56.148 E35.85409
G1 X63.961 Y56.903 E35.98221
G1 X58.472 Y56.903 E36.64089
G1 X58.472 Y57.419 E36.70281
G1 X59.479 Y59.165 E36.94468
G1 X59.479 Y59.579 E36.99436
G1 X43.299 Y59.579 E38.93596
G1 X43.299 Y59.163 E38.98588
G1 X44.266 Y57.487 E39.21808
G1 X44.306 Y57.421 E39.22734
G1 X44.306 Y56.903 E39.28950
G1 X38.817 Y56.903 E39.94818
G1 X38.062 Y56.148 E40.07631
G1 X38.062 Y51.950 E40.58007
G1 X38.817 Y51.195 E40.70820
G1 X63.961 Y51.195 E43.72548
G1 X64.716 Y51.950 E43.85360
G10
G0 F9000 X58.888 Y53.311
G11
G1 F1200 X58.770 Y53.017 E43.89162
G1 X58.589 Y52.702 E43.93521
G1 X58.351 Y52.412 E43.98023
G1 X58.124 Y52.199 E44.01759
G1 X57.872 Y52.020 E44.05468
G1 X57.556 Y51.857 E44.09735
G1 X57.222 Y51.744 E44.13966
G1 X56.907 Y51.684 E44.17814
G1 X56.561 Y51.669 E44.21970
G1 X56.512 Y51.670 E44.22558
G1 X56.165 Y51.712 E44.26752
G1 X55.822 Y51.808 E44.31026
G1 X55.530 Y51.933 E44.34838
G1 X55.179 Y52.161 E44.39861
G1 X54.941 Y52.367 E44.43638
G1 X54.708 Y52.639 E44.47936
G1 X54.540 Y52.896 E44.51620
G1 X54.406 Y53.183 E44.55421
G1 X54.295 Y53.556 E44.60091
G1 X54.249 Y53.872 E44.63923
G1 X54.247 Y54.193 E44.67775
G1 X54.312 Y54.614 E44.72887
G1 X54.406 Y54.919 E44.76717
G1 X54.563 Y55.242 E44.81026
G1 X54.774 Y55.546 E44.85467
G1 X54.986 Y55.776 E44.89221
G1 X55.227 Y55.978 E44.92994
G1 X55.533 Y56.167 E44.97310
G1 X55.895 Y56.315 E45.02003
G1 X56.237 Y56.397 E45.06224
G1 X56.554 Y56.429 E45.10047
G1 X56.908 Y56.414 E45.14299
G1 X57.259 Y56.345 E45.18591
G1 X57.596 Y56.223 E45.22892
G1 X57.874 Y56.077 E45.26660
G1 X58.172 Y55.860 E45.31084
G1 X58.435 Y55.595 E45.35564
G1 X58.619 Y55.352 E45.39222
G1 X58.789 Y55.044 E45.43443
G1 X58.911 Y54.714 E45.47665
G1 X58.981 Y54.403 E45.51491
G1 X59.008 Y54.048 E45.55763
G1 X58.973 Y53.659 E45.60450
G1 X58.888 Y53.311 E45.64749
G10
G0 F9000 X53.766 Y53.906
G11
G1 F1200 X53.701 Y53.486 E45.69849
G1 X53.607 Y53.180 E45.73690
G1 X53.451 Y52.858 E45.77984
G1 X53.278 Y52.600 E45.81711
G1 X53.029 Y52.323 E45.86181
G1 X52.786 Y52.120 E45.89980
G1 X52.481 Y51.932 E45.94280
G1 X52.154 Y51.794 E45.98539
G1 X51.812 Y51.706 E46.02777
G1 X51.459 Y51.669 E46.07036
G1 X51.106 Y51.684 E46.11276
G1 X50.756 Y51.754 E46.15559
G1 X50.418 Y51.875 E46.19867
G1 X50.140 Y52.021 E46.23635
G1 X49.844 Y52.238 E46.28039
G1 X49.618 Y52.458 E46.31824
G1 X49.396 Y52.746 E46.36188
G1 X49.225 Y53.055 E46.40425
G1 X49.103 Y53.385 E46.44647
G1 X49.033 Y53.697 E46.48484
G1 X49.007 Y54.052 E46.52756
G1 X49.041 Y54.440 E46.57430
G1 X49.127 Y54.788 E46.61731
G1 X49.243 Y55.083 E46.65535
G1 X49.426 Y55.397 E46.69896
G1 X49.663 Y55.687 E46.74391
G1 X49.892 Y55.901 E46.78152
G1 X50.179 Y56.099 E46.82336
G1 X50.459 Y56.242 E46.86109
G1 X50.829 Y56.363 E46.90780
G1 X51.142 Y56.417 E46.94592
G1 X51.459 Y56.430 E46.98399
G1 X51.848 Y56.386 E47.03097
G1 X52.194 Y56.291 E47.07402
G1 X52.523 Y56.142 E47.11736
G1 X52.788 Y55.977 E47.15482
G1 X53.073 Y55.732 E47.19992
G1 X53.305 Y55.460 E47.24282
G1 X53.473 Y55.203 E47.27967
G1 X53.607 Y54.916 E47.31768
G1 X53.718 Y54.543 E47.36438
G1 X53.765 Y54.227 E47.40271
G1 X53.766 Y53.906 E47.44123
G10
G0 F9000 X48.531 Y53.906
G11
G1 F1200 X48.466 Y53.486 E47.49223
G1 X48.372 Y53.180 E47.53065
G1 X48.216 Y52.858 E47.57358
G1 X48.043 Y52.600 E47.61086
G1 X47.793 Y52.323 E47.65564
G1 X47.551 Y52.120 E47.69354
G1 X47.246 Y51.932 E47.73653
G1 X46.919 Y51.794 E47.77913
G1 X46.577 Y51.706 E47.82150
G1 X46.224 Y51.669 E47.86409
G1 X45.870 Y51.684 E47.90661
G1 X45.519 Y51.754 E47.94956
G1 X45.182 Y51.875 E47.99253
G1 X44.904 Y52.021 E48.03021
G1 X44.608 Y52.238 E48.07425
G1 X44.381 Y52.458 E48.11219
G1 X44.159 Y52.746 E48.15582
G1 X43.989 Y53.056 E48.19825
G1 X43.867 Y53.385 E48.24036
G1 X43.797 Y53.696 E48.27861
G1 X43.770 Y54.052 E48.32145
G1 X43.805 Y54.440 E48.36820
G1 X43.890 Y54.788 E48.41119
G1 X44.008 Y55.083 E48.44932
G1 X44.189 Y55.397 E48.49281
G1 X44.427 Y55.687 E48.53783
G1 X44.655 Y55.901 E48.57535
G1 X44.943 Y56.099 E48.61729
G1 X45.223 Y56.242 E48.65502
G1 X45.592 Y56.363 E48.70162
G1 X45.906 Y56.417 E48.73985
G1 X46.224 Y56.430 E48.77804
G1 X46.612 Y56.386 E48.82490
G1 X46.958 Y56.291 E48.86796
G1 X47.287 Y56.142 E48.91130
G1 X47.553 Y55.977 E48.94886
G1 X47.837 Y55.732 E48.99387
G1 X48.070 Y55.460 E49.03685
G1 X48.238 Y55.203 E49.07369
G1 X48.372 Y54.916 E49.11170
G1 X48.483 Y54.543 E49.15840
G1 X48.529 Y54.227 E49.19672
G1 X48.531 Y53.906 E49.23524
G10
G0 F9000 X43.295 Y53.906
G11
G1 F1200 X43.229 Y53.486 E49.28626
G1 X43.136 Y53.180 E49.32464
G1 X42.979 Y52.859 E49.36752
G1 X42.807 Y52.600 E49.40483
G1 X42.557 Y52.322 E49.44969
G1 X42.314 Y52.120 E49.48761
G1 X42.009 Y51.932 E49.53061
G1 X41.683 Y51.794 E49.57309
G1 X41.340 Y51.706 E49.61558
G1 X40.988 Y51.669 E49.65805
G1 X40.633 Y51.684 E49.70069
G1 X40.283 Y51.754 E49.74352
G1 X39.945 Y51.875 E49.78660
G1 X39.667 Y52.021 E49.82429
G1 X39.371 Y52.238 E49.86833
G1 X39.145 Y52.458 E49.90618
G1 X38.923 Y52.746 E49.94981
G1 X38.752 Y53.055 E49.99219
G1 X38.630 Y53.385 E50.03441
G1 X38.560 Y53.697 E50.07278
G1 X38.534 Y54.052 E50.11550
G1 X38.568 Y54.440 E50.16223
G1 X38.654 Y54.788 E50.20525
G1 X38.770 Y55.083 E50.24329
G1 X38.953 Y55.397 E50.28690
G1 X39.191 Y55.687 E50.33192
G1 X39.419 Y55.901 E50.36944
G1 X39.706 Y56.099 E50.41128
G1 X39.986 Y56.242 E50.44901
G1 X40.356 Y56.363 E50.49573
G1 X40.669 Y56.417 E50.53384
G1 X40.988 Y56.430 E50.57215
G1 X41.376 Y56.386 E50.61901
G1 X41.722 Y56.291 E50.66207
G1 X42.051 Y56.142 E50.70541
G1 X42.316 Y55.977 E50.74287
G1 X42.601 Y55.732 E50.78797
G1 X42.835 Y55.460 E50.83102
G1 X43.001 Y55.202 E50.86784
G1 X43.137 Y54.916 E50.90584
G1 X43.246 Y54.543 E50.95247
G1 X43.293 Y54.228 E50.99069
G1 X43.295 Y53.906 E51.02933
G0 F9000 X43.697 Y52.465
;TYPE:SKIN
G1 F900 X42.965 Y51.734 E51.15347
G0 F9000 X43.531 Y51.734
G1 F900 X44.081 Y52.001 E51.22299
G1 X44.097 Y51.734 E51.25508
G10
G0 F9000 X43.406 Y55.568
G11
G1 F900 X44.199 Y56.362 E51.38975
G0 F9000 X43.634 Y56.362
G1 F900 X43.032 Y56.043 E51.46844
G1 X43.068 Y56.362 E51.50696
G0 F9000 X44.647 Y56.562
G0 X44.845 Y57.007
G1 F900 X46.876 Y59.038 E51.85163
G0 F9000 X47.441 Y59.038
G1 F900 X45.208 Y56.805 E52.23058
G0 F9000 X45.926 Y56.957
G1 F900 X48.007 Y59.038 E52.58374
G0 F9000 X48.573 Y59.038
G1 F900 X46.478 Y56.944 E52.93919
G0 F9000 X46.952 Y56.852
G1 F900 X49.138 Y59.038 E53.31017
G0 F9000 X49.704 Y59.038
G1 F900 X47.364 Y56.698 E53.70728
G0 F9000 X47.732 Y56.500
G1 F900 X50.270 Y59.038 E54.13799
G0 F9000 X50.836 Y59.038
G1 F900 X48.054 Y56.257 E54.61003
G0 F9000 X48.338 Y55.975
G1 F900 X51.401 Y59.038 E55.12983
G0 F9000 X51.967 Y59.038
G1 F900 X48.586 Y55.657 E55.70361
G0 F9000 X50.221 Y56.726
G1 F900 X52.533 Y59.038 E56.09597
G0 F9000 X53.098 Y59.038
G1 F900 X51.000 Y56.940 E56.45201
G0 F9000 X51.584 Y56.958
G1 F900 X53.664 Y59.038 E56.80500
G0 F9000 X54.230 Y59.038
G1 F900 X52.074 Y56.883 E57.17080
G0 F9000 X52.501 Y56.744
G1 F900 X54.795 Y59.038 E57.56010
G0 F9000 X55.361 Y59.038
G1 F900 X52.879 Y56.556 E57.98131
G0 F9000 X53.212 Y56.323
G1 F900 X55.927 Y59.038 E58.44206
G0 F9000 X56.492 Y59.038
G1 F900 X53.506 Y56.052 E58.94881
G0 F9000 X53.764 Y55.744
G1 F900 X57.058 Y59.038 E59.50782
G0 F9000 X57.624 Y59.038
G1 F900 X55.151 Y56.565 E59.92750
G0 F9000 X56.061 Y56.910
G1 F900 X58.189 Y59.038 E60.28863
G0 F9000 X58.730 Y59.013
G1 F900 X56.680 Y56.963 E60.63653
G0 F9000 X57.191 Y56.908
G1 F900 X58.048 Y57.765 E60.78197
G0 F9000 X57.931 Y57.083
G1 F900 X57.633 Y56.784 E60.83262
G0 F9000 X58.669 Y56.123
G1 F900 X58.922 Y56.094 E60.87334
G1 X59.474 Y56.363 E60.94703
G0 F9000 X59.980 Y56.303
G1 F900 X59.160 Y55.483 E61.08619
G10
G0 F9000 X59.460 Y52.389
G11
G1 F900 X58.805 Y51.734 E61.19734
G0 F9000 X59.371 Y51.734
G1 F900 X59.713 Y52.077 E61.25547
G10
G0 F9000 X54.544 Y51.999
G11
G1 F900 X54.281 Y51.735 E61.30019
G0 F9000 X53.715 Y51.735
G1 F900 X54.284 Y52.304 E61.39675
G0 F9000 X54.059 Y52.644
G1 F900 X53.752 Y52.338 E61.44876
G10
G0 F9000 X54.000 Y55.414
G11
G1 F900 X54.090 Y55.505 E61.46412
G0 F9000 X49.385 Y51.930
G1 F900 X49.152 Y51.980 E61.49737
G1 X48.623 Y51.734 E61.56737
G0 F9000 X48.057 Y51.734
G1 F900 X48.882 Y52.559 E61.70738
G10
G0 F9000 X44.845 Y57.573
G11
G1 F900 X46.310 Y59.038 E61.95600
G0 F9000 X45.744 Y59.038
G1 F900 X44.633 Y57.927 E62.14454
G0 F9000 X44.427 Y58.286
G1 F900 X45.179 Y59.038 E62.27216
G0 F9000 X44.613 Y59.038
G1 F900 X44.220 Y58.645 E62.33886
;LAYER:1
M106 S127
G0 F9000 X44.698 Y57.529 Z0.400
G0 X44.647 Y56.562
