;FLAVOR:UltiGCode
;TIME:2770
;MATERIAL:5543
;MATERIAL2:0

;Layer count: 10
;LAYER:0
M107
G0 F9000 X27.515 Y51.716 Z0.300
;TYPE:SKIRT
G1 F1800 X28.239 Y51.476 E0.09153
G1 X29.315 Y51.304 E0.22229
G1 X30.403 Y51.368 E0.35307
G1 X31.146 Y51.535 E0.44446
G1 X32.153 Y51.940 E0.57471
G1 X33.059 Y52.555 E0.70611
G1 X33.608 Y53.082 E0.79743
G1 X34.209 Y53.872 E0.91654
G1 X34.558 Y54.531 E1.00603
G1 X34.822 Y55.288 E1.10223
G1 X34.905 Y55.618 E1.14307
G1 X35.009 Y56.239 E1.21862
G1 X35.023 Y62.986 E2.02827
G1 X35.023 Y78.826 E3.92907
G1 X37.099 Y78.833 E4.17819
G1 X44.178 Y78.833 E5.02767
G1 X44.186 Y75.711 E5.40231
G1 X44.186 Y64.787 E6.71319
G1 X44.221 Y64.176 E6.78663
G1 X44.412 Y63.221 E6.90350
G1 X44.691 Y62.447 E7.00223
G1 X45.024 Y61.794 E7.09019
G1 X45.519 Y61.098 E7.19268
G1 X45.742 Y60.825 E7.23498
G1 X46.186 Y60.381 E7.31033
G1 X46.729 Y59.944 E7.39397
G1 X47.570 Y59.443 E7.51144
G1 X48.332 Y59.134 E7.61011
G1 X48.977 Y58.961 E7.69025
G1 X49.596 Y58.864 E7.76543
G1 X50.229 Y58.828 E7.84152
G1 X51.076 Y58.875 E7.94331
G1 X51.904 Y59.005 E8.04389
G1 X52.718 Y59.223 E8.14501
G1 X53.505 Y59.525 E8.24617
G1 X54.256 Y59.908 E8.34733
G1 X54.964 Y60.368 E8.44865
G1 X55.618 Y60.898 E8.54966
G1 X56.213 Y61.493 E8.65064
G1 X56.743 Y62.147 E8.75165
G1 X57.203 Y62.855 E8.85297
G1 X57.586 Y63.606 E8.95413
G1 X57.888 Y64.393 E9.05529
G1 X58.106 Y65.207 E9.15641
G1 X58.236 Y66.035 E9.25699
G1 X58.278 Y66.791 E9.34785
G1 X58.278 Y69.599 E9.68481
G1 X58.223 Y70.211 E9.75854
G1 X58.026 Y70.956 E9.85102
G1 X57.694 Y71.652 E9.94355
G1 X57.261 Y72.265 E10.03361
G1 X56.728 Y72.794 E10.12373
G1 X56.108 Y73.229 E10.21461
G1 X55.413 Y73.552 E10.30658
G1 X54.663 Y73.750 E10.39966
G1 X53.908 Y73.807 E10.49052
G1 X53.189 Y73.742 E10.57715
G1 X52.151 Y73.485 E10.70547
G1 X52.151 Y79.840 E11.46807
G1 X52.115 Y80.492 E11.54643
G1 X52.000 Y81.217 E11.63452
G1 X51.792 Y81.995 E11.73116
G1 X51.331 Y83.060 E11.87042
G1 X50.830 Y83.870 E11.98471
G1 X50.342 Y84.470 E12.07752
G1 X49.823 Y84.989 E12.16559
G1 X49.249 Y85.456 E12.25439
G1 X48.625 Y85.860 E12.34359
G1 X47.971 Y86.191 E12.43155
G1 X47.285 Y86.456 E12.51980
G1 X46.570 Y86.647 E12.60861
G1 X45.768 Y86.774 E12.70605
G1 X42.132 Y86.798 E13.14238
G1 X34.018 Y86.798 E14.11606
G1 X33.365 Y86.762 E14.19454
G1 X32.639 Y86.647 E14.28274
G1 X31.860 Y86.439 E14.37950
G1 X30.798 Y85.978 E14.51843
G1 X29.988 Y85.478 E14.63266
G1 X29.386 Y84.989 E14.72572
G1 X28.865 Y84.468 E14.81414
G1 X28.402 Y83.896 E14.90245
G1 X27.998 Y83.275 E14.99135
G1 X27.663 Y82.614 E15.08028
G1 X27.400 Y81.928 E15.16844
G1 X27.211 Y81.221 E15.25626
G1 X27.081 Y80.414 E15.35435
G1 X27.057 Y72.944 E16.25075
G1 X27.052 Y69.253 E16.69367
G1 X27.049 Y61.571 E17.61551
G1 X26.977 Y61.541 E17.62487
G1 X26.081 Y60.919 E17.75576
G1 X25.599 Y60.450 E17.83646
G1 X25.225 Y60.002 E17.90649
G1 X24.850 Y59.438 E17.98777
G1 X24.441 Y58.526 E18.10771
G1 X24.265 Y57.879 E18.18817
G1 X24.175 Y57.300 E18.25849
G1 X24.146 Y56.708 E18.32961
G1 X24.185 Y56.114 E18.40104
G1 X24.283 Y55.544 E18.47045
G1 X24.444 Y54.980 E18.54083
G1 X24.667 Y54.430 E18.61205
G1 X24.988 Y53.839 E18.69276
G1 X25.600 Y53.041 E18.81343
G1 X26.097 Y52.581 E18.89470
G1 X26.629 Y52.181 E18.97457
G1 X27.515 Y51.716 E19.09464
G10
G0 F9000 X29.008 Y55.224
;TYPE:WALL-INNER
G11
G1 F1800 X29.143 Y55.179 E19.11172
G1 X29.504 Y55.122 E19.15558
G1 X29.876 Y55.143 E19.20029
G1 X30.008 Y55.173 E19.21653
G1 X30.358 Y55.314 E19.26181
G1 X30.659 Y55.518 E19.30545
G1 X30.761 Y55.616 E19.32242
G1 X30.998 Y55.928 E19.36944
G1 X31.063 Y56.052 E19.38624
G1 X31.181 Y56.391 E19.42931
G1 X31.210 Y56.563 E19.45024
G1 X31.223 Y62.989 E20.22137
G1 X31.223 Y79.767 E22.23473
G1 X31.237 Y80.053 E22.26909
G1 X31.284 Y80.350 E22.30517
G1 X31.362 Y80.643 E22.34155
G1 X31.615 Y81.208 E22.41584
G1 X31.951 Y81.670 E22.48439
G1 X32.177 Y81.895 E22.52266
G1 X32.422 Y82.094 E22.56054
G1 X32.917 Y82.380 E22.62914
G1 X33.214 Y82.494 E22.66731
G1 X33.504 Y82.571 E22.70332
G1 X33.817 Y82.622 E22.74138
G1 X37.087 Y82.633 E23.13378
G1 X45.119 Y82.633 E24.09762
G1 X45.406 Y82.620 E24.13209
G1 X45.705 Y82.571 E24.16845
G1 X45.996 Y82.494 E24.20457
G1 X46.292 Y82.380 E24.24264
G1 X46.801 Y82.086 E24.31317
G1 X47.249 Y81.683 E24.38548
G1 X47.594 Y81.208 E24.45593
G1 X47.847 Y80.643 E24.53022
G1 X47.925 Y80.350 E24.56660
G1 X47.975 Y80.046 E24.60357
G1 X47.986 Y75.720 E25.12270
G1 X47.986 Y64.896 E26.42158
G1 X48.000 Y64.656 E26.45043
G1 X48.082 Y64.245 E26.50072
G1 X48.183 Y63.964 E26.53655
G1 X48.283 Y63.769 E26.56285
G1 X48.564 Y63.377 E26.62072
G1 X48.726 Y63.215 E26.64822
G1 X48.902 Y63.073 E26.67535
G1 X49.268 Y62.855 E26.72647
G1 X49.543 Y62.744 E26.76206
G1 X50.000 Y62.647 E26.81812
G1 X50.233 Y62.634 E26.84613
G1 X50.671 Y62.658 E26.89877
G1 X51.113 Y62.728 E26.95247
G1 X51.547 Y62.844 E27.00637
G1 X51.955 Y63.001 E27.05883
G1 X52.355 Y63.204 E27.11266
G1 X52.726 Y63.445 E27.16575
G1 X53.075 Y63.728 E27.21967
G1 X53.383 Y64.036 E27.27194
G1 X53.666 Y64.385 E27.32586
G1 X53.907 Y64.756 E27.37895
G1 X54.110 Y65.156 E27.43277
G1 X54.267 Y65.564 E27.48523
G1 X54.383 Y65.998 E27.53914
G1 X54.453 Y66.440 E27.59284
G1 X54.478 Y69.423 E27.95081
G1 X54.466 Y69.554 E27.96660
G1 X54.443 Y69.640 E27.97728
G1 X54.404 Y69.723 E27.98829
G1 X54.350 Y69.800 E27.99957
G1 X54.277 Y69.872 E28.01188
G1 X54.204 Y69.923 E28.02256
G1 X54.105 Y69.967 E28.03556
G1 X54.113 Y66.865 E28.40781
G1 X54.094 Y66.474 E28.45478
G1 X54.030 Y66.072 E28.50363
G1 X53.924 Y65.679 E28.55247
G1 X53.779 Y65.300 E28.60117
G1 X53.594 Y64.938 E28.64995
G1 X53.373 Y64.597 E28.69871
G1 X53.118 Y64.281 E28.74744
G1 X52.830 Y63.993 E28.79632
G1 X52.514 Y63.738 E28.84504
G1 X52.173 Y63.517 E28.89381
G1 X51.811 Y63.332 E28.94259
G1 X51.432 Y63.187 E28.99128
G1 X51.039 Y63.081 E29.04013
G1 X50.637 Y63.017 E29.08898
G1 X50.229 Y62.997 E29.13800
G1 X49.987 Y63.012 E29.16709
G1 X49.724 Y63.064 E29.19926
G1 X49.306 Y63.237 E29.25355
G1 X49.086 Y63.384 E29.28530
G1 X48.898 Y63.548 E29.31524
G1 X48.736 Y63.735 E29.34493
G1 X48.601 Y63.938 E29.37418
G1 X48.493 Y64.159 E29.40370
G1 X48.413 Y64.390 E29.43303
G1 X48.361 Y64.652 E29.46509
G1 X48.351 Y68.911 E29.97617
G1 X48.351 Y79.737 E31.27529
G1 X48.332 Y80.085 E31.31711
G1 X48.278 Y80.426 E31.35854
G1 X48.193 Y80.742 E31.39781
G1 X47.953 Y81.297 E31.47037
G1 X47.726 Y81.663 E31.52205
G1 X47.513 Y81.926 E31.56266
G1 X47.279 Y82.160 E31.60237
G1 X47.013 Y82.376 E31.64349
G1 X46.723 Y82.564 E31.68497
G1 X46.428 Y82.713 E31.72462
G1 X46.107 Y82.837 E31.76592
G1 X45.779 Y82.925 E31.80667
G1 X45.454 Y82.976 E31.84615
G1 X42.118 Y82.998 E32.24648
G1 X34.120 Y82.998 E33.20624
G1 X33.771 Y82.979 E33.24818
G1 X33.430 Y82.925 E33.28961
G1 X33.111 Y82.839 E33.32926
G1 X32.565 Y82.603 E33.40063
G1 X32.191 Y82.371 E33.45345
G1 X31.930 Y82.160 E33.49372
G1 X31.697 Y81.927 E33.53326
G1 X31.479 Y81.657 E33.57491
G1 X31.293 Y81.372 E33.61575
G1 X31.142 Y81.073 E33.65594
G1 X31.021 Y80.758 E33.69643
G1 X30.880 Y80.107 E33.77637
G1 X30.857 Y72.935 E34.63701
G1 X30.847 Y58.148 E36.41145
G1 X30.079 Y58.321 E36.50592
G1 X30.056 Y58.323 E36.50869
G1 X29.657 Y58.385 E36.55714
G1 X29.483 Y58.383 E36.57803
G1 X29.302 Y58.361 E36.59991
G1 X29.148 Y58.325 E36.61888
G1 X28.805 Y58.184 E36.66339
G1 X28.503 Y57.974 E36.70753
G1 X28.277 Y57.728 E36.74761
G1 X28.187 Y57.593 E36.76708
G1 X28.030 Y57.243 E36.81311
G1 X27.988 Y57.090 E36.83215
G1 X27.960 Y56.910 E36.85401
G1 X27.952 Y56.744 E36.87396
G1 X27.964 Y56.558 E36.89632
G1 X28.041 Y56.221 E36.93781
G1 X28.184 Y55.916 E36.97823
G1 X28.418 Y55.611 E37.02436
G1 X28.537 Y55.501 E37.04381
G1 X28.666 Y55.403 E37.06325
G1 X29.008 Y55.224 E37.10957
G0 F9000 X28.848 Y54.856
;TYPE:WALL-OUTER
G1 F1800 X29.051 Y54.789 E37.13522
G1 X29.482 Y54.720 E37.18760
G1 X29.931 Y54.746 E37.24157
G1 X30.128 Y54.791 E37.26582
G1 X30.549 Y54.960 E37.32026
G1 X30.912 Y55.206 E37.37288
G1 X31.061 Y55.350 E37.39774
G1 X31.333 Y55.707 E37.45160
G1 X31.433 Y55.897 E37.47736
G1 X31.576 Y56.322 E37.53117
G1 X31.610 Y56.525 E37.55587
G1 X31.623 Y79.757 E40.34371
G1 X31.636 Y80.012 E40.37435
G1 X31.676 Y80.267 E40.40533
G1 X31.743 Y80.520 E40.43673
G1 X31.836 Y80.762 E40.46784
G1 X31.957 Y80.998 E40.49967
G1 X32.256 Y81.409 E40.56066
G1 X32.649 Y81.763 E40.62413
G1 X33.090 Y82.018 E40.68526
G1 X33.337 Y82.113 E40.71702
G1 X33.588 Y82.180 E40.74819
G1 X33.850 Y82.222 E40.78003
G1 X45.109 Y82.233 E42.13112
G1 X45.365 Y82.221 E42.16187
G1 X45.621 Y82.180 E42.19298
G1 X45.873 Y82.113 E42.22427
G1 X46.119 Y82.018 E42.25592
G1 X46.564 Y81.761 E42.31758
G1 X46.950 Y81.414 E42.37987
G1 X47.252 Y80.998 E42.44155
G1 X47.373 Y80.762 E42.47338
G1 X47.466 Y80.520 E42.50449
G1 X47.533 Y80.267 E42.53590
G1 X47.575 Y80.009 E42.56726
G1 X47.586 Y64.890 E44.38154
G1 X47.602 Y64.605 E44.41580
G1 X47.696 Y64.136 E44.47320
G1 X47.817 Y63.802 E44.51583
G1 X47.939 Y63.562 E44.54813
G1 X48.273 Y63.102 E44.61635
G1 X48.454 Y62.921 E44.64707
G1 X48.678 Y62.741 E44.68155
G1 X49.090 Y62.495 E44.73913
G1 X49.415 Y62.363 E44.78123
G1 X49.677 Y62.293 E44.81377
G1 X49.957 Y62.249 E44.84778
G1 X50.232 Y62.234 E44.88083
G1 X50.716 Y62.260 E44.93900
G1 X51.202 Y62.337 E44.99804
G1 X51.662 Y62.460 E45.05518
G1 X52.125 Y62.638 E45.11471
G1 X52.551 Y62.855 E45.17208
G1 X52.966 Y63.125 E45.23149
G1 X53.343 Y63.430 E45.28968
G1 X53.681 Y63.768 E45.34704
G1 X53.986 Y64.145 E45.40523
G1 X54.256 Y64.560 E45.46464
G1 X54.473 Y64.986 E45.52201
G1 X54.651 Y65.449 E45.58154
G1 X54.774 Y65.909 E45.63868
G1 X54.851 Y66.395 E45.69773
G1 X54.878 Y69.448 E46.06410
G1 X54.862 Y69.621 E46.08495
G1 X54.821 Y69.780 E46.10465
G1 X54.750 Y69.927 E46.12424
G1 X54.657 Y70.059 E46.14362
G1 X54.539 Y70.176 E46.16356
G1 X54.399 Y70.274 E46.18407
G1 X54.254 Y70.341 E46.20323
G1 X54.095 Y70.383 E46.22297
G1 X53.934 Y70.396 E46.24235
G1 X53.703 Y70.367 E46.27029
G1 X53.713 Y66.874 E46.68945
G1 X53.695 Y66.515 E46.73258
G1 X53.638 Y66.155 E46.77632
G1 X53.543 Y65.803 E46.82007
G1 X53.413 Y65.463 E46.86375
G1 X53.247 Y65.138 E46.90755
G1 X53.049 Y64.832 E46.95128
G1 X52.820 Y64.549 E46.99497
G1 X52.562 Y64.291 E47.03875
G1 X52.279 Y64.062 E47.08244
G1 X51.973 Y63.864 E47.12618
G1 X51.648 Y63.698 E47.16997
G1 X51.308 Y63.568 E47.21365
G1 X50.956 Y63.473 E47.25740
G1 X50.596 Y63.416 E47.30114
G1 X50.231 Y63.398 E47.34499
G1 X50.038 Y63.409 E47.36819
G1 X49.841 Y63.449 E47.39231
G1 X49.495 Y63.592 E47.43724
G1 X49.182 Y63.831 E47.48450
G1 X49.055 Y63.978 E47.50781
G1 X48.948 Y64.138 E47.53091
G1 X48.863 Y64.312 E47.55414
G1 X48.800 Y64.495 E47.57737
G1 X48.761 Y64.692 E47.60147
G1 X48.751 Y79.741 E49.40735
G1 X48.730 Y80.131 E49.45422
G1 X48.669 Y80.514 E49.50075
G1 X48.573 Y80.871 E49.54512
G1 X48.308 Y81.484 E49.62526
G1 X48.053 Y81.896 E49.68340
G1 X47.811 Y82.194 E49.72947
G1 X47.547 Y82.458 E49.77427
G1 X47.251 Y82.698 E49.82000
G1 X46.921 Y82.912 E49.86719
G1 X46.596 Y83.077 E49.91093
G1 X46.225 Y83.220 E49.95865
G1 X45.867 Y83.316 E50.00312
G1 X45.487 Y83.376 E50.04929
G1 X42.121 Y83.398 E50.45322
G1 X34.116 Y83.398 E51.41382
G1 X33.725 Y83.377 E51.46080
G1 X33.342 Y83.316 E51.50734
G1 X32.982 Y83.219 E51.55208
G1 X32.376 Y82.957 E51.63131
G1 X31.960 Y82.699 E51.69005
G1 X31.662 Y82.458 E51.73604
G1 X31.403 Y82.199 E51.78000
G1 X31.155 Y81.892 E51.82735
G1 X30.942 Y81.565 E51.87418
G1 X30.779 Y81.242 E51.91760
G1 X30.637 Y80.873 E51.96505
G1 X30.539 Y80.506 E52.01063
G1 X30.480 Y80.140 E52.05512
G1 X30.447 Y58.648 E54.63416
G1 X30.136 Y58.718 E54.67241
G1 X30.113 Y58.720 E54.67518
G1 X29.962 Y58.752 E54.69371
G1 X29.946 Y58.753 E54.69563
G1 X29.892 Y58.764 E54.70224
G1 X29.673 Y58.786 E54.72865
G1 X29.457 Y58.782 E54.75458
G1 X29.231 Y58.755 E54.78189
G1 X29.024 Y58.707 E54.80739
G1 X28.613 Y58.538 E54.86072
G1 X28.248 Y58.284 E54.91408
G1 X28.101 Y58.142 E54.93861
G1 X27.956 Y57.968 E54.96579
G1 X27.834 Y57.784 E54.99228
G1 X27.652 Y57.379 E55.04556
G1 X27.597 Y57.176 E55.07080
G1 X27.562 Y56.952 E55.09800
G1 X27.552 Y56.737 E55.12383
G1 X27.567 Y56.510 E55.15113
G1 X27.604 Y56.298 E55.17696
G1 X27.663 Y56.087 E55.20325
G1 X27.744 Y55.888 E55.22903
G1 X27.847 Y55.699 E55.25486
G1 X28.123 Y55.339 E55.30929
G1 X28.451 Y55.064 E55.36066
G1 X28.848 Y54.856 E55.41444
G0 F9000 X29.054 Y55.358
;TYPE:SKIN
G1 F1800 X31.070 Y57.375 E55.75665
G0 F9000 X31.070 Y57.941
G1 F1800 X28.690 Y55.560 E56.16064
G0 F9000 X28.412 Y55.848
G1 F1800 X30.619 Y58.055 E56.53518
G0 F9000 X30.158 Y58.159
G1 F1800 X28.202 Y56.203 E56.86712
G0 F9000 X28.097 Y56.664
G1 F1800 X29.671 Y58.238 E57.13424
G0 F9000 X28.963 Y58.096
G1 F1800 X28.242 Y57.375 E57.25659
G0 F9000 X29.523 Y55.262
G1 F1800 X31.070 Y56.808 E57.51904
G0 F9000 X30.934 Y56.107
G1 F1800 X30.248 Y55.421 E57.63546
;LAYER:1
M106 S255
G0 F9000 X30.255 Y55.082 Z0.500
;TYPE:WALL-INNER
G1 F2040 X30.601 Y55.267 E57.66685
G1 X30.910 Y55.530 E57.69931
G1 X31.018 Y55.658 E57.71271
G1 X31.213 Y55.978 E57.74269
G1 X31.349 Y56.384 E57.77694
G1 X31.376 Y56.552 E57.79056
G1 X31.389 Y79.765 E59.64760
G1 X31.402 Y80.051 E59.67050
G1 X31.517 Y80.593 E59.71482
G1 X31.749 Y81.112 E59.76030
G1 X32.083 Y81.572 E59.80578
G1 X32.505 Y81.952 E59.85121
G1 X32.984 Y82.229 E59.89548
G1 X33.279 Y82.342 E59.92075
G1 X33.818 Y82.458 E59.96486
G1 X37.606 Y82.469 E60.26790
G1 X45.119 Y82.468 E60.86894
G1 X45.404 Y82.455 E60.89176
G1 X45.930 Y82.342 E60.93480
G1 X46.211 Y82.235 E60.95886
G1 X46.464 Y82.105 E60.98161
G1 X46.702 Y81.950 E61.00433
G1 X46.935 Y81.762 E61.02829
G1 X47.305 Y81.351 E61.07253
G1 X47.582 Y80.872 E61.11679
G1 X47.695 Y80.577 E61.14206
G1 X47.811 Y80.039 E61.18609
G1 X47.822 Y75.018 E61.58777
G1 X47.821 Y64.896 E62.39753
G1 X47.835 Y64.644 E62.41773
G1 X47.922 Y64.207 E62.45337
G1 X48.034 Y63.894 E62.47997
G1 X48.144 Y63.677 E62.49943
G1 X48.445 Y63.263 E62.54038
G1 X48.814 Y62.932 E62.58003
G1 X49.030 Y62.791 E62.60067
G1 X49.252 Y62.678 E62.62060
G1 X49.479 Y62.591 E62.64005
G1 X49.904 Y62.495 E62.67490
G1 X50.236 Y62.470 E62.70154
G1 X50.689 Y62.494 E62.73783
G1 X51.148 Y62.566 E62.77500
G1 X51.599 Y62.687 E62.81235
G1 X52.022 Y62.850 E62.84862
G1 X52.438 Y63.062 E62.88597
G1 X52.823 Y63.311 E62.92265
G1 X53.185 Y63.605 E62.95996
G1 X53.506 Y63.926 E62.99628
G1 X53.800 Y64.288 E63.03358
G1 X54.049 Y64.673 E63.07027
G1 X54.261 Y65.089 E63.10762
G1 X54.424 Y65.512 E63.14388
G1 X54.545 Y65.963 E63.18124
G1 X54.617 Y66.422 E63.21841
G1 X54.643 Y69.426 E63.45874
G1 X54.630 Y69.578 E63.47094
G1 X54.598 Y69.698 E63.48088
G1 X54.543 Y69.815 E63.49122
G1 X54.479 Y69.907 E63.50019
G1 X54.385 Y70.000 E63.51076
G1 X54.290 Y70.066 E63.52002
G1 X54.174 Y70.120 E63.53025
G1 X54.057 Y70.150 E63.53992
G1 X53.943 Y70.160 E63.54907
G1 X53.948 Y66.865 E63.81267
G1 X53.930 Y66.490 E63.84271
G1 X53.868 Y66.106 E63.87382
G1 X53.768 Y65.731 E63.90487
G1 X53.628 Y65.367 E63.93607
G1 X53.451 Y65.020 E63.96724
G1 X53.239 Y64.694 E63.99834
G1 X52.986 Y64.382 E64.03048
G1 X52.517 Y63.951 E64.08144
G1 X52.097 Y63.663 E64.12218
G1 X51.744 Y63.483 E64.15388
G1 X51.380 Y63.343 E64.18508
G1 X51.005 Y63.243 E64.21613
G1 X50.622 Y63.182 E64.24715
G1 X50.227 Y63.161 E64.27880
G1 X49.986 Y63.177 E64.29812
G1 X49.573 Y63.288 E64.33233
G1 X49.201 Y63.503 E64.36670
G1 X49.016 Y63.664 E64.38632
G1 X48.854 Y63.849 E64.40600
G1 X48.640 Y64.222 E64.44040
G1 X48.525 Y64.654 E64.47616
G1 X48.515 Y69.613 E64.87288
G1 X48.516 Y79.737 E65.68280
G1 X48.496 Y80.104 E65.71221
G1 X48.439 Y80.466 E65.74152
G1 X48.348 Y80.803 E65.76945
G1 X48.225 Y81.126 E65.79710
G1 X47.913 Y81.682 E65.84810
G1 X47.636 Y82.036 E65.88406
G1 X47.389 Y82.283 E65.91201
G1 X47.108 Y82.511 E65.94096
G1 X46.811 Y82.704 E65.96929
G1 X46.488 Y82.868 E65.99827
G1 X46.156 Y82.995 E66.02671
G1 X45.819 Y83.086 E66.05464
G1 X45.473 Y83.140 E66.08265
G1 X41.600 Y83.162 E66.39250
G1 X34.120 Y83.163 E66.99090
G1 X33.752 Y83.143 E67.02038
G1 X33.390 Y83.086 E67.04970
G1 X33.053 Y82.995 E67.07762
G1 X32.730 Y82.872 E67.10527
G1 X32.174 Y82.560 E67.15628
G1 X31.820 Y82.283 E67.19224
G1 X31.573 Y82.036 E67.22018
G1 X31.345 Y81.755 E67.24913
G1 X31.152 Y81.458 E67.27747
G1 X30.988 Y81.135 E67.30645
G1 X30.862 Y80.808 E67.33448
