;FLAVOR:UltiGCode
;TIME:6610
;MATERIAL:15716
;MATERIAL2:0

;Layer count: 91
;LAYER:0
M107
G0 F9000 X5.518 Y90.931 Z0.300
;TYPE:SKIRT
G1 F1800 X10.051 Y90.936 E0.54396
G1 X12.288 Y90.933 E0.81240
G1 X14.308 Y90.920 E1.05481
G1 X19.086 Y90.980 E1.62821
G1 X19.086 Y102.408 E2.99957
G1 X19.983 Y102.408 E3.10721
G1 X20.050 Y106.152 E3.55656
G1 X20.019 Y107.038 E3.66295
G1 X20.001 Y107.832 E3.75825
G1 X19.984 Y108.671 E3.85895
G1 X19.952 Y110.353 E4.06083
G1 X19.937 Y111.188 E4.16105
G1 X19.938 Y111.188 E4.16117
G1 X19.924 Y112.032 E4.26246
G1 X19.912 Y112.874 E4.36351
G1 X19.899 Y113.721 E4.46516
G1 X19.888 Y114.558 E4.56561
G1 X19.883 Y115.031 E4.62237
G1 X19.884 Y115.361 E4.66197
G1 X19.817 Y119.100 E5.11073
G1 X18.780 Y119.100 E5.23517
G1 X18.780 Y129.646 E6.50069
G1 X14.513 Y129.656 E7.01273
G1 X14.513 Y129.657 E7.01285
G1 X13.700 Y129.657 E7.11041
G1 X10.080 Y129.663 E7.54481
G1 X10.080 Y129.656 E7.54565
G1 X5.824 Y129.642 E8.05637
G1 X5.824 Y119.100 E9.32141
G1 X4.772 Y119.100 E9.44765
G1 X4.712 Y114.740 E9.97090
G1 X4.703 Y114.127 E10.04447
G1 X4.690 Y113.192 E10.15668
G1 X4.676 Y112.261 E10.26841
G1 X4.661 Y111.330 E10.38015
G1 X4.662 Y111.330 E10.38027
G1 X4.646 Y110.399 E10.49200
G1 X4.628 Y109.469 E10.60362
G1 X4.611 Y108.553 E10.71356
G1 X4.597 Y107.972 E10.78330
G1 X4.576 Y107.005 E10.89937
G1 X4.557 Y106.287 E10.98556
G1 X4.557 Y102.408 E11.45104
G1 X5.518 Y102.408 E11.56636
G1 X5.518 Y90.931 E12.94360
G0 F9000 X5.918 Y91.332
G1 F1800 X10.051 Y91.336 E13.43956
G1 X12.296 Y91.333 E13.70896
G1 X14.307 Y91.320 E13.95029
G1 X18.686 Y91.375 E14.47581
G1 X18.686 Y102.808 E15.84777
G1 X19.590 Y102.808 E15.95625
G1 X19.650 Y106.148 E16.35711
G1 X19.619 Y107.024 E16.46230
G1 X19.601 Y107.823 E16.55820
G1 X19.584 Y108.663 E16.65902
G1 X19.552 Y110.346 E16.86102
G1 X19.537 Y111.181 E16.96124
G1 X19.538 Y111.181 E16.96136
G1 X19.524 Y112.025 E17.06265
G1 X19.512 Y112.868 E17.16382
G1 X19.499 Y113.715 E17.26547
G1 X19.488 Y114.553 E17.36604
G1 X19.483 Y115.027 E17.42292
G1 X19.484 Y115.358 E17.46264
G1 X19.424 Y118.700 E17.86375
G1 X18.380 Y118.700 E17.98903
G1 X18.380 Y129.247 E19.25467
G1 X14.302 Y129.256 E19.74403
G1 X14.113 Y129.256 E19.76671
G1 X14.113 Y129.257 E19.76683
G1 X13.665 Y129.257 E19.82059
G1 X10.480 Y129.262 E20.20279
G1 X10.480 Y129.257 E20.20339
G1 X10.294 Y129.257 E20.22571
G1 X6.224 Y129.243 E20.71411
G1 X6.224 Y118.700 E21.97927
G1 X5.166 Y118.700 E22.10623
G1 X5.112 Y114.735 E22.58208
G1 X5.103 Y114.122 E22.65564
G1 X5.090 Y113.187 E22.76786
G1 X5.076 Y112.255 E22.87971
G1 X5.061 Y111.323 E22.99156
G1 X5.045 Y110.392 E23.10330
G1 X5.046 Y110.392 E23.10342
G1 X5.028 Y109.462 E23.21504
G1 X5.011 Y108.524 E23.32762
G1 X4.997 Y107.963 E23.39496
G1 X4.976 Y106.976 E23.51343
G1 X4.957 Y106.282 E23.59674
G1 X4.957 Y102.808 E24.01362
G1 X5.918 Y102.808 E24.12894
G1 X5.918 Y91.332 E25.50606
G10
G0 F9000 X9.718 Y95.136
;TYPE:WALL-INNER
G11
G1 F1800 X10.171 Y95.136 E25.56042
G1 X10.171 Y106.608 E26.93706
G1 X14.433 Y106.608 E27.44850
G1 X14.433 Y95.122 E28.82682
G1 X14.886 Y95.128 E28.88118
G1 X14.886 Y106.608 E30.25878
G1 X15.831 Y106.608 E30.37218
G1 X15.802 Y107.738 E30.50783
G1 X15.753 Y110.274 E30.81220
G1 X15.724 Y111.962 E31.01479
G1 X15.688 Y114.504 E31.31986
G1 X15.684 Y114.900 E31.36739
G1 X14.580 Y114.900 E31.49987
G1 X14.580 Y125.455 E32.76647
G1 X14.280 Y125.456 E32.80247
G1 X14.280 Y114.903 E34.06883
G1 X10.306 Y114.904 E34.54571
G1 X10.307 Y125.457 E35.81207
G1 X10.024 Y125.456 E35.84603
G1 X10.024 Y114.900 E37.11275
G1 X8.915 Y114.900 E37.24583
G1 X8.876 Y112.198 E37.57010
G1 X8.845 Y110.326 E37.79477
G1 X8.810 Y108.453 E38.01957
G1 X8.796 Y107.875 E38.08895
G1 X8.775 Y106.894 E38.20670
G1 X8.767 Y106.608 E38.24103
G1 X9.718 Y106.608 E38.35515
G1 X9.718 Y95.136 E39.73179
G0 F9000 X9.318 Y94.735
;TYPE:WALL-OUTER
G1 F1800 X10.571 Y94.735 E39.88215
G1 X10.571 Y106.208 E41.25891
G1 X14.033 Y106.208 E41.67435
G1 X14.033 Y94.722 E43.05267
G1 X14.295 Y94.720 E43.08411
G1 X15.286 Y94.733 E43.20304
G1 X15.286 Y106.208 E44.58004
G1 X16.246 Y106.208 E44.69524
G1 X16.221 Y106.905 E44.77894
G1 X16.138 Y111.124 E45.28531
G1 X16.088 Y114.508 E45.69144
G1 X16.083 Y114.993 E45.74964
G1 X16.084 Y115.300 E45.78648
G1 X14.980 Y115.300 E45.91896
G1 X14.980 Y125.854 E47.18544
G1 X13.880 Y125.857 E47.31744
G1 X13.880 Y115.303 E48.58392
G1 X10.706 Y115.304 E48.96480
G1 X10.707 Y125.857 E50.23116
G1 X9.624 Y125.854 E50.36112
G1 X9.624 Y115.300 E51.62760
G1 X8.520 Y115.300 E51.76008
G1 X8.445 Y110.334 E52.35607
G1 X8.410 Y108.462 E52.58075
G1 X8.357 Y106.239 E52.84759
G1 X8.357 Y106.208 E52.85131
G1 X9.318 Y106.208 E52.96663
G1 X9.318 Y94.735 E54.34339
G0 F9000 X9.857 Y95.559
;TYPE:SKIN
G1 F1800 X9.944 Y95.928 E54.37273
G1 X9.944 Y96.494 E54.40211
G1 X9.944 Y97.059 E54.43143
G1 X9.944 Y97.625 E54.46080
G1 X9.944 Y98.191 E54.49018
G1 X9.944 Y98.756 E54.51950
G1 X9.944 Y99.322 E54.54888
G1 X10.031 Y99.692 E54.59449
G0 F9000 X10.230 Y106.549
G0 X14.374 Y106.549
G0 X14.572 Y99.708
G1 F1800 X14.746 Y99.598 E54.62401
G1 X14.659 Y98.946 E54.65341
G1 X14.659 Y98.380 E54.68279
G1 X14.659 Y97.814 E54.71216
G1 X14.659 Y97.249 E54.74149
G1 X14.659 Y96.683 E54.77086
G1 X14.659 Y96.117 E54.80024
G1 X14.659 Y95.552 E54.82956
G1 X14.654 Y95.264 E54.86413
G0 F9000 X14.572 Y100.274
G1 F1800 X14.659 Y100.643 E54.89347
G1 X14.659 Y101.209 E54.92284
G1 X14.659 Y101.774 E54.95217
G1 X14.659 Y102.340 E54.98154
G1 X14.659 Y102.906 E55.01092
G1 X14.659 Y103.471 E55.04024
G1 X14.659 Y104.037 E55.06962
G1 X14.659 Y104.603 E55.09899
G1 X14.659 Y105.168 E55.12832
G1 X14.659 Y105.734 E55.15769
G1 X14.659 Y106.300 E55.18707
G1 X14.746 Y106.669 E55.23256
G0 F9000 X14.823 Y106.747
G1 F1800 X15.673 Y107.596 E55.37673
G0 F9000 X15.682 Y107.041
G1 F1800 X15.389 Y106.747 E55.42653
G0 F9000 X14.258 Y106.747
G1 F1800 X15.663 Y108.152 E55.66497
G0 F9000 X15.653 Y108.708
G1 F1800 X13.692 Y106.747 E55.99776
G0 F9000 X13.126 Y106.747
G1 F1800 X15.643 Y109.264 E56.42491
G0 F9000 X15.633 Y109.820
G1 F1800 X12.561 Y106.747 E56.94633
G0 F9000 X11.995 Y106.747
G1 F1800 X15.623 Y110.375 E57.56203
G0 F9000 X15.613 Y110.931
G1 F1800 X11.429 Y106.747 E58.27207
G0 F9000 X10.863 Y106.747
G1 F1800 X15.603 Y111.487 E59.07648
G0 F9000 X15.593 Y112.043
G1 F1800 X10.298 Y106.747 E59.97515
G0 F9000 X10.031 Y106.480
G1 F1800 X9.944 Y106.110 E60.00446
G1 X9.944 Y105.545 E60.03378
G1 X9.944 Y104.979 E60.06316
G1 X9.944 Y104.413 E60.09253
G1 X9.944 Y103.847 E60.12191
G1 X9.944 Y103.282 E60.15123
G1 X9.944 Y102.716 E60.18061
G1 X9.944 Y102.150 E60.20998
G1 X9.944 Y101.585 E60.23931
G1 X9.944 Y101.019 E60.26868
G1 X9.944 Y100.453 E60.29806
G1 X9.857 Y100.084 E60.34355
G0 F9000 X9.732 Y106.747
G1 F1800 X15.583 Y112.598 E61.33650
G0 F9000 X15.574 Y113.154
G1 F1800 X9.166 Y106.747 E62.42389
G0 F9000 X8.915 Y107.062
G1 F1800 X15.564 Y113.710 E63.55218
G0 F9000 X15.554 Y114.266
G1 F1800 X8.926 Y107.638 E64.67699
G0 F9000 X8.936 Y108.214
G1 F1800 X15.481 Y114.759 E65.78771
G0 F9000 X14.915 Y114.759
G1 F1800 X8.947 Y108.790 E66.80060
G0 F9000 X8.956 Y109.366
G1 F1800 X14.353 Y114.762 E67.71641
G0 F9000 X13.787 Y114.762
G1 F1800 X8.967 Y109.942 E68.53439
G0 F9000 X8.977 Y110.517
G1 F1800 X13.222 Y114.762 E69.25479
G0 F9000 X12.656 Y114.762
G1 F1800 X8.988 Y111.094 E69.87728
G0 F9000 X8.997 Y111.669
G1 F1800 X12.090 Y114.762 E70.40217
G0 F9000 X11.525 Y114.762
G1 F1800 X9.007 Y112.245 E70.82941
G0 F9000 X9.018 Y112.821
G1 F1800 X10.959 Y114.762 E71.15881
G0 F9000 X10.393 Y114.762
G1 F1800 X9.028 Y113.397 E71.39046
G0 F9000 X9.038 Y113.973
G1 F1800 X9.824 Y114.759 E71.52384
G0 F9000 X9.258 Y114.759
G1 F1800 X9.048 Y114.549 E71.55948
;LAYER:1
M106 S255
G0 F9000 X10.024 Y114.900 Z0.500
;TYPE:WALL-INNER
G1 F2520 X8.617 Y114.900 E71.67204
G1 X8.582 Y113.129 E71.81375
G1 X8.536 Y111.256 E71.96363
G1 X8.510 Y110.319 E72.03862
G1 X8.493 Y109.815 E72.07897
G1 X8.469 Y108.994 E72.14467
G1 X8.448 Y108.442 E72.18887
G1 X8.381 Y106.804 E72.32002
G1 X8.375 Y106.608 E72.33570
G1 X9.718 Y106.608 E72.44314
G1 X9.718 Y94.435 E73.41698
G1 X10.171 Y94.436 E73.45322
G1 X10.171 Y106.608 E74.42698
G1 X14.433 Y106.608 E74.76794
G1 X14.433 Y94.425 E75.74258
G1 X14.886 Y94.429 E75.77883
G1 X14.886 Y106.608 E76.75315
G1 X16.224 Y106.608 E76.86019
G1 X16.205 Y107.165 E76.90477
G1 X16.172 Y108.035 E76.97442
G1 X16.113 Y109.775 E77.11370
G1 X16.087 Y110.644 E77.18325
G1 X16.021 Y113.220 E77.38940
G1 X16.022 Y113.260 E77.39260
G1 X16.003 Y114.046 E77.45550
G1 X15.987 Y114.881 E77.52231
G1 X15.987 Y114.900 E77.52383
G1 X14.580 Y114.900 E77.63639
G1 X14.580 Y126.155 E78.53679
G1 X14.280 Y126.156 E78.56079
G1 X14.280 Y114.902 E79.46111
G1 X10.307 Y114.905 E79.77895
G1 X10.307 Y126.157 E80.67911
G1 X10.024 Y126.156 E80.70175
G1 X10.024 Y114.900 E81.60223
G0 F9000 X9.624 Y115.300
;TYPE:WALL-OUTER
G1 F1920 X8.223 Y115.300 E81.71431
G1 X8.182 Y113.138 E81.88730
G1 X8.110 Y110.331 E82.11194
G1 X8.048 Y108.459 E82.26178
G1 X7.960 Y106.208 E82.44200
G1 X9.318 Y106.208 E82.55064
G1 X9.318 Y94.035 E83.52448
G1 X10.571 Y94.036 E83.62472
G1 X10.571 Y106.208 E84.59848
G1 X14.033 Y106.208 E84.87544
G1 X14.033 Y94.021 E85.85040
G1 X15.286 Y94.033 E85.95064
G1 X15.286 Y106.208 E86.92464
G1 X16.642 Y106.208 E87.03312
G1 X16.487 Y110.655 E87.38910
G1 X16.421 Y113.221 E87.59445
G1 X16.422 Y113.257 E87.59733
G1 X16.387 Y114.888 E87.72784
G1 X16.380 Y115.300 E87.76080
G1 X14.980 Y115.300 E87.87280
G1 X14.980 Y126.554 E88.77312
G1 X13.880 Y126.556 E88.86112
G1 X13.880 Y115.303 E89.76136
G1 X10.707 Y115.304 E90.01520
G1 X10.707 Y126.556 E90.91536
G1 X10.477 Y126.557 E90.93376
G1 X9.624 Y126.555 E91.00200
G1 X9.624 Y115.300 E91.90240
G0 F9000 X9.408 Y114.759
;TYPE:SKIN
G1 F1740 X16.036 Y108.131 E92.65227
G0 F9000 X16.054 Y107.548
G1 F1740 X8.843 Y114.759 E93.46811
G0 F9000 X8.741 Y114.294
G1 F1740 X16.071 Y106.964 E94.29740
G0 F9000 X15.723 Y106.746
G1 F1740 X8.727 Y113.743 E95.08896
G0 F9000 X8.712 Y113.192
G1 F1740 X15.158 Y106.746 E95.81825
G0 F9000 X14.746 Y106.593
G1 F1740 X8.698 Y112.640 E96.50244
G0 F9000 X8.683 Y112.089
G1 F1740 X14.026 Y106.746 E97.10693
G0 F9000 X13.461 Y106.746
G1 F1740 X8.669 Y111.538 E97.64909
G0 F9000 X8.654 Y110.987
G1 F1740 X12.895 Y106.746 E98.12890
G0 F9000 X12.329 Y106.746
G1 F1740 X8.640 Y110.435 E98.54626
G0 F9000 X8.625 Y109.885
G1 F1740 X11.764 Y106.746 E98.90140
G0 F9000 X11.198 Y106.746
G1 F1740 X8.611 Y109.333 E99.19409
G0 F9000 X8.597 Y108.782
G1 F1740 X10.632 Y106.746 E99.42438
G0 F9000 X10.067 Y106.746
G1 F1740 X8.580 Y108.234 E99.59267
G0 F9000 X8.557 Y107.690
G1 F1740 X9.501 Y106.746 E99.69947
G0 F9000 X9.857 Y106.390
G1 F1740 X9.944 Y106.020 E99.71901
G1 X9.944 Y105.455 E99.73856
G1 X9.944 Y104.889 E99.75814
G1 X9.944 Y104.323 E99.77772
G1 X9.944 Y103.758 E99.79727
G1 X9.944 Y103.192 E99.81686
G1 X9.944 Y102.626 E99.83644
G1 X9.944 Y102.061 E99.85599
G1 X9.944 Y101.495 E99.87557
G1 X9.944 Y100.929 E99.89516
G1 X9.944 Y100.364 E99.91470
G1 X9.944 Y99.798 E99.93429
G1 X9.944 Y99.232 E99.95387
G1 X9.944 Y98.666 E99.97346
G1 X9.944 Y98.101 E99.99300
G1 X9.944 Y97.535 E100.01259
G1 X9.944 Y96.969 E100.03217
G1 X9.944 Y96.404 E100.05172
G1 X9.944 Y95.838 E100.07130
G1 X9.944 Y95.272 E100.09089
G1 X10.031 Y94.903 E100.12122
G0 F9000 X10.230 Y106.549
G0 X14.374 Y106.549
G0 X14.572 Y94.887
G1 F1740 X14.746 Y94.996 E100.14085
G1 X14.659 Y95.649 E100.16048
G1 X14.659 Y96.214 E100.18003
G1 X14.659 Y96.780 E100.19961
G1 X14.659 Y97.346 E100.21919
G1 X14.659 Y97.911 E100.23874
G1 X14.659 Y98.477 E100.25833
G1 X14.659 Y99.043 E100.27791
G1 X14.659 Y99.608 E100.29746
G1 X14.659 Y100.174 E100.31704
G1 X14.659 Y100.740 E100.33663
G1 X14.659 Y101.305 E100.35617
G1 X14.659 Y101.871 E100.37576
G1 X14.659 Y102.437 E100.39534
G1 X14.659 Y103.002 E100.41489
G1 X14.659 Y103.568 E100.43447
G1 X14.659 Y104.134 E100.45406
G1 X14.659 Y104.700 E100.47364
G1 X14.659 Y105.265 E100.49319
G1 X14.659 Y105.831 E100.51277
G1 X14.572 Y106.201 E100.54318
G0 F9000 X16.018 Y108.715
G1 F1740 X9.974 Y114.759 E101.22698
G0 F9000 X10.534 Y114.764
G1 F1740 X16.000 Y109.298 E101.84539
G0 F9000 X15.982 Y109.882
G1 F1740 X11.100 Y114.764 E102.39772
G0 F9000 X11.666 Y114.764
G1 F1740 X15.965 Y110.465 E102.88410
G0 F9000 X15.946 Y111.049
G1 F1740 X12.232 Y114.763 E103.30429
G0 F9000 X12.799 Y114.762
G1 F1740 X15.928 Y111.633 E103.65830
G0 F9000 X15.911 Y112.216
G1 F1740 X13.365 Y114.762 E103.94634
G0 F9000 X13.931 Y114.762
G1 F1740 X15.893 Y112.799 E104.16838
G0 F9000 X15.878 Y113.380
G1 F1740 X14.499 Y114.759 E104.32439
G0 F9000 X15.065 Y114.759
G1 F1740 X15.866 Y113.958 E104.41502
G0 F9000 X15.853 Y114.537
G1 F1740 X15.631 Y114.759 E104.44013
G0 F9000 X8.534 Y107.147
G1 F1740 X8.935 Y106.746 E104.48550
;LAYER:2
G0 F9000 X9.718 Y106.608 Z0.700
;TYPE:WALL-INNER
G1 F3300 X9.718 Y93.918 E105.50070
G1 X10.171 Y93.918 E105.53694
G1 X10.171 Y106.608 E106.55214
G1 X14.433 Y106.608 E106.89310
G1 X14.433 Y93.907 E107.90918
G1 X14.886 Y93.912 E107.94542
G1 X14.886 Y106.608 E108.96110
G1 X16.521 Y106.608 E109.09190
G1 X16.467 Y107.554 E109.16771
G1 X16.424 Y108.379 E109.23379
G1 X16.402 Y108.902 E109.27567
G1 X16.365 Y109.768 E109.34501
G1 X16.328 Y110.637 E109.41460
G1 X16.296 Y111.508 E109.48432
G1 X16.243 Y113.245 E109.62335
G1 X16.221 Y114.114 E109.69289
G1 X16.205 Y114.900 E109.75578
G1 X14.580 Y114.900 E109.88578
G1 X14.580 Y126.673 E110.82762
G1 X14.280 Y126.674 E110.85162
G1 X14.280 Y114.902 E111.79338
G1 X10.309 Y114.905 E112.11107
G1 X10.309 Y126.675 E113.05267
G1 X10.024 Y126.674 E113.07547
G1 X10.024 Y114.900 E114.01739
G1 X8.402 Y114.900 E114.14715
G1 X8.360 Y113.224 E114.28127
G1 X8.330 Y112.219 E114.36170
G1 X8.297 Y111.251 E114.43919
G1 X8.262 Y110.313 E114.51428
G1 X8.222 Y109.375 E114.58939
G1 X8.187 Y108.579 E114.65313
G1 X8.132 Y107.496 E114.73988
G1 X8.081 Y106.608 E114.81104
G1 X9.718 Y106.608 E114.94200
G0 F9000 X9.318 Y106.208
;TYPE:WALL-OUTER
G1 F2100 X9.318 Y93.518 E115.95720
G1 X10.571 Y93.518 E116.05744
G1 X10.571 Y106.208 E117.07264
G1 X14.033 Y106.208 E117.34960
G1 X14.033 Y93.507 E118.36568
G1 X14.217 Y93.505 E118.38040
G1 X15.286 Y93.516 E118.46592
G1 X15.286 Y106.208 E119.48128
G1 X16.951 Y106.208 E119.61448
G1 X16.911 Y106.757 E119.65852
G1 X16.823 Y108.397 E119.78991
G1 X16.696 Y111.521 E120.04004
G1 X16.643 Y113.256 E120.17890
G1 X16.593 Y115.300 E120.34247
G1 X14.980 Y115.300 E120.47151
G1 X14.980 Y127.072 E121.41327
G1 X14.354 Y127.074 E121.46335
G1 X13.880 Y127.073 E121.50127
G1 X13.880 Y115.303 E122.44287
G1 X10.709 Y115.304 E122.69655
G1 X10.709 Y127.073 E123.63807
G1 X10.242 Y127.075 E123.67543
G1 X9.624 Y127.072 E123.72487
G1 X9.624 Y115.300 E124.66663
G1 X8.012 Y115.300 E124.79559
G1 X7.960 Y113.235 E124.96084
G1 X7.897 Y111.265 E125.11852
G1 X7.823 Y109.393 E125.26840
G1 X7.788 Y108.598 E125.33206
G1 X7.733 Y107.518 E125.41857
G1 X7.679 Y106.578 E125.49390
G1 X7.652 Y106.208 E125.52358
G1 X9.318 Y106.208 E125.65686
G0 F9000 X9.857 Y106.307
;TYPE:SKIN
G1 F1800 X10.031 Y106.480 E125.67649
G0 F9000 X10.298 Y106.747
G1 F1800 X16.131 Y112.580 E126.33641
G0 F9000 X16.147 Y112.031
G1 F1800 X10.863 Y106.747 E126.93423
G0 F9000 X11.429 Y106.747
G1 F1800 X16.163 Y111.481 E127.46982
G0 F9000 X16.180 Y110.932
G1 F1800 X11.995 Y106.747 E127.94330
G0 F9000 X12.561 Y106.747
G1 F1800 X16.200 Y110.387 E128.35506
G0 F9000 X16.225 Y109.846
G1 F1800 X13.126 Y106.747 E128.70568
G0 F9000 X13.692 Y106.747
G1 F1800 X16.251 Y109.306 E128.99519
G0 F9000 X16.276 Y108.766
G1 F1800 X14.258 Y106.747 E129.22356
G0 F9000 X14.572 Y106.496
G1 F1800 X14.746 Y106.669 E129.24319
G0 F9000 X14.823 Y106.747
G1 F1800 X16.302 Y108.226 E129.41052
G0 F9000 X16.327 Y107.685
G1 F1800 X15.389 Y106.747 E129.51664
G0 F9000 X15.955 Y106.747
G1 F1800 X16.353 Y107.145 E129.56167
G0 F9000 X14.945 Y106.549
G0 X14.746 Y106.104
G1 F1800 X14.659 Y105.734 E129.58128
G1 X14.659 Y105.168 E129.60087
G1 X14.659 Y104.603 E129.62042
G1 X14.659 Y104.037 E129.64000
G1 X14.659 Y103.471 E129.65958
G1 X14.659 Y102.906 E129.67913
G1 X14.659 Y102.340 E129.69872
G1 X14.659 Y101.774 E129.71830
G1 X14.659 Y101.209 E129.73785
G1 X14.659 Y100.643 E129.75743
