;FLAVOR:UltiGCode
;TIME:7633
;MATERIAL:15717
;MATERIAL2:0

;Layer count: 91
;LAYER:0
M107
G0 F9000 X46.700 Y46.243 Z0.300
;TYPE:SKIRT
G1 F1800 X51.233 Y46.248 E0.54396
G1 X53.470 Y46.245 E0.81240
G1 X55.490 Y46.232 E1.05481
G1 X60.268 Y46.292 E1.62821
G1 X60.268 Y57.720 E2.99957
G1 X61.165 Y57.720 E3.10721
G1 X61.232 Y61.464 E3.55656
G1 X61.201 Y62.350 E3.66295
G1 X61.183 Y63.144 E3.75825
G1 X61.166 Y63.983 E3.85895
G1 X61.134 Y65.665 E4.06083
G1 X61.119 Y66.500 E4.16105
G1 X61.120 Y66.500 E4.16117
G1 X61.106 Y67.344 E4.26246
G1 X61.094 Y68.186 E4.36351
G1 X61.081 Y69.033 E4.46516
G1 X61.070 Y69.870 E4.56561
G1 X61.065 Y70.343 E4.62237
G1 X61.066 Y70.673 E4.66197
G1 X60.999 Y74.412 E5.11073
G1 X59.962 Y74.412 E5.23517
G1 X59.962 Y84.958 E6.50069
G1 X55.695 Y84.968 E7.01273
G1 X55.695 Y84.969 E7.01285
G1 X54.882 Y84.969 E7.11041
G1 X51.262 Y84.975 E7.54481
G1 X51.262 Y84.968 E7.54565
G1 X47.006 Y84.954 E8.05637
G1 X47.006 Y74.412 E9.32141
G1 X45.954 Y74.412 E9.44765
G1 X45.894 Y70.052 E9.97090
G1 X45.885 Y69.439 E10.04447
G1 X45.872 Y68.504 E10.15668
G1 X45.858 Y67.573 E10.26841
G1 X45.843 Y66.642 E10.38015
G1 X45.844 Y66.642 E10.38027
G1 X45.828 Y65.711 E10.49200
G1 X45.810 Y64.781 E10.60362
G1 X45.793 Y63.865 E10.71356
G1 X45.779 Y63.284 E10.78330
G1 X45.758 Y62.317 E10.89937
G1 X45.739 Y61.599 E10.98556
G1 X45.739 Y57.720 E11.45104
G1 X46.700 Y57.720 E11.56636
G1 X46.700 Y46.243 E12.94360
G0 F9000 X47.100 Y46.644
G1 F1800 X51.233 Y46.648 E13.43956
G1 X53.478 Y46.645 E13.70896
G1 X55.489 Y46.632 E13.95029
G1 X59.868 Y46.687 E14.47581
G1 X59.868 Y58.120 E15.84777
G1 X60.772 Y58.120 E15.95625
G1 X60.832 Y61.460 E16.35711
G1 X60.801 Y62.336 E16.46230
G1 X60.783 Y63.135 E16.55820
G1 X60.766 Y63.975 E16.65902
G1 X60.734 Y65.658 E16.86102
G1 X60.719 Y66.493 E16.96124
G1 X60.720 Y66.493 E16.96136
G1 X60.706 Y67.337 E17.06265
G1 X60.694 Y68.180 E17.16382
G1 X60.681 Y69.027 E17.26547
G1 X60.670 Y69.865 E17.36604
G1 X60.665 Y70.339 E17.42292
G1 X60.666 Y70.670 E17.46264
G1 X60.606 Y74.012 E17.86375
G1 X59.562 Y74.012 E17.98903
G1 X59.562 Y84.559 E19.25467
G1 X55.484 Y84.568 E19.74403
G1 X55.295 Y84.568 E19.76671
G1 X55.295 Y84.569 E19.76683
G1 X54.847 Y84.569 E19.82059
G1 X51.662 Y84.574 E20.20279
G1 X51.662 Y84.569 E20.20339
G1 X51.476 Y84.569 E20.22571
G1 X47.406 Y84.555 E20.71411
G1 X47.406 Y74.012 E21.97927
G1 X46.348 Y74.012 E22.10623
G1 X46.294 Y70.047 E22.58208
G1 X46.285 Y69.434 E22.65564
G1 X46.272 Y68.499 E22.76786
G1 X46.258 Y67.567 E22.87971
G1 X46.243 Y66.635 E22.99156
G1 X46.227 Y65.704 E23.10330
G1 X46.228 Y65.704 E23.10342
G1 X46.210 Y64.774 E23.21504
G1 X46.193 Y63.836 E23.32762
G1 X46.179 Y63.275 E23.39496
G1 X46.158 Y62.288 E23.51343
G1 X46.139 Y61.594 E23.59674
G1 X46.139 Y58.120 E24.01362
G1 X47.100 Y58.120 E24.12894
G1 X47.100 Y46.644 E25.50606
G10
G0 F9000 X50.900 Y50.448
;TYPE:WALL-INNER
G11
G1 F1800 X51.353 Y50.448 E25.56042
G1 X51.353 Y61.920 E26.93706
G1 X55.615 Y61.920 E27.44850
G1 X55.615 Y50.434 E28.82682
G1 X56.068 Y50.440 E28.88118
G1 X56.068 Y61.920 E30.25878
G1 X57.013 Y61.920 E30.37218
G1 X56.984 Y63.050 E30.50783
G1 X56.935 Y65.586 E30.81220
G1 X56.906 Y67.274 E31.01479
G1 X56.870 Y69.816 E31.31986
G1 X56.866 Y70.212 E31.36739
G1 X55.762 Y70.212 E31.49987
G1 X55.762 Y80.767 E32.76647
G1 X55.462 Y80.768 E32.80247
G1 X55.462 Y70.215 E34.06883
G1 X51.488 Y70.216 E34.54571
G1 X51.489 Y80.769 E35.81207
G1 X51.206 Y80.768 E35.84603
G1 X51.206 Y70.212 E37.11275
G1 X50.097 Y70.212 E37.24583
G1 X50.058 Y67.510 E37.57010
G1 X50.027 Y65.638 E37.79477
G1 X49.992 Y63.765 E38.01957
G1 X49.978 Y63.187 E38.08895
G1 X49.957 Y62.206 E38.20670
G1 X49.949 Y61.920 E38.24103
G1 X50.900 Y61.920 E38.35515
G1 X50.900 Y50.448 E39.73179
G0 F9000 X50.500 Y50.047
;TYPE:WALL-OUTER
G1 F1800 X51.753 Y50.047 E39.88215
G1 X51.753 Y61.520 E41.25891
G1 X55.215 Y61.520 E41.67435
G1 X55.215 Y50.034 E43.05267
G1 X55.477 Y50.032 E43.08411
G1 X56.468 Y50.045 E43.20304
G1 X56.468 Y61.520 E44.58004
G1 X57.428 Y61.520 E44.69524
G1 X57.403 Y62.217 E44.77894
G1 X57.320 Y66.436 E45.28531
G1 X57.270 Y69.820 E45.69144
G1 X57.265 Y70.305 E45.74964
G1 X57.266 Y70.612 E45.78648
G1 X56.162 Y70.612 E45.91896
G1 X56.162 Y81.166 E47.18544
G1 X55.062 Y81.169 E47.31744
G1 X55.062 Y70.615 E48.58392
G1 X51.888 Y70.616 E48.96480
G1 X51.889 Y81.169 E50.23116
G1 X50.806 Y81.166 E50.36112
G1 X50.806 Y70.612 E51.62760
G1 X49.702 Y70.612 E51.76008
G1 X49.627 Y65.646 E52.35607
G1 X49.592 Y63.774 E52.58075
G1 X49.539 Y61.551 E52.84759
G1 X49.539 Y61.520 E52.85131
G1 X50.500 Y61.520 E52.96663
G1 X50.500 Y50.047 E54.34339
G0 F9000 X51.038 Y50.756
;TYPE:SKIN
G1 F1800 X51.125 Y51.125 E54.37284
G1 X51.125 Y51.691 E54.40222
G1 X51.125 Y52.257 E54.43159
G1 X51.125 Y52.822 E54.46109
G1 X51.125 Y53.388 E54.49046
G1 X51.125 Y53.954 E54.51984
G1 X51.125 Y54.519 E54.54933
G1 X51.125 Y55.085 E54.57871
G1 X51.125 Y55.651 E54.60808
G1 X51.125 Y56.216 E54.63757
G1 X51.125 Y56.782 E54.66712
G1 X51.125 Y57.348 E54.69667
G1 X51.125 Y57.914 E54.72621
G1 X51.125 Y58.479 E54.75570
G1 X51.125 Y59.045 E54.78525
G1 X51.125 Y59.611 E54.81479
G1 X51.213 Y59.981 E54.86043
G0 F9000 X51.412 Y61.861
G0 X55.556 Y61.861
G0 X55.754 Y59.997
G1 F1800 X55.841 Y60.366 E54.88989
G1 X55.841 Y60.932 E54.91927
G1 X55.841 Y61.498 E54.94864
G1 X55.928 Y61.868 E54.99425
G0 F9000 X56.119 Y62.059
G1 F1800 X56.857 Y62.797 E55.11949
G0 F9000 X56.847 Y63.353
G1 F1800 X55.553 Y62.059 E55.33909
G0 F9000 X54.988 Y62.059
G1 F1800 X56.837 Y63.909 E55.65296
G0 F9000 X56.828 Y64.464
G1 F1800 X54.422 Y62.059 E56.06119
G0 F9000 X53.856 Y62.059
G1 F1800 X56.817 Y65.019 E56.56360
G0 F9000 X56.807 Y65.575
G1 F1800 X53.291 Y62.059 E57.16029
G0 F9000 X52.725 Y62.059
G1 F1800 X56.797 Y66.131 E57.85133
G0 F9000 X56.787 Y66.687
G1 F1800 X52.159 Y62.059 E58.63673
G0 F9000 X51.594 Y62.059
G1 F1800 X56.777 Y67.243 E59.51640
G0 F9000 X56.767 Y67.798
G1 F1800 X51.028 Y62.059 E60.49034
G0 F9000 X51.213 Y61.678
G1 F1800 X51.125 Y61.308 E60.51977
G1 X51.125 Y60.742 E60.54932
G1 X51.038 Y60.372 E60.59493
G0 F9000 X50.841 Y61.861
G0 X50.462 Y62.059
G1 F1800 X56.758 Y68.354 E61.66331
G0 F9000 X56.748 Y68.910
G1 F1800 X50.096 Y62.258 E62.79219
G0 F9000 X50.107 Y62.834
G1 F1800 X56.738 Y69.466 E63.91760
G0 F9000 X56.728 Y70.021
G1 F1800 X50.116 Y63.410 E65.03961
G0 F9000 X50.127 Y63.986
G1 F1800 X56.212 Y70.071 E66.07226
G0 F9000 X55.646 Y70.071
G1 F1800 X50.137 Y64.562 E67.00717
G0 F9000 X50.147 Y65.137
G1 F1800 X55.083 Y70.074 E67.84493
G0 F9000 X54.517 Y70.074
G1 F1800 X50.157 Y65.714 E68.58484
G0 F9000 X50.167 Y66.289
G1 F1800 X53.952 Y70.074 E69.22718
G0 F9000 X53.387 Y70.074
G1 F1800 X50.178 Y66.866 E69.77168
G0 F9000 X50.188 Y67.441
G1 F1800 X52.821 Y70.074 E70.21851
G0 F9000 X52.255 Y70.074
G1 F1800 X50.198 Y68.017 E70.56760
G0 F9000 X50.208 Y68.593
G1 F1800 X51.690 Y70.074 E70.81902
G0 F9000 X51.120 Y70.070
G1 F1800 X50.218 Y69.169 E70.97201
G0 F9000 X50.228 Y69.744
G1 F1800 X50.554 Y70.070 E71.02733
G0 F9000 X56.867 Y62.241
G1 F1800 X56.685 Y62.059 E71.05822
G0 F9000 X56.127 Y61.861
G0 X55.928 Y59.605
G1 F1800 X55.841 Y59.235 E71.08764
G1 X55.841 Y58.669 E71.11701
G1 X55.841 Y58.104 E71.14650
G1 X55.841 Y57.538 E71.17588
G1 X55.841 Y56.972 E71.20525
G1 X55.840 Y56.406 E71.23463
G1 X55.840 Y55.841 E71.26378
G1 X55.840 Y55.275 E71.29316
G1 X55.840 Y54.709 E71.32236
G1 X55.840 Y54.144 E71.35152
G1 X55.840 Y53.578 E71.38089
G1 X55.840 Y53.012 E71.41010
G1 X55.840 Y52.446 E71.43931
G1 X55.840 Y51.881 E71.46846
G1 X55.840 Y51.315 E71.49767
G1 X55.754 Y50.946 E71.54313
;LAYER:1
M106 S255
G0 F9000 X55.615 Y49.737 Z0.500
;TYPE:WALL-INNER
G1 F2040 X56.068 Y49.741 E71.57937
G1 X56.068 Y61.920 E72.55369
G1 X57.406 Y61.920 E72.66073
G1 X57.387 Y62.477 E72.70532
G1 X57.354 Y63.347 E72.77497
G1 X57.295 Y65.087 E72.91425
G1 X57.269 Y65.956 E72.98380
G1 X57.203 Y68.532 E73.18995
G1 X57.204 Y68.572 E73.19315
G1 X57.185 Y69.358 E73.25605
G1 X57.169 Y70.193 E73.32286
G1 X57.169 Y70.212 E73.32438
G1 X55.762 Y70.212 E73.43694
G1 X55.762 Y81.467 E74.33734
G1 X55.462 Y81.468 E74.36134
G1 X55.462 Y70.214 E75.26166
G1 X51.489 Y70.217 E75.57950
G1 X51.489 Y81.469 E76.47966
G1 X51.206 Y81.468 E76.50230
G1 X51.206 Y70.212 E77.40278
G1 X49.799 Y70.212 E77.51534
G1 X49.764 Y68.441 E77.65705
G1 X49.718 Y66.568 E77.80693
G1 X49.692 Y65.631 E77.88192
G1 X49.675 Y65.127 E77.92226
G1 X49.651 Y64.306 E77.98797
G1 X49.630 Y63.754 E78.03216
G1 X49.563 Y62.116 E78.16331
G1 X49.557 Y61.920 E78.17900
G1 X50.900 Y61.920 E78.28644
G1 X50.900 Y49.747 E79.26028
G1 X51.353 Y49.748 E79.29652
G1 X51.353 Y61.920 E80.27028
G1 X55.615 Y61.920 E80.61124
G1 X55.615 Y49.737 E81.58588
G0 F9000 X55.215 Y49.333
;TYPE:WALL-OUTER
G1 F1920 X56.468 Y49.345 E81.68613
G1 X56.468 Y61.520 E82.66013
G1 X57.824 Y61.520 E82.76861
G1 X57.669 Y65.967 E83.12458
G1 X57.603 Y68.533 E83.32993
G1 X57.604 Y68.569 E83.33281
G1 X57.569 Y70.200 E83.46332
G1 X57.562 Y70.612 E83.49629
G1 X56.162 Y70.612 E83.60829
G1 X56.162 Y81.866 E84.50861
G1 X55.062 Y81.868 E84.59661
G1 X55.062 Y70.615 E85.49685
G1 X51.889 Y70.616 E85.75069
G1 X51.889 Y81.868 E86.65085
G1 X51.659 Y81.869 E86.66925
G1 X50.806 Y81.867 E86.73749
G1 X50.806 Y70.612 E87.63789
G1 X49.405 Y70.612 E87.74997
G1 X49.364 Y68.450 E87.92296
G1 X49.292 Y65.643 E88.14759
G1 X49.230 Y63.771 E88.29743
G1 X49.142 Y61.520 E88.47765
G1 X50.500 Y61.520 E88.58629
G1 X50.500 Y49.347 E89.56013
G1 X51.753 Y49.348 E89.66037
G1 X51.753 Y61.520 E90.63413
G1 X55.215 Y61.520 E90.91109
G1 X55.215 Y49.333 E91.88605
G0 F9000 X55.927 Y50.138
;TYPE:SKIN
G1 F1740 X55.840 Y50.507 E91.90554
G1 X55.840 Y51.073 E91.92501
G1 X55.840 Y51.638 E91.94444
G1 X55.840 Y52.204 E91.96391
G1 X55.840 Y52.770 E91.98339
G1 X55.840 Y53.335 E92.00282
G1 X55.840 Y53.901 E92.02229
G1 X55.840 Y54.467 E92.04176
G1 X55.840 Y55.032 E92.06120
G1 X55.840 Y55.598 E92.08067
G1 X55.840 Y56.164 E92.10014
G1 X55.840 Y56.729 E92.11957
G1 X55.840 Y57.295 E92.13905
G1 X55.840 Y57.861 E92.15852
G1 X55.840 Y58.426 E92.17795
G1 X55.840 Y58.992 E92.19742
G1 X55.840 Y59.558 E92.21689
G1 X55.754 Y59.928 E92.24728
G0 F9000 X55.556 Y61.861
G0 X51.412 Y61.861
G0 X51.212 Y59.944
G1 F1740 X51.125 Y60.313 E92.26677
G1 X51.125 Y60.879 E92.28635
G1 X51.125 Y61.444 E92.30579
G1 X51.039 Y61.814 E92.33618
G0 F9000 X50.795 Y62.059
G1 F1740 X49.744 Y63.109 E92.45503
G0 F9000 X49.721 Y62.566
G1 F1740 X50.229 Y62.059 E92.51244
G0 F9000 X51.360 Y62.059
G1 F1740 X49.766 Y63.653 E92.69278
G0 F9000 X49.782 Y64.203
G1 F1740 X51.926 Y62.059 E92.93535
G0 F9000 X52.492 Y62.059
G1 F1740 X49.797 Y64.754 E93.24026
G0 F9000 X49.811 Y65.305
G1 F1740 X53.057 Y62.059 E93.60750
G0 F9000 X53.623 Y62.059
G1 F1740 X49.826 Y65.856 E94.03708
G0 F9000 X49.840 Y66.407
G1 F1740 X54.189 Y62.059 E94.52906
G0 F9000 X54.754 Y62.059
G1 F1740 X49.854 Y66.959 E95.08343
G0 F9000 X49.869 Y67.510
G1 F1740 X55.320 Y62.059 E95.70014
G0 F9000 X55.927 Y62.017
G1 F1740 X49.883 Y68.061 E96.38394
G0 F9000 X49.898 Y68.612
G1 F1740 X56.451 Y62.059 E97.12533
G0 F9000 X57.017 Y62.059
G1 F1740 X49.912 Y69.164 E97.92916
G0 F9000 X49.926 Y69.715
G1 F1740 X57.250 Y62.392 E98.75772
G0 F9000 X57.232 Y62.975
G1 F1740 X50.136 Y70.071 E99.56055
G0 F9000 X50.702 Y70.071
G1 F1740 X57.214 Y63.559 E100.29729
G0 F9000 X57.196 Y64.143
G1 F1740 X51.268 Y70.071 E100.96797
G0 F9000 X51.828 Y70.076
G1 F1740 X57.178 Y64.726 E101.57325
G0 F9000 X57.161 Y65.309
G1 F1740 X52.394 Y70.076 E102.11258
G0 F9000 X52.960 Y70.075
G1 F1740 X57.143 Y65.893 E102.58577
G0 F9000 X57.125 Y66.477
G1 F1740 X53.527 Y70.074 E102.99278
G0 F9000 X54.092 Y70.074
G1 F1740 X57.107 Y67.060 E103.33384
G0 F9000 X57.089 Y67.643
G1 F1740 X54.659 Y70.074 E103.60882
G0 F9000 X55.225 Y70.074
G1 F1740 X57.072 Y68.227 E103.81778
G0 F9000 X57.058 Y68.806
G1 F1740 X55.793 Y70.071 E103.96090
G0 F9000 X56.359 Y70.071
G1 F1740 X57.045 Y69.384 E104.03857
G0 F9000 X57.033 Y69.963
G1 F1740 X56.924 Y70.071 E104.05084
G0 F9000 X55.754 Y61.625
G1 F1740 X55.840 Y61.255 E104.07044
G1 X55.840 Y60.689 E104.08991
G1 X55.927 Y60.320 E104.12024
G0 F9000 X55.556 Y61.861
G0 X51.412 Y61.861
G0 X51.212 Y59.378
G1 F1740 X51.039 Y59.268 E104.13976
G1 X51.125 Y58.616 E104.15936
G1 X51.125 Y58.050 E104.17883
G1 X51.125 Y57.485 E104.19827
G1 X51.125 Y56.919 E104.21785
G1 X51.125 Y56.353 E104.23732
G1 X51.125 Y55.788 E104.25676
G1 X51.125 Y55.222 E104.27623
G1 X51.125 Y54.656 E104.29570
G1 X51.125 Y54.091 E104.31513
G1 X51.125 Y53.525 E104.33449
G1 X51.125 Y52.959 E104.35396
G1 X51.125 Y52.394 E104.37340
G1 X51.125 Y51.828 E104.39275
G1 X51.125 Y51.262 E104.41222
G1 X51.125 Y50.697 E104.43166
G1 X51.212 Y50.328 E104.46199
;LAYER:2
G0 F9000 X51.353 Y49.230 Z0.700
;TYPE:WALL-INNER
G1 F2400 X51.353 Y61.920 E105.47719
G1 X55.615 Y61.920 E105.81815
G1 X55.615 Y49.219 E106.83423
G1 X56.068 Y49.224 E106.87047
G1 X56.068 Y61.920 E107.88615
G1 X57.703 Y61.920 E108.01695
G1 X57.649 Y62.866 E108.09275
G1 X57.606 Y63.691 E108.15884
G1 X57.584 Y64.214 E108.20072
G1 X57.547 Y65.080 E108.27006
G1 X57.510 Y65.949 E108.33965
G1 X57.478 Y66.820 E108.40937
G1 X57.425 Y68.557 E108.54840
G1 X57.403 Y69.426 E108.61794
G1 X57.387 Y70.212 E108.68083
G1 X55.762 Y70.212 E108.81083
G1 X55.762 Y81.985 E109.75267
G1 X55.462 Y81.986 E109.77667
G1 X55.462 Y70.214 E110.71843
G1 X51.491 Y70.217 E111.03611
G1 X51.491 Y81.987 E111.97771
G1 X51.206 Y81.986 E112.00051
G1 X51.206 Y70.212 E112.94243
G1 X49.584 Y70.212 E113.07219
G1 X49.542 Y68.536 E113.20632
G1 X49.512 Y67.531 E113.28675
G1 X49.479 Y66.563 E113.36424
G1 X49.444 Y65.625 E113.43933
G1 X49.404 Y64.687 E113.51444
G1 X49.369 Y63.891 E113.57818
G1 X49.314 Y62.808 E113.66493
G1 X49.263 Y61.920 E113.73609
G1 X50.900 Y61.920 E113.86705
G1 X50.900 Y49.230 E114.88225
G1 X51.353 Y49.230 E114.91849
G0 F9000 X51.753 Y48.830
;TYPE:WALL-OUTER
G1 F2100 X51.753 Y61.520 E115.93369
G1 X55.215 Y61.520 E116.21065
G1 X55.215 Y48.819 E117.22673
G1 X55.399 Y48.817 E117.24145
G1 X56.468 Y48.828 E117.32697
G1 X56.468 Y61.520 E118.34233
G1 X58.133 Y61.520 E118.47553
G1 X58.093 Y62.069 E118.51957
G1 X58.005 Y63.709 E118.65096
G1 X57.878 Y66.833 E118.90108
G1 X57.825 Y68.568 E119.03995
G1 X57.775 Y70.612 E119.20352
G1 X56.162 Y70.612 E119.33256
G1 X56.162 Y82.384 E120.27432
G1 X55.536 Y82.386 E120.32440
G1 X55.062 Y82.385 E120.36232
G1 X55.062 Y70.615 E121.30392
G1 X51.891 Y70.616 E121.55760
G1 X51.891 Y82.385 E122.49912
G1 X51.424 Y82.387 E122.53648
G1 X50.806 Y82.384 E122.58592
G1 X50.806 Y70.612 E123.52768
G1 X49.194 Y70.612 E123.65664
G1 X49.142 Y68.547 E123.82189
G1 X49.079 Y66.577 E123.97957
G1 X49.005 Y64.705 E124.12945
G1 X48.970 Y63.910 E124.19311
G1 X48.915 Y62.830 E124.27962
G1 X48.861 Y61.890 E124.35495
G1 X48.834 Y61.520 E124.38463
G1 X50.500 Y61.520 E124.51791
G1 X50.500 Y48.830 E125.53311
G1 X51.753 Y48.830 E125.63335
G0 F9000 X51.038 Y49.624
;TYPE:SKIN
G1 F1800 X51.125 Y49.994 E125.65296
G1 X51.125 Y50.560 E125.67254
G1 X51.125 Y51.125 E125.69220
G1 X51.125 Y51.691 E125.71179
G1 X51.125 Y52.257 E125.73137
G1 X51.125 Y52.822 E125.75103
G1 X51.125 Y53.388 E125.77062
G1 X51.125 Y53.954 E125.79020
G1 X51.125 Y54.519 E125.80986
G1 X51.125 Y55.085 E125.82945
G1 X51.125 Y55.651 E125.84903
G1 X51.125 Y56.216 E125.86869
G1 X51.125 Y56.782 E125.88839
G1 X51.125 Y57.348 E125.90809
G1 X51.125 Y57.914 E125.92778
G1 X51.125 Y58.479 E125.94744
G1 X51.125 Y59.045 E125.96714
G1 X51.125 Y59.611 E125.98684
G1 X51.213 Y59.981 E126.01726
G0 F9000 X51.412 Y61.861
G0 X55.556 Y61.861
G0 X55.753 Y59.996
G1 F1800 X55.840 Y60.366 E126.03703
G1 X55.840 Y60.931 E126.05669
G1 X55.840 Y61.497 E126.07639
G1 X55.928 Y61.868 E126.10689
G0 F9000 X56.119 Y62.059
G1 F1800 X57.489 Y63.428 E126.26183
G0 F9000 X57.514 Y62.888
G1 F1800 X56.685 Y62.059 E126.35562
G0 F9000 X57.250 Y62.059
G1 F1800 X57.540 Y62.348 E126.38838
G0 F9000 X57.463 Y63.969
G1 F1800 X55.553 Y62.059 E126.60447
G0 F9000 X54.988 Y62.059
G1 F1800 X57.438 Y64.509 E126.88165
G0 F9000 X57.412 Y65.049
G1 F1800 X54.422 Y62.059 E127.21993
G0 F9000 X53.856 Y62.059
G1 F1800 X57.387 Y65.589 E127.61936
G0 F9000 X57.365 Y66.133
G1 F1800 X53.291 Y62.059 E128.08028
G0 F9000 X52.725 Y62.059
