;FLAVOR:UltiGCode
;TIME:4143
;MATERIAL:10843
;MATERIAL2:0

;Layer count: 20
;LAYER:0
M107
G0 F9000 X57.361 Y68.796 Z0.300
G0 X57.362 Y69.163
;TYPE:SKIRT
G1 F1800 X57.361 Y68.796 E0.04404
G1 X64.150 Y68.796 E0.85872
G1 X64.150 Y69.155 E0.90180
G1 X64.283 Y69.194 E0.91843
G1 X65.208 Y69.760 E1.04856
G1 X66.019 Y70.538 E1.18342
G1 X66.622 Y71.606 E1.33060
G1 X66.904 Y72.676 E1.46338
G1 X66.906 Y74.389 E1.66894
G1 X66.849 Y75.005 E1.74318
G1 X66.575 Y75.934 E1.85941
G1 X66.337 Y76.339 E1.91578
G1 X66.338 Y79.207 E2.25994
G1 X67.274 Y79.207 E2.37226
G1 X67.281 Y88.432 E3.47926
G1 X54.064 Y88.432 E5.06530
G1 X54.064 Y83.555 E5.65054
G1 X54.076 Y79.207 E6.17230
G1 X55.207 Y79.207 E6.30802
G1 X55.206 Y78.095 E6.44146
G1 X55.207 Y76.344 E6.65158
G1 X54.955 Y75.926 E6.71015
G1 X54.656 Y74.841 E6.84520
G1 X54.637 Y74.267 E6.91412
G1 X54.638 Y73.737 E6.97772
G1 X54.637 Y73.136 E7.04984
G1 X54.668 Y72.472 E7.12961
G1 X55.012 Y71.388 E7.26608
G1 X55.602 Y70.463 E7.39774
G1 X56.334 Y69.760 E7.51953
G1 X57.260 Y69.193 E7.64982
G1 X57.362 Y69.163 E7.66258
G0 F9000 X57.764 Y69.464
G1 F1800 X57.763 Y69.196 E7.69474
G1 X63.750 Y69.196 E8.41318
G1 X63.750 Y69.456 E8.44438
G1 X64.120 Y69.563 E8.49060
G1 X64.963 Y70.079 E8.60921
G1 X65.699 Y70.786 E8.73168
G1 X66.249 Y71.758 E8.86569
G1 X66.505 Y72.728 E8.98608
G1 X66.506 Y74.370 E9.18312
G1 X66.454 Y74.929 E9.25049
G1 X66.206 Y75.774 E9.35617
G1 X65.937 Y76.231 E9.41980
G1 X65.937 Y76.281 E9.42580
G1 X65.938 Y79.607 E9.82492
G1 X66.874 Y79.607 E9.93724
G1 X66.881 Y88.032 E10.94824
G1 X54.464 Y88.032 E12.43828
G1 X54.464 Y83.556 E12.97540
G1 X54.475 Y79.607 E13.44928
G1 X55.607 Y79.607 E13.58512
G1 X55.606 Y78.095 E13.76656
G1 X55.607 Y76.265 E13.98616
G1 X55.607 Y76.233 E13.99000
G1 X55.326 Y75.767 E14.05530
G1 X55.054 Y74.781 E14.17804
G1 X55.037 Y74.261 E14.24048
G1 X55.038 Y73.738 E14.30324
G1 X55.037 Y73.145 E14.37440
G1 X55.065 Y72.543 E14.44671
G1 X55.377 Y71.559 E14.57059
G1 X55.913 Y70.718 E14.69026
G1 X56.579 Y70.079 E14.80102
G1 X57.423 Y69.562 E14.91979
G1 X57.764 Y69.464 E14.96237
G0 F9000 X58.165 Y69.764
G1 F1800 X58.164 Y69.596 E14.98253
G1 X63.350 Y69.596 E15.60485
G1 X63.350 Y69.756 E15.62405
G1 X63.957 Y69.932 E15.69989
G1 X64.717 Y70.397 E15.80680
G1 X65.380 Y71.034 E15.91713
G1 X65.875 Y71.910 E16.03788
G1 X66.105 Y72.780 E16.14586
G1 X66.106 Y74.352 E16.33450
G1 X66.060 Y74.853 E16.39488
G1 X65.836 Y75.614 E16.49007
G1 X65.538 Y76.122 E16.56074
G1 X65.537 Y76.280 E16.57970
G1 X65.538 Y79.611 E16.97942
G1 X65.537 Y80.007 E17.02694
G1 X66.474 Y80.007 E17.13938
G1 X66.481 Y87.632 E18.05438
G1 X54.864 Y87.632 E19.44842
G1 X54.864 Y83.556 E19.93754
G1 X54.874 Y80.007 E20.36343
G1 X56.007 Y80.007 E20.49939
G1 X56.007 Y79.733 E20.53227
G1 X56.006 Y78.095 E20.72883
G1 X56.007 Y76.265 E20.94843
G1 X56.007 Y76.121 E20.96571
G1 X55.697 Y75.607 E21.03774
G1 X55.452 Y74.720 E21.14816
G1 X55.437 Y74.255 E21.20399
G1 X55.438 Y73.739 E21.26591
G1 X55.437 Y73.154 E21.33611
G1 X55.462 Y72.614 E21.40098
G1 X55.743 Y71.730 E21.51229
G1 X56.225 Y70.973 E21.61998
G1 X56.825 Y70.397 E21.71979
G1 X57.586 Y69.932 E21.82681
G1 X58.165 Y69.764 E21.89915
G10
G0 F9000 X59.238 Y73.746
;TYPE:WALL-INNER
G11
G1 F1800 X59.237 Y73.410 E21.93947
G1 X59.551 Y73.399 E21.97718
G1 X59.551 Y74.089 E22.05998
G1 X59.237 Y74.020 E22.09856
G1 X59.238 Y73.746 E22.13144
G10
G0 F9000 X61.976 Y73.399
G11
G1 F1800 X62.305 Y73.410 E22.17094
G1 X62.306 Y74.022 E22.24438
G1 X61.976 Y74.084 E22.28467
G1 X61.976 Y73.399 E22.36687
G0 F9000 X61.917 Y73.337
G0 X61.916 Y79.461
G0 X61.738 Y79.520
G1 F1800 X61.735 Y83.807 E22.88131
G1 X62.677 Y83.807 E22.99435
G1 X62.678 Y83.832 E22.99735
G1 X58.664 Y83.832 E23.47903
G1 X58.664 Y83.807 E23.48203
G1 X59.805 Y83.807 E23.61895
G1 X59.805 Y79.520 E24.13339
G1 X61.738 Y79.520 E24.36535
G0 F9000 X61.575 Y79.120
;TYPE:WALL-OUTER
G1 F1800 X61.575 Y72.996 E25.10023
G1 X62.360 Y73.009 E25.19445
G1 X62.571 Y73.070 E25.22080
G1 X62.631 Y73.107 E25.22926
G1 X62.665 Y73.140 E25.23495
G1 X62.700 Y73.201 E25.24339
G1 X62.706 Y74.192 E25.36231
G1 X62.705 Y74.210 E25.36447
G1 X62.691 Y74.255 E25.37013
G1 X62.679 Y74.276 E25.37303
G1 X62.555 Y74.367 E25.39149
G1 X62.482 Y74.396 E25.40091
G1 X62.137 Y74.461 E25.44304
G1 X62.136 Y83.407 E26.51656
G1 X63.077 Y83.407 E26.62948
G1 X63.078 Y84.232 E26.72848
G1 X58.264 Y84.232 E27.30616
G1 X58.265 Y83.407 E27.40516
G1 X59.405 Y83.407 E27.54196
G1 X59.405 Y74.466 E28.61488
G1 X59.034 Y74.385 E28.66045
G1 X58.910 Y74.320 E28.67725
G1 X58.866 Y74.280 E28.68439
G1 X58.851 Y74.255 E28.68789
G1 X58.837 Y74.205 E28.69412
G1 X58.837 Y73.234 E28.81064
G1 X58.838 Y73.219 E28.81244
G1 X58.849 Y73.183 E28.81696
G1 X58.911 Y73.107 E28.82873
G1 X58.971 Y73.071 E28.83712
G1 X59.183 Y73.009 E28.86363
G1 X59.951 Y72.996 E28.95580
G1 X59.951 Y79.120 E29.69068
G1 X61.575 Y79.120 E29.88556
G0 F9000 X61.274 Y79.659
;TYPE:SKIN
G1 F1800 X61.598 Y79.982 E29.94046
G0 F9000 X61.598 Y80.548
G1 F1800 X60.708 Y79.659 E30.09142
G0 F9000 X60.142 Y79.659
G1 F1800 X61.597 Y81.113 E30.33825
G0 F9000 X61.596 Y81.678
G1 F1800 X59.944 Y80.026 E30.61861
G0 F9000 X59.944 Y80.592
G1 F1800 X61.596 Y82.244 E30.89896
G0 F9000 X61.596 Y82.809
G1 F1800 X59.944 Y81.158 E31.17923
G0 F9000 X59.944 Y81.723
G1 F1800 X61.596 Y83.374 E31.45950
G0 F9000 X61.346 Y83.691
G1 F1800 X59.944 Y82.289 E31.69743
G0 F9000 X59.944 Y82.855
G1 F1800 X60.780 Y83.691 E31.83930
G0 F9000 X60.215 Y83.691
G1 F1800 X59.944 Y83.420 E31.88529
;LAYER:1
M106 S255
G0 F9000 X59.403 Y75.448 Z0.500
G0 X59.545 Y74.173
G0 X59.302 Y73.937
;TYPE:FILL
G1 F2820 X59.411 Y73.829 E31.89757
G0 F9000 X59.045 Y73.432
;TYPE:WALL-INNER
G1 F2520 X59.045 Y73.407 E31.89957
G1 X59.551 Y73.396 E31.94005
G1 X59.551 Y74.127 E31.99853
G1 X59.044 Y74.031 E32.03982
G1 X59.045 Y73.432 E32.08774
G0 F9000 X59.552 Y73.516
G0 X59.610 Y79.461
G0 X61.916 Y79.461
G0 X61.972 Y73.918
G0 X62.497 Y74.006
G1 F2520 X62.497 Y74.031 E32.08974
G1 X61.976 Y74.134 E32.13222
G1 X61.976 Y73.396 E32.19126
G1 X62.498 Y73.400 E32.23302
G1 X62.497 Y74.006 E32.28150
G0 F9000 X61.999 Y74.175
G0 X61.949 Y79.520
G1 F2520 X61.950 Y82.346 E32.50758
G1 X61.948 Y83.807 E32.62446
G1 X62.911 Y83.807 E32.70150
G1 X62.912 Y83.832 E32.70351
G1 X58.503 Y83.832 E33.05623
G1 X58.503 Y83.807 E33.05823
G1 X59.592 Y83.807 E33.14535
G1 X59.592 Y79.520 E33.48831
G1 X61.949 Y79.520 E33.67687
G0 F9000 X61.575 Y79.120
;TYPE:WALL-OUTER
G1 F1920 X61.575 Y72.996 E34.16679
G1 X62.477 Y72.996 E34.23895
G1 X62.613 Y73.007 E34.24986
G1 X62.717 Y73.035 E34.25848
G1 X62.769 Y73.059 E34.26306
G1 X62.866 Y73.140 E34.27317
G1 X62.886 Y73.173 E34.27626
G1 X62.897 Y73.221 E34.28020
G1 X62.898 Y73.236 E34.28140
G1 X62.897 Y74.005 E34.34292
G1 X62.898 Y74.185 E34.35732
G1 X62.881 Y74.261 E34.36355
G1 X62.865 Y74.290 E34.36620
G1 X62.812 Y74.341 E34.37208
G1 X62.698 Y74.400 E34.38235
G1 X62.352 Y74.467 E34.41055
G1 X62.349 Y83.407 E35.12575
G1 X63.311 Y83.407 E35.20271
G1 X63.312 Y84.232 E35.26871
G1 X58.103 Y84.232 E35.68543
G1 X58.103 Y83.407 E35.75143
G1 X59.192 Y83.407 E35.83855
G1 X59.191 Y74.466 E36.55383
G1 X58.843 Y74.400 E36.58216
G1 X58.732 Y74.343 E36.59214
G1 X58.677 Y74.290 E36.59825
G1 X58.647 Y74.213 E36.60487
G1 X58.644 Y74.191 E36.60664
G1 X58.645 Y73.433 E36.66728
G1 X58.644 Y73.242 E36.68256
G1 X58.658 Y73.172 E36.68827
G1 X58.715 Y73.099 E36.69568
G1 X58.771 Y73.061 E36.70110
G1 X58.921 Y73.009 E36.71380
G1 X59.487 Y72.996 E36.75909
G1 X59.951 Y72.996 E36.79621
G1 X59.951 Y79.120 E37.28613
G1 X61.575 Y79.120 E37.41605
G0 F9000 X61.799 Y79.339
;TYPE:SKIN
G1 F1740 X61.961 Y78.892 E37.45561
G1 X61.961 Y78.327 E37.49787
G1 X61.962 Y77.761 E37.54032
G1 X61.962 Y77.195 E37.58277
G1 X61.962 Y76.629 E37.62522
G1 X61.962 Y76.063 E37.66778
G1 X61.962 Y75.498 E37.71027
G1 X61.962 Y74.932 E37.75283
G1 X62.151 Y74.461 E37.79343
G0 F9000 X61.916 Y79.461
G0 X61.479 Y79.659
G1 F1740 X59.732 Y81.406 E37.99108
G0 F9000 X59.732 Y81.972
G1 F1740 X61.808 Y79.895 E38.22601
G0 F9000 X60.913 Y79.659
G1 F1740 X59.732 Y80.840 E38.35963
G0 F9000 X59.732 Y80.275
G1 F1740 X60.348 Y79.659 E38.42932
G0 F9000 X59.751 Y79.124
G1 F1740 X59.464 Y79.128 E38.45360
G1 X59.571 Y78.455 E38.49422
G1 X59.571 Y77.889 E38.53474
G1 X59.571 Y77.324 E38.57520
G1 X59.571 Y76.758 E38.61584
G1 X59.571 Y76.192 E38.65636
G1 X59.571 Y75.626 E38.69689
G1 X59.571 Y75.061 E38.73734
G1 X59.618 Y74.448 E38.77792
G1 X59.392 Y74.392 E38.79654
G0 F9000 X59.492 Y74.392
G0 X59.610 Y79.461
G0 X61.808 Y80.461
G1 F1740 X59.732 Y82.537 E39.03142
G0 F9000 X59.732 Y83.103
G1 F1740 X61.808 Y81.027 E39.26629
G0 F9000 X61.808 Y81.593
G1 F1740 X59.732 Y83.669 E39.50116
G0 F9000 X60.275 Y83.691
G1 F1740 X61.808 Y82.158 E39.67460
G0 F9000 X61.808 Y82.724
G1 F1740 X60.840 Y83.691 E39.78406
G0 F9000 X61.406 Y83.691
G1 F1740 X61.808 Y83.290 E39.82949
;LAYER:2
G0 F9000 X62.118 Y83.807 Z0.700
;TYPE:WALL-INNER
G1 F3300 X63.059 Y83.807 E39.90477
G1 X63.060 Y83.832 E39.90677
G1 X58.400 Y83.832 E40.27957
G1 X58.401 Y83.807 E40.28157
G1 X59.423 Y83.807 E40.36333
G1 X59.422 Y80.866 E40.59861
G1 X59.424 Y79.736 E40.68901
G1 X59.424 Y76.265 E40.96669
G1 X59.412 Y74.748 E41.08805
G1 X59.418 Y74.142 E41.13654
G1 X58.887 Y74.036 E41.17985
G1 X58.888 Y73.406 E41.23025
G1 X59.551 Y73.396 E41.28330
G1 X59.551 Y79.520 E41.77322
G1 X61.975 Y79.520 E41.96714
G1 X61.975 Y73.396 E42.45706
G1 X62.513 Y73.396 E42.50010
G1 X62.655 Y73.402 E42.51147
G1 X62.655 Y74.038 E42.56235
G1 X62.132 Y74.097 E42.60446
G1 X62.119 Y76.265 E42.77790
G1 X62.118 Y83.807 E43.38126
G0 F9000 X62.518 Y83.407
;TYPE:WALL-OUTER
G1 F2100 X63.459 Y83.407 E43.45654
G1 X63.460 Y84.232 E43.52254
G1 X58.000 Y84.232 E43.95934
G1 X58.001 Y83.407 E44.02534
G1 X59.023 Y83.407 E44.10710
G1 X59.024 Y76.266 E44.67838
G1 X59.012 Y74.744 E44.80014
G1 X59.015 Y74.469 E44.82214
G1 X58.645 Y74.395 E44.85233
G1 X58.564 Y74.344 E44.85999
G1 X58.502 Y74.252 E44.86886
G1 X58.487 Y74.185 E44.87436
G1 X58.488 Y73.248 E44.94932
G1 X58.503 Y73.170 E44.95567
G1 X58.541 Y73.106 E44.96162
G1 X58.597 Y73.060 E44.96742
G1 X58.725 Y73.009 E44.97844
G1 X59.315 Y72.996 E45.02566
G1 X59.951 Y72.996 E45.07654
G1 X59.951 Y79.120 E45.56646
G1 X61.575 Y79.120 E45.69638
G1 X61.575 Y72.996 E46.18630
G1 X62.506 Y72.996 E46.26078
G1 X62.810 Y73.009 E46.28512
G1 X62.946 Y73.061 E46.29677
G1 X62.993 Y73.096 E46.30145
G1 X63.020 Y73.129 E46.30487
G1 X63.037 Y73.163 E46.30791
G1 X63.055 Y73.247 E46.31478
G1 X63.055 Y74.185 E46.38982
G1 X63.038 Y74.263 E46.39621
G1 X62.987 Y74.337 E46.40340
G1 X62.940 Y74.373 E46.40813
G1 X62.863 Y74.407 E46.41487
G1 X62.807 Y74.423 E46.41953
G1 X62.530 Y74.454 E46.44182
G1 X62.519 Y76.266 E46.58679
G1 X62.518 Y83.407 E47.15807
G0 F9000 X61.978 Y83.191
;TYPE:SKIN
G1 F1800 X59.563 Y80.776 E47.43129
G0 F9000 X59.563 Y81.342
G1 F1800 X61.912 Y83.691 E47.69705
G0 F9000 X61.346 Y83.691
G1 F1800 X59.563 Y81.907 E47.89883
G0 F9000 X59.563 Y82.473
G1 F1800 X60.780 Y83.691 E48.03658
G0 F9000 X60.215 Y83.691
G1 F1800 X59.563 Y83.039 E48.11034
G0 F9000 X59.563 Y83.604
G1 F1800 X59.649 Y83.691 E48.12013
G0 F9000 X61.978 Y82.626
G1 F1800 X59.563 Y80.210 E48.39341
G0 F9000 X59.577 Y79.659
G1 F1800 X61.978 Y82.060 E48.66505
G0 F9000 X61.978 Y81.494
G1 F1800 X60.143 Y79.659 E48.87266
G0 F9000 X60.709 Y79.659
G1 F1800 X61.978 Y80.929 E49.01629
G0 F9000 X61.978 Y80.363
G1 F1800 X61.275 Y79.659 E49.09588
G0 F9000 X61.840 Y79.659
G1 F1800 X61.978 Y79.797 E49.11149
;LAYER:3
G0 F9000 X61.656 Y79.659 Z0.900
;TYPE:FILL
G1 F4320 X59.425 Y81.889 E49.36384
G0 F9000 X59.425 Y83.504
G1 F4320 X62.116 Y80.813 E49.66830
G0 F9000 X62.115 Y82.429
G1 F4320 X60.853 Y83.691 E49.81107
G0 F9000 X59.425 Y80.274
G1 F4320 X60.041 Y79.659 E49.88071
G0 F9000 X61.916 Y79.461
G0 X61.854 Y75.505
G0 X62.547 Y73.923
G1 F4320 X62.639 Y73.830 E49.89118
G0 F9000 X61.975 Y73.829
G0 X61.916 Y79.461
G0 X59.610 Y79.461
G0 X59.410 Y73.829
G1 F4320 X59.280 Y73.959 E49.90588
G0 F9000 X59.273 Y74.100
;TYPE:WALL-INNER
G1 F3480 X58.763 Y74.040 E49.94696
G1 X58.762 Y73.405 E49.99776
G1 X59.551 Y73.396 E50.06089
G1 X59.551 Y79.520 E50.55081
G1 X61.975 Y79.520 E50.74473
G1 X61.975 Y73.396 E51.23465
G1 X62.488 Y73.396 E51.27569
G1 X62.779 Y73.404 E51.29898
G1 X62.780 Y74.040 E51.34986
G1 X62.272 Y74.093 E51.39072
G1 X62.257 Y76.060 E51.54808
G1 X62.258 Y76.532 E51.58584
G1 X62.257 Y79.737 E51.84224
G1 X62.258 Y80.072 E51.86904
G1 X62.256 Y83.807 E52.16784
G1 X63.155 Y83.807 E52.23976
G1 X63.155 Y83.832 E52.24176
G1 X58.338 Y83.832 E52.62712
G1 X58.338 Y83.807 E52.62912
G1 X59.285 Y83.807 E52.70488
G1 X59.287 Y76.263 E53.30840
G1 X59.276 Y75.357 E53.38089
G1 X59.273 Y74.100 E53.48145
G0 F9000 X58.874 Y74.456
;TYPE:WALL-OUTER
G1 F1920 X58.570 Y74.420 E53.50594
G1 X58.473 Y74.380 E53.51433
G1 X58.412 Y74.325 E53.52090
G1 X58.372 Y74.257 E53.52721
G1 X58.362 Y74.205 E53.53145
G1 X58.363 Y74.091 E53.54057
G1 X58.362 Y73.239 E53.60873
G1 X58.364 Y73.210 E53.61106
G1 X58.374 Y73.168 E53.61451
G1 X58.396 Y73.123 E53.61852
G1 X58.422 Y73.091 E53.62182
G1 X58.476 Y73.049 E53.62729
G1 X58.574 Y73.009 E53.63576
G1 X59.152 Y72.996 E53.68201
G1 X59.951 Y72.996 E53.74593
G1 X59.951 Y79.120 E54.23585
G1 X61.575 Y79.120 E54.36577
G1 X61.575 Y72.996 E54.85569
G1 X62.499 Y72.996 E54.92961
G1 X62.956 Y73.009 E54.96618
G1 X63.089 Y73.064 E54.97770
G1 X63.146 Y73.123 E54.98426
G1 X63.165 Y73.163 E54.98780
G1 X63.180 Y73.235 E54.99369
G1 X63.179 Y73.350 E55.00289
G1 X63.180 Y74.198 E55.07073
G1 X63.165 Y74.265 E55.07622
G1 X63.110 Y74.348 E55.08419
G1 X63.024 Y74.404 E55.09240
G1 X62.962 Y74.423 E55.09758
G1 X62.669 Y74.454 E55.12115
G1 X62.657 Y76.061 E55.24972
G1 X62.656 Y83.407 E55.83740
G1 X63.555 Y83.407 E55.90932
G1 X63.555 Y84.232 E55.97532
G1 X57.938 Y84.232 E56.42468
G1 X57.938 Y83.407 E56.49068
G1 X58.885 Y83.407 E56.56644
G1 X58.887 Y76.266 E57.13772
G1 X58.876 Y75.362 E57.21004
G1 X58.874 Y74.456 E57.28252
G0 F9000 X58.910 Y74.159
G0 X59.222 Y74.145
G0 X59.782 Y79.659
;TYPE:SKIN
G1 F1500 X59.645 Y80.078 E57.32290
G1 X59.645 Y80.644 E57.37248
G1 X59.645 Y81.209 E57.42209
G1 X59.645 Y81.775 E57.47167
G1 X59.645 Y82.341 E57.52125
G1 X59.645 Y82.906 E57.57086
G1 X59.567 Y83.550 E57.62055
G1 X59.865 Y83.536 E57.64442
G0 F9000 X61.675 Y83.423
G1 F1500 X61.895 Y82.919 E57.69424
G1 X61.895 Y82.353 E57.74394
G1 X61.895 Y81.787 E57.79352
G1 X61.896 Y81.221 E57.84321
G1 X61.896 Y80.655 E57.89280
G1 X61.897 Y80.089 E57.94238
G1 X62.045 Y79.659 E57.97876
G0 F9000 X62.115 Y83.548
G1 F1500 X61.972 Y83.691 E57.99494
;LAYER:4
G0 F9000 X61.888 Y83.691 Z1.100
;TYPE:FILL
G1 F4320 X59.314 Y81.117 E58.28615
G0 F9000 X59.314 Y82.732
G1 F4320 X60.273 Y83.691 E58.39465
G0 F9000 X62.227 Y82.415
G1 F4320 X59.471 Y79.659 E58.70646
G0 F9000 X61.086 Y79.659
G1 F4320 X62.228 Y80.801 E58.83566
G0 F9000 X61.975 Y79.520
;TYPE:WALL-INNER
G1 F3420 X61.975 Y73.396 E59.32558
G1 X62.882 Y73.396 E59.39814
G1 X62.883 Y74.039 E59.44958
G1 X62.372 Y74.086 E59.49063
G1 X62.369 Y76.052 E59.64791
G1 X62.367 Y83.807 E60.26831
G1 X63.210 Y83.807 E60.33575
G1 X63.211 Y83.832 E60.33775
G1 X58.312 Y83.832 E60.72967
G1 X58.313 Y83.807 E60.73167
G1 X59.174 Y83.807 E60.80055
G1 X59.176 Y75.176 E61.49103
G1 X59.166 Y74.086 E61.57824
G1 X58.660 Y74.039 E61.61889
G1 X58.659 Y73.405 E61.66961
G1 X59.551 Y73.396 E61.74098
G1 X59.551 Y79.520 E62.23090
G1 X61.975 Y79.520 E62.42482
G0 F9000 X61.575 Y79.120
;TYPE:WALL-OUTER
G1 F1680 X61.575 Y72.996 E62.91474
G1 X62.988 Y72.996 E63.02778
G1 X63.071 Y73.006 E63.03446
G1 X63.192 Y73.058 E63.04500
G1 X63.223 Y73.085 E63.04829
G1 X63.249 Y73.118 E63.05165
G1 X63.269 Y73.162 E63.05552
G1 X63.283 Y73.231 E63.06115
G1 X63.282 Y73.417 E63.07603
G1 X63.283 Y74.187 E63.13763
G1 X63.268 Y74.275 E63.14477
G1 X63.222 Y74.345 E63.15147
G1 X63.136 Y74.405 E63.15986
G1 X63.082 Y74.423 E63.16441
G1 X62.771 Y74.451 E63.18939
G1 X62.767 Y83.407 E63.90587
G1 X63.610 Y83.407 E63.97331
G1 X63.611 Y84.232 E64.03931
G1 X57.912 Y84.232 E64.49523
G1 X57.913 Y83.407 E64.56123
G1 X58.774 Y83.407 E64.63011
G1 X58.776 Y75.178 E65.28843
G1 X58.769 Y74.451 E65.34660
G1 X58.460 Y74.423 E65.37142
G1 X58.411 Y74.407 E65.37554
