;FLAVOR:UltiGCode
;TIME:3333
;MATERIAL:6667
;MATERIAL2:0

;Layer count: 17
;LAYER:0
M107
G0 F9000 X83.872 Y79.688 Z0.300
G0 X83.874 Y80.207
;TYPE:SKIRT
G1 F1800 X83.872 Y79.688 E0.06228
G1 X90.833 Y79.688 E0.89760
G1 X90.833 Y80.191 E0.95796
G1 X91.625 Y80.664 E1.06866
G1 X92.405 Y81.486 E1.20464
G1 X92.896 Y82.338 E1.32264
G1 X93.233 Y83.412 E1.45772
G1 X93.231 Y84.653 E1.60664
G1 X93.234 Y85.413 E1.69784
G1 X92.929 Y86.596 E1.84444
G1 X92.746 Y86.892 E1.88620
G1 X92.746 Y88.643 E2.09632
G1 X93.562 Y88.643 E2.19424
G1 X93.562 Y93.246 E2.74660
G1 X93.572 Y97.696 E3.28060
G1 X81.009 Y97.696 E4.78816
G1 X81.018 Y88.643 E5.87452
G1 X81.987 Y88.643 E5.99080
G1 X81.988 Y86.875 E6.20296
G1 X81.773 Y86.481 E6.25683
G1 X81.534 Y85.535 E6.37391
G1 X81.502 Y85.020 E6.43583
G1 X81.503 Y84.308 E6.52127
G1 X81.502 Y84.005 E6.55763
G1 X81.522 Y83.316 E6.64035
G1 X81.982 Y81.936 E6.81490
G1 X83.010 Y80.725 E7.00552
G1 X83.874 Y80.207 E7.12641
G0 F9000 X84.275 Y80.462
G1 F1800 X84.274 Y80.088 E7.17129
G1 X90.433 Y80.088 E7.91037
G1 X90.433 Y80.425 E7.95081
G1 X90.457 Y80.432 E7.95381
G1 X91.373 Y80.979 E8.08184
G1 X92.082 Y81.727 E8.20551
G1 X92.528 Y82.500 E8.31260
G1 X92.833 Y83.473 E8.43497
G1 X92.831 Y84.653 E8.57657
G1 X92.834 Y85.363 E8.66177
G1 X92.557 Y86.437 E8.79486
G1 X92.346 Y86.778 E8.84298
G1 X92.346 Y89.043 E9.11478
G1 X93.162 Y89.043 E9.21270
G1 X93.162 Y93.246 E9.71706
G1 X93.171 Y97.296 E10.20307
G1 X81.410 Y97.296 E11.61439
G1 X81.417 Y89.043 E12.60475
G1 X82.387 Y89.043 E12.72115
G1 X82.387 Y88.993 E12.72715
G1 X82.388 Y86.773 E12.99355
G1 X82.148 Y86.334 E13.05358
G1 X81.931 Y85.473 E13.16014
G1 X81.902 Y85.008 E13.21604
G1 X81.903 Y84.309 E13.29992
G1 X81.902 Y84.010 E13.33580
G1 X81.920 Y83.386 E13.41072
G1 X82.337 Y82.136 E13.56884
G1 X83.272 Y81.034 E13.74227
G1 X84.136 Y80.516 E13.86315
G1 X84.275 Y80.462 E13.88105
G0 F9000 X84.676 Y80.735
G1 F1800 X84.675 Y80.488 E13.91069
G1 X90.033 Y80.488 E14.55365
G1 X90.033 Y80.724 E14.58197
G1 X90.296 Y80.801 E14.61485
G1 X91.121 Y81.295 E14.73024
G1 X91.760 Y81.968 E14.84161
G1 X92.159 Y82.661 E14.93757
G1 X92.433 Y83.534 E15.04737
G1 X92.431 Y84.652 E15.18153
G1 X92.434 Y85.313 E15.26085
G1 X92.185 Y86.279 E15.38056
G1 X91.946 Y86.665 E15.43504
G1 X91.946 Y88.849 E15.69712
G1 X91.945 Y89.443 E15.76840
G1 X92.762 Y89.443 E15.86644
G1 X92.762 Y93.246 E16.32280
G1 X92.770 Y96.896 E16.76080
G1 X81.810 Y96.896 E18.07600
G1 X81.817 Y89.443 E18.97036
G1 X82.788 Y89.443 E19.08688
G1 X82.787 Y88.993 E19.14088
G1 X82.788 Y86.672 E19.41940
G1 X82.524 Y86.187 E19.48566
G1 X82.328 Y85.411 E19.58171
G1 X82.302 Y84.996 E19.63160
G1 X82.303 Y84.310 E19.71392
G1 X82.302 Y84.015 E19.74932
G1 X82.318 Y83.457 E19.81631
G1 X82.692 Y82.336 E19.95812
G1 X83.534 Y81.343 E20.11435
G1 X84.312 Y80.877 E20.22318
G1 X84.676 Y80.735 E20.27006
G10
G0 F9000 X86.103 Y84.290
;TYPE:WALL-INNER
G11
G1 F1800 X86.234 Y84.288 E20.28579
G1 X86.234 Y84.700 E20.33523
G1 X86.102 Y84.674 E20.35137
G1 X86.103 Y84.290 E20.39745
G10
G0 F9000 X88.631 Y84.674
G11
G1 F1800 X88.487 Y84.701 E20.41503
G1 X88.487 Y84.289 E20.46447
G1 X88.632 Y84.294 E20.48188
G1 X88.631 Y84.674 E20.52748
G10
G0 F9000 X86.588 Y89.657
G11
G1 F1800 X86.588 Y89.555 E20.53972
G1 X88.147 Y89.555 E20.72680
G1 X88.147 Y92.388 E21.06676
G1 X88.149 Y93.096 E21.15172
G1 X86.586 Y93.096 E21.33928
G1 X86.588 Y89.657 E21.75196
G0 F9000 X86.634 Y89.155
;TYPE:WALL-OUTER
G1 F1800 X88.086 Y89.155 E21.92620
G1 X88.086 Y83.888 E22.55824
G1 X88.772 Y83.898 E22.64057
G1 X88.923 Y83.942 E22.65944
G1 X88.977 Y83.975 E22.66704
G1 X89.026 Y84.033 E22.67615
G1 X89.032 Y84.052 E22.67854
G1 X89.031 Y84.647 E22.74994
G1 X89.032 Y84.887 E22.77874
G1 X89.020 Y84.932 E22.78433
G1 X89.008 Y84.953 E22.78723
G1 X88.986 Y84.975 E22.79097
G1 X88.841 Y85.042 E22.81013
G1 X88.547 Y85.096 E22.84600
G1 X88.548 Y92.843 E23.77564
G1 X89.362 Y92.843 E23.87332
G1 X89.363 Y93.496 E23.95168
G1 X85.213 Y93.496 E24.44968
G1 X85.214 Y92.843 E24.52804
G1 X86.186 Y92.843 E24.64468
G1 X86.186 Y85.370 E25.54144
G1 X86.189 Y85.098 E25.57409
G1 X85.877 Y85.039 E25.61219
G1 X85.753 Y84.977 E25.62883
G1 X85.713 Y84.928 E25.63642
G1 X85.702 Y84.886 E25.64163
G1 X85.703 Y84.315 E25.71015
G1 X85.702 Y84.058 E25.74099
G1 X85.710 Y84.033 E25.74414
G1 X85.763 Y83.971 E25.75392
G1 X85.815 Y83.939 E25.76125
G1 X85.873 Y83.917 E25.76869
G1 X85.956 Y83.898 E25.77891
G1 X86.634 Y83.888 E25.86028
G1 X86.634 Y89.155 E26.49232
G0 F9000 X86.727 Y89.838
;TYPE:SKIN
G1 F1800 X88.007 Y91.119 E26.70963
G0 F9000 X88.007 Y90.553
G1 F1800 X87.148 Y89.694 E26.85541
G0 F9000 X87.714 Y89.694
G1 F1800 X88.007 Y89.987 E26.90513
G0 F9000 X86.727 Y90.404
G1 F1800 X88.008 Y91.685 E27.12252
G0 F9000 X88.008 Y92.251
G1 F1800 X86.726 Y90.969 E27.34009
G0 F9000 X86.726 Y91.534
G1 F1800 X88.008 Y92.816 E27.55765
G0 F9000 X87.581 Y92.955
G1 F1800 X86.725 Y92.099 E27.70292
G0 F9000 X86.725 Y92.665
G1 F1800 X87.015 Y92.955 E27.75213
;LAYER:1
M106 S255
G0 F9000 X86.386 Y93.096 Z0.500
;TYPE:WALL-INNER
G1 F2040 X86.386 Y89.555 E28.03541
G1 X88.348 Y89.555 E28.19237
G1 X88.350 Y90.105 E28.23637
G1 X88.345 Y93.096 E28.47565
G1 X86.386 Y93.096 E28.63237
G0 F9000 X86.341 Y84.819
G0 X85.920 Y84.682
G1 F2040 X85.919 Y84.295 E28.66333
G1 X86.234 Y84.289 E28.68854
G1 X86.234 Y84.750 E28.72542
G1 X85.920 Y84.682 E28.75112
G0 F9000 X86.235 Y84.632
G0 X86.293 Y89.496
G0 X88.427 Y89.496
G0 X88.487 Y84.288
G1 F2040 X88.814 Y84.295 E28.77728
G1 X88.815 Y84.679 E28.80800
G1 X88.487 Y84.718 E28.83443
G1 X88.487 Y84.288 E28.86883
G0 F9000 X88.749 Y85.090
;TYPE:WALL-OUTER
G1 F1500 X88.746 Y92.843 E29.48907
G1 X89.573 Y92.843 E29.55523
G1 X89.574 Y93.496 E29.60747
G1 X85.068 Y93.496 E29.96795
G1 X85.069 Y92.843 E30.02019
G1 X85.986 Y92.843 E30.09355
G1 X85.986 Y85.106 E30.71251
G1 X85.649 Y85.033 E30.74009
G1 X85.563 Y84.982 E30.74809
G1 X85.525 Y84.927 E30.75344
G1 X85.519 Y84.056 E30.82312
G1 X85.528 Y84.024 E30.82578
G1 X85.570 Y83.967 E30.83145
G1 X85.671 Y83.912 E30.84065
G1 X85.719 Y83.899 E30.84463
G1 X86.260 Y83.888 E30.88791
G1 X86.634 Y83.888 E30.91783
G1 X86.634 Y89.155 E31.33919
G1 X88.086 Y89.155 E31.45535
G1 X88.086 Y83.888 E31.87671
G1 X89.011 Y83.898 E31.95072
G1 X89.091 Y83.924 E31.95745
G1 X89.160 Y83.966 E31.96391
G1 X89.206 Y84.030 E31.97022
G1 X89.215 Y84.069 E31.97342
G1 X89.214 Y84.225 E31.98590
G1 X89.215 Y84.899 E32.03982
G1 X89.203 Y84.939 E32.04316
G1 X89.191 Y84.961 E32.04516
G1 X89.134 Y85.011 E32.05123
G1 X88.995 Y85.060 E32.06302
G1 X88.749 Y85.090 E32.08285
G0 F9000 X88.483 Y84.898
;TYPE:SKIN
G1 F1380 X88.416 Y85.248 E32.10523
G1 X88.416 Y85.814 E32.13477
G1 X88.416 Y86.380 E32.16432
G1 X88.416 Y86.945 E32.19381
G1 X88.415 Y87.511 E32.22335
G1 X88.415 Y88.077 E32.25279
G1 X88.415 Y88.642 E32.28228
G1 X88.285 Y89.056 E32.31699
G0 F9000 X88.208 Y89.699
G1 F1380 X86.526 Y91.381 E32.50729
G0 F9000 X86.526 Y91.947
G1 F1380 X88.208 Y90.265 E32.69759
G0 F9000 X88.207 Y90.832
G1 F1380 X86.526 Y92.512 E32.88771
G0 F9000 X86.649 Y92.955
G1 F1380 X88.206 Y91.398 E33.06387
G0 F9000 X88.205 Y91.964
G1 F1380 X87.215 Y92.955 E33.17593
G0 F9000 X87.780 Y92.955
G1 F1380 X88.205 Y92.531 E33.22396
G0 F9000 X86.526 Y90.815
G1 F1380 X87.648 Y89.694 E33.35084
G0 F9000 X87.082 Y89.694
G1 F1380 X86.526 Y90.250 E33.41374
G0 F9000 X86.271 Y89.374
G1 F1380 X86.309 Y89.052 E33.43203
G1 X86.309 Y88.486 E33.45988
G1 X86.309 Y87.920 E33.48773
G1 X86.309 Y87.355 E33.51552
G1 X86.309 Y86.790 E33.54343
G1 X86.309 Y86.224 E33.57140
G1 X86.309 Y85.658 E33.59936
G1 X86.433 Y85.252 E33.63332
;LAYER:2
G0 F9000 X86.229 Y84.727 Z0.700
;TYPE:WALL-INNER
G1 F2580 X85.777 Y84.680 E33.66967
G1 X85.778 Y84.288 E33.70103
G1 X86.235 Y84.288 E33.73759
G1 X86.234 Y89.555 E34.15895
G1 X88.486 Y89.555 E34.33911
G1 X88.486 Y84.288 E34.76047
G1 X88.956 Y84.288 E34.79807
G1 X88.956 Y84.680 E34.82943
G1 X88.506 Y84.727 E34.86563
G1 X88.502 Y86.673 E35.02131
G1 X88.505 Y92.230 E35.46587
G1 X88.503 Y93.096 E35.53515
G1 X86.229 Y93.096 E35.71707
G1 X86.231 Y86.670 E36.23115
G1 X86.228 Y86.374 E36.25483
G1 X86.229 Y84.727 E36.38659
G0 F9000 X85.829 Y85.088
;TYPE:WALL-OUTER
G1 F1620 X85.563 Y85.060 E36.40799
G1 X85.437 Y85.008 E36.41889
G1 X85.386 Y84.939 E36.42576
G1 X85.377 Y84.899 E36.42904
G1 X85.377 Y84.076 E36.49488
G1 X85.388 Y84.017 E36.49968
G1 X85.419 Y83.966 E36.50445
G1 X85.508 Y83.909 E36.51291
G1 X85.623 Y83.888 E36.52226
G1 X86.635 Y83.888 E36.60322
G1 X86.634 Y89.155 E37.02458
G1 X88.086 Y89.155 E37.14074
G1 X88.086 Y83.888 E37.56210
G1 X89.089 Y83.888 E37.64234
G1 X89.144 Y83.892 E37.64675
G1 X89.240 Y83.915 E37.65465
G1 X89.322 Y83.974 E37.66273
G1 X89.351 Y84.024 E37.66735
G1 X89.357 Y84.899 E37.73736
G1 X89.335 Y84.968 E37.74315
G1 X89.316 Y84.992 E37.74560
G1 X89.268 Y85.025 E37.75026
G1 X89.176 Y85.059 E37.75810
G1 X88.905 Y85.088 E37.77991
G1 X88.904 Y92.843 E38.40031
G1 X89.697 Y92.843 E38.46375
G1 X89.698 Y93.496 E38.51599
G1 X84.982 Y93.496 E38.89327
G1 X84.983 Y92.843 E38.94551
G1 X85.829 Y92.843 E39.01319
G1 X85.831 Y86.672 E39.50687
G1 X85.828 Y86.373 E39.53079
G1 X85.829 Y85.088 E39.63359
G0 F9000 X86.128 Y85.089
G0 X86.293 Y89.496
G0 X86.583 Y89.694
;TYPE:SKIN
G1 F1380 X88.363 Y91.474 E39.83497
G0 F9000 X88.363 Y90.909
G1 F1380 X87.148 Y89.694 E39.97243
G0 F9000 X87.714 Y89.694
G1 F1380 X88.363 Y90.343 E40.04586
G0 F9000 X88.363 Y89.777
G1 F1380 X88.280 Y89.694 E40.05525
G0 F9000 X86.368 Y90.045
G1 F1380 X88.363 Y92.040 E40.28096
G0 F9000 X88.363 Y92.606
G1 F1380 X86.368 Y90.611 E40.50667
G0 F9000 X86.368 Y91.177
G1 F1380 X88.146 Y92.954 E40.70777
G0 F9000 X87.580 Y92.954
G1 F1380 X86.368 Y91.742 E40.84489
G0 F9000 X86.368 Y92.308
G1 F1380 X87.015 Y92.954 E40.91803
G0 F9000 X86.449 Y92.954
G1 F1380 X86.368 Y92.874 E40.92714
;LAYER:3
G0 F9000 X86.249 Y92.211 Z0.900
;TYPE:FILL
G1 F1260 X88.483 Y89.977 E41.17989
G0 F9000 X87.151 Y89.694
G1 F1260 X86.249 Y90.596 E41.28194
G0 F9000 X88.483 Y91.592
G1 F1260 X87.120 Y92.955 E41.43615
G0 F9000 X86.293 Y89.496
G0 X85.974 Y84.288
G0 X85.822 Y84.563
G1 F1260 X85.955 Y84.430 E41.45119
G0 F9000 X86.094 Y84.739
;TYPE:WALL-INNER
G1 F2880 X85.663 Y84.684 E41.48595
G1 X85.664 Y84.294 E41.51715
G1 X86.234 Y84.288 E41.56276
G1 X86.234 Y89.555 E41.98412
G1 X88.486 Y89.555 E42.16428
G1 X88.486 Y84.288 E42.58564
G1 X89.071 Y84.288 E42.63244
G1 X89.070 Y84.668 E42.66284
G1 X88.634 Y84.668 E42.69772
G1 X88.632 Y86.012 E42.80524
G1 X88.625 Y86.670 E42.85788
G1 X88.623 Y93.096 E43.37196
G1 X86.109 Y93.096 E43.57308
G1 X86.108 Y90.341 E43.79348
G1 X86.109 Y86.404 E44.10844
G1 X86.094 Y84.739 E44.24164
G0 F9000 X85.697 Y85.092
;TYPE:WALL-OUTER
G1 F1620 X85.414 Y85.056 E44.26447
G1 X85.331 Y85.019 E44.27174
G1 X85.318 Y85.008 E44.27310
G1 X85.273 Y84.936 E44.27989
G1 X85.263 Y84.881 E44.28436
G1 X85.264 Y84.209 E44.33812
G1 X85.263 Y84.052 E44.35068
G1 X85.284 Y83.987 E44.35615
G1 X85.331 Y83.937 E44.36164
G1 X85.421 Y83.898 E44.36949
G1 X85.970 Y83.888 E44.41341
G1 X86.634 Y83.888 E44.46653
G1 X86.634 Y89.155 E44.88789
G1 X88.086 Y89.155 E45.00405
G1 X88.086 Y83.888 E45.42541
G1 X89.085 Y83.888 E45.50533
G1 X89.321 Y83.898 E45.52423
G1 X89.346 Y83.906 E45.52633
G1 X89.435 Y83.966 E45.53492
G1 X89.444 Y83.978 E45.53612
G1 X89.470 Y84.051 E45.54232
G1 X89.471 Y84.070 E45.54384
G1 X89.470 Y84.757 E45.59880
G1 X89.471 Y84.890 E45.60944
G1 X89.460 Y84.944 E45.61385
G1 X89.425 Y85.001 E45.61920
G1 X89.367 Y85.041 E45.62483
G1 X89.247 Y85.068 E45.63467
G1 X89.033 Y85.068 E45.65179
G1 X89.032 Y86.016 E45.72763
G1 X89.025 Y86.672 E45.78012
G1 X89.023 Y92.843 E46.27380
G1 X89.768 Y92.843 E46.33340
G1 X89.768 Y93.496 E46.38564
G1 X84.940 Y93.496 E46.77188
G1 X84.940 Y92.843 E46.82412
G1 X85.709 Y92.843 E46.88564
G1 X85.709 Y86.405 E47.40068
G1 X85.697 Y85.092 E47.50572
G0 F9000 X85.735 Y84.794
G0 X86.293 Y84.229
G0 X86.293 Y89.496
G0 X86.516 Y89.694
;TYPE:SKIN
G1 F1260 X86.448 Y90.045 E47.53590
G1 X86.448 Y90.610 E47.58076
G1 X86.447 Y91.177 E47.62578
G1 X86.447 Y91.742 E47.67064
G1 X86.447 Y92.308 E47.71547
G1 X86.249 Y92.790 E47.75715
G0 F9000 X88.087 Y92.648
G1 F1260 X88.285 Y92.167 E47.80189
G1 X88.285 Y91.602 E47.84652
G1 X88.285 Y91.037 E47.89116
G1 X88.285 Y90.471 E47.93587
G1 X88.348 Y89.842 E47.98063
G1 X88.087 Y89.820 E48.00158
G0 F9000 X88.483 Y92.819
G1 F1260 X88.346 Y92.955 E48.01702
;LAYER:4
G0 F9000 X88.577 Y92.614 Z1.100
;TYPE:FILL
G1 F1080 X86.156 Y90.193 E48.29093
G0 F9000 X87.271 Y89.694
G1 F1080 X88.577 Y90.999 E48.43863
G0 F9000 X87.302 Y92.955
G1 F1080 X86.156 Y91.808 E48.56834
G0 F9000 X86.014 Y91.553
;TYPE:WALL-INNER
G1 F3000 X86.017 Y84.717 E49.11522
G1 X85.575 Y84.679 E49.15071
G1 X85.574 Y84.293 E49.18159
G1 X86.234 Y84.288 E49.23439
G1 X86.234 Y89.555 E49.65575
G1 X88.486 Y89.555 E49.83591
G1 X88.486 Y84.288 E50.25727
G1 X89.159 Y84.293 E50.31111
G1 X89.160 Y84.679 E50.34199
G1 X88.718 Y84.717 E50.37748
G1 X88.718 Y89.658 E50.77276
G1 X88.719 Y90.008 E50.80077
G1 X88.717 Y93.096 E51.04781
G1 X86.016 Y93.096 E51.26389
G1 X86.014 Y91.553 E51.38733
G0 F9000 X85.615 Y92.843
;TYPE:WALL-OUTER
G1 F1500 X85.616 Y85.084 E52.00805
G1 X85.326 Y85.060 E52.03132
G1 X85.241 Y85.022 E52.03877
G1 X85.197 Y84.968 E52.04435
G1 X85.175 Y84.898 E52.05022
G1 X85.174 Y84.062 E52.11710
G1 X85.206 Y83.970 E52.12489
G1 X85.220 Y83.950 E52.12684
G1 X85.245 Y83.928 E52.12951
G1 X85.310 Y83.898 E52.13523
G1 X85.831 Y83.888 E52.17692
G1 X86.634 Y83.888 E52.24116
G1 X86.634 Y89.155 E52.66252
G1 X88.086 Y89.155 E52.77868
G1 X88.086 Y83.888 E53.20004
G1 X88.965 Y83.888 E53.27036
G1 X89.422 Y83.898 E53.30693
G1 X89.452 Y83.909 E53.30949
G1 X89.512 Y83.953 E53.31544
G1 X89.549 Y84.016 E53.32128
G1 X89.560 Y84.878 E53.39025
G1 X89.545 Y84.950 E53.39613
G1 X89.507 Y85.009 E53.40175
G1 X89.452 Y85.047 E53.40709
G1 X89.417 Y85.059 E53.41005
G1 X89.118 Y85.084 E53.43406
G1 X89.117 Y92.843 E54.05478
G1 X89.793 Y92.843 E54.10886
G1 X89.798 Y93.496 E54.16110
G1 X84.933 Y93.496 E54.55030
G1 X84.933 Y92.843 E54.60254
G1 X85.615 Y92.843 E54.65710
G0 F9000 X86.156 Y92.661
;TYPE:SKIN
G1 F1080 X86.445 Y92.668 E54.68982
G1 X86.300 Y91.957 E54.72248
G1 X86.300 Y91.392 E54.75502
G1 X86.300 Y90.826 E54.78774
G1 X86.300 Y90.260 E54.82045
G1 X86.156 Y89.832 E54.85658
G0 F9000 X88.287 Y89.702
G1 F1080 X88.432 Y90.129 E54.88932
G1 X88.432 Y90.694 E54.92209
G1 X88.431 Y91.259 E54.95486
G1 X88.431 Y91.825 E54.98768
G1 X88.431 Y92.390 E55.02057
G1 X88.577 Y92.819 E55.05682
;LAYER:5
G0 F9000 X88.649 Y91.426 Z1.300
;TYPE:FILL
G1 F1020 X87.120 Y92.955 E55.22981
G0 F9000 X86.085 Y92.375
G1 F1020 X88.649 Y89.811 E55.51989
G0 F9000 X87.151 Y89.694
G1 F1020 X86.085 Y90.760 E55.64049
G0 F9000 X85.820 Y84.565
G1 F1020 X85.956 Y84.429 E55.65588
G0 F9000 X85.942 Y84.715
;TYPE:WALL-INNER
G1 F2760 X85.510 Y84.679 E55.69056
G1 X85.509 Y84.293 E55.72144
G1 X86.234 Y84.288 E55.77944
G1 X86.234 Y89.555 E56.20080
G1 X88.486 Y89.555 E56.38096
G1 X88.486 Y84.288 E56.80232
G1 X89.223 Y84.289 E56.86128
G1 X89.224 Y84.679 E56.89248
G1 X88.788 Y84.715 E56.92748
G1 X88.790 Y85.856 E57.01876
G1 X88.788 Y86.672 E57.08404
G1 X88.789 Y89.340 E57.29748
G1 X88.788 Y89.656 E57.32276
G1 X88.790 Y92.613 E57.55932
G1 X88.765 Y93.096 E57.59801
G1 X85.945 Y93.096 E57.82361
G1 X85.946 Y85.448 E58.43545
G1 X85.942 Y84.715 E58.49409
G0 F9000 X85.544 Y85.084
;TYPE:WALL-OUTER
G1 F1380 X85.246 Y85.060 E58.51801
G1 X85.203 Y85.042 E58.52174
G1 X85.150 Y85.001 E58.52710
G1 X85.128 Y84.970 E58.53014
G1 X85.110 Y84.910 E58.53515
G1 X85.109 Y84.075 E58.60195
G1 X85.129 Y83.988 E58.60909
G1 X85.190 Y83.920 E58.61640
G1 X85.234 Y83.898 E58.62034
G1 X86.634 Y83.888 E58.73234
G1 X86.634 Y89.155 E59.15370
G1 X88.086 Y89.155 E59.26986
G1 X88.086 Y83.888 E59.69122
G1 X89.455 Y83.889 E59.80074
G1 X89.480 Y83.893 E59.80277
G1 X89.550 Y83.927 E59.80899
G1 X89.605 Y83.988 E59.81556
G1 X89.624 Y84.061 E59.82160
G1 X89.623 Y84.223 E59.83456
G1 X89.624 Y84.892 E59.88808
G1 X89.616 Y84.948 E59.89260
G1 X89.560 Y85.026 E59.90029
G1 X89.493 Y85.059 E59.90626
G1 X89.189 Y85.084 E59.93066
G1 X89.190 Y92.613 E60.53298
G1 X89.179 Y92.843 E60.55140
G1 X89.801 Y92.843 E60.60116
G1 X89.801 Y93.496 E60.65340
