;FLAVOR:UltiGCode
;TIME:3180
;MATERIAL:6659
;MATERIAL2:0

;Layer count: 34
;LAYER:0
M107
G0 F9000 X37.008 Y36.119 Z0.300
;TYPE:SKIRT
G1 F1800 X37.694 Y35.433 E0.11642
G1 X38.523 Y34.908 E0.23417
G1 X39.447 Y34.588 E0.35151
G1 X40.208 Y34.500 E0.44344
G1 X64.436 Y34.500 E3.35080
G1 X65.197 Y34.588 E3.44273
G1 X66.121 Y34.908 E3.56007
G1 X66.950 Y35.433 E3.67782
G1 X67.636 Y36.119 E3.79424
G1 X68.154 Y36.942 E3.91093
G1 X68.532 Y38.014 E4.04733
G1 X68.568 Y39.477 E4.22295
G1 X68.502 Y40.378 E4.33136
G1 X68.154 Y41.366 E4.45706
G1 X67.636 Y42.189 E4.57375
G1 X66.944 Y42.882 E4.69127
G1 X66.120 Y43.397 E4.80787
G1 X65.404 Y43.649 E4.89896
G1 X65.404 Y49.959 E5.65616
G1 X65.417 Y50.293 E5.69627
G1 X65.450 Y50.587 E5.73177
G1 X65.502 Y50.857 E5.76477
G1 X65.579 Y51.145 E5.80054
G1 X65.669 Y51.398 E5.83277
G1 X65.789 Y51.668 E5.86822
G1 X65.926 Y51.925 E5.90317
G1 X66.069 Y52.150 E5.93516
G1 X66.358 Y52.538 E5.99322
G1 X66.687 Y53.006 E6.06187
G1 X67.035 Y53.674 E6.15225
G1 X67.296 Y54.389 E6.24359
G1 X67.456 Y55.134 E6.33503
G1 X67.518 Y55.885 E6.42545
G1 X67.480 Y56.643 E6.51653
G1 X67.342 Y57.392 E6.60792
G1 X67.104 Y58.115 E6.69926
G1 X66.774 Y58.797 E6.79018
G1 X66.359 Y59.427 E6.88071
G1 X65.843 Y60.023 E6.97531
G1 X65.154 Y60.611 E7.08400
G1 X61.907 Y62.506 E7.53515
G1 X59.700 Y63.783 E7.84112
G1 X56.097 Y61.706 E8.34018
G1 X56.097 Y61.493 E8.36574
G1 X55.532 Y61.916 E8.45044
G1 X54.849 Y62.289 E8.54382
G1 X54.121 Y62.560 E8.63704
G1 X53.281 Y62.743 E8.74020
G1 X52.033 Y62.775 E8.89001
G1 X51.226 Y62.717 E8.98710
G1 X50.443 Y62.534 E9.08359
G1 X49.719 Y62.251 E9.17687
G1 X49.034 Y61.864 E9.27129
G1 X48.547 Y61.485 E9.34534
G1 X48.547 Y65.860 E9.87034
G1 X40.346 Y61.127 E11.00659
G1 X39.408 Y60.552 E11.13862
G1 X38.783 Y60.001 E11.23860
G1 X38.285 Y59.427 E11.32979
G1 X37.870 Y58.797 E11.42032
G1 X37.540 Y58.115 E11.51124
G1 X37.302 Y57.392 E11.60258
G1 X37.164 Y56.643 E11.69397
G1 X37.126 Y55.885 E11.78504
G1 X37.188 Y55.134 E11.87547
G1 X37.348 Y54.389 E11.96691
G1 X37.609 Y53.674 E12.05825
G1 X37.973 Y52.975 E12.15282
G1 X38.564 Y52.168 E12.27285
G1 X38.718 Y51.925 E12.30737
G1 X38.855 Y51.668 E12.34232
G1 X38.975 Y51.398 E12.37778
G1 X39.065 Y51.145 E12.41000
G1 X39.142 Y50.857 E12.44577
G1 X39.194 Y50.587 E12.47877
G1 X39.227 Y50.293 E12.51427
G1 X39.240 Y49.959 E12.55438
G1 X39.240 Y43.650 E13.31146
G1 X38.524 Y43.397 E13.40259
G1 X37.700 Y42.882 E13.51919
G1 X37.008 Y42.189 E13.63671
G1 X36.490 Y41.366 E13.75341
G1 X36.112 Y40.294 E13.88981
G1 X36.076 Y38.831 E14.06542
G1 X36.142 Y37.930 E14.17383
G1 X36.490 Y36.942 E14.29953
G1 X37.008 Y36.119 E14.41623
G0 F9000 X37.322 Y36.370
G1 F1800 X37.945 Y35.747 E14.52195
G1 X38.698 Y35.271 E14.62885
G1 X39.536 Y34.981 E14.73526
G1 X40.231 Y34.900 E14.81923
G1 X64.413 Y34.900 E17.72107
G1 X65.108 Y34.981 E17.80503
G1 X65.946 Y35.271 E17.91144
G1 X66.699 Y35.747 E18.01834
G1 X67.322 Y36.370 E18.12407
G1 X67.791 Y37.117 E18.22991
G1 X68.133 Y38.087 E18.35334
G1 X68.168 Y39.468 E18.51911
G1 X68.107 Y40.295 E18.61862
G1 X67.791 Y41.191 E18.73263
G1 X67.322 Y41.938 E18.83847
G1 X66.693 Y42.567 E18.94522
G1 X65.946 Y43.034 E19.05093
G1 X65.004 Y43.367 E19.17083
G1 X65.004 Y49.948 E19.96055
G1 X65.019 Y50.340 E20.00762
G1 X65.052 Y50.631 E20.04277
G1 X65.114 Y50.953 E20.08212
G1 X65.197 Y51.264 E20.12074
G1 X65.298 Y51.547 E20.15680
G1 X65.432 Y51.850 E20.19656
G1 X65.572 Y52.113 E20.23231
G1 X65.750 Y52.393 E20.27213
G1 X66.034 Y52.773 E20.32905
G1 X66.344 Y53.214 E20.39374
G1 X66.668 Y53.836 E20.47790
G1 X66.910 Y54.500 E20.56271
G1 X67.060 Y55.193 E20.64779
G1 X67.118 Y55.891 E20.73184
G1 X67.082 Y56.596 E20.81655
G1 X66.953 Y57.292 E20.90149
G1 X66.733 Y57.965 E20.98646
G1 X66.426 Y58.599 E21.07099
G1 X66.039 Y59.185 E21.15526
G1 X65.560 Y59.738 E21.24305
G1 X64.921 Y60.283 E21.34384
G1 X61.706 Y62.161 E21.79063
G1 X59.700 Y63.322 E22.06876
G1 X56.497 Y61.474 E22.51251
G1 X56.497 Y60.510 E22.62819
G1 X56.402 Y60.637 E22.64722
G1 X55.892 Y61.147 E22.73377
G1 X55.315 Y61.579 E22.82027
G1 X54.682 Y61.924 E22.90678
G1 X54.008 Y62.175 E22.99308
G1 X53.233 Y62.344 E23.08827
G1 X52.042 Y62.375 E23.23124
G1 X51.286 Y62.320 E23.32220
G1 X50.561 Y62.151 E23.41153
G1 X49.891 Y61.889 E23.49786
G1 X49.257 Y61.531 E23.58523
G1 X48.683 Y61.083 E23.67260
G1 X48.204 Y60.587 E23.75535
G1 X48.147 Y60.511 E23.76675
G1 X48.147 Y65.168 E24.32559
G1 X40.551 Y60.783 E25.37809
G1 X39.646 Y60.229 E25.50542
G1 X39.067 Y59.719 E25.59801
G1 X38.605 Y59.185 E25.68274
G1 X38.218 Y58.599 E25.76702
G1 X37.911 Y57.965 E25.85155
G1 X37.691 Y57.292 E25.93651
G1 X37.562 Y56.596 E26.02145
G1 X37.526 Y55.891 E26.10616
G1 X37.584 Y55.193 E26.19021
G1 X37.734 Y54.500 E26.27530
G1 X37.976 Y53.836 E26.36011
G1 X38.314 Y53.187 E26.44791
G1 X38.886 Y52.405 E26.56418
G1 X39.072 Y52.113 E26.60572
G1 X39.212 Y51.850 E26.64148
G1 X39.346 Y51.547 E26.68123
G1 X39.447 Y51.264 E26.71729
G1 X39.530 Y50.953 E26.75592
G1 X39.592 Y50.631 E26.79527
G1 X39.625 Y50.340 E26.83041
G1 X39.640 Y49.948 E26.87749
G1 X39.640 Y43.366 E27.66733
G1 X38.698 Y43.034 E27.78718
G1 X37.951 Y42.567 E27.89290
G1 X37.322 Y41.938 E27.99964
G1 X36.853 Y41.191 E28.10548
G1 X36.511 Y40.221 E28.22891
G1 X36.476 Y38.840 E28.39468
G1 X36.537 Y38.013 E28.49419
G1 X36.853 Y37.117 E28.60820
G1 X37.322 Y36.370 E28.71404
G10
G0 F9000 X40.280 Y38.927
;TYPE:WALL-INNER
G11
G1 F1800 X40.289 Y38.800 E28.72932
G1 X40.312 Y38.754 E28.73549
G1 X40.359 Y38.717 E28.74267
G1 X40.450 Y38.700 E28.75378
G1 X64.194 Y38.700 E31.60306
G1 X64.285 Y38.717 E31.61417
G1 X64.332 Y38.754 E31.62135
G1 X64.349 Y38.784 E31.62549
G1 X64.364 Y39.381 E31.69715
G1 X64.355 Y39.508 E31.71243
G1 X64.332 Y39.554 E31.71860
G1 X64.286 Y39.590 E31.72561
G1 X62.106 Y39.607 E31.98722
G1 X61.204 Y39.607 E32.09546
G1 X61.204 Y50.027 E33.34586
G1 X61.226 Y50.617 E33.41670
G1 X61.294 Y51.216 E33.48905
G1 X61.408 Y51.807 E33.56127
G1 X61.565 Y52.389 E33.63361
G1 X61.766 Y52.957 E33.70591
G1 X62.009 Y53.507 E33.77807
G1 X62.292 Y54.038 E33.85027
G1 X62.616 Y54.546 E33.92258
G1 X62.952 Y54.996 E33.98997
G1 X63.091 Y55.194 E34.01900
G1 X63.181 Y55.366 E34.04229
G1 X63.253 Y55.564 E34.06757
G1 X63.293 Y55.749 E34.09029
G1 X63.310 Y55.955 E34.11509
G1 X63.300 Y56.151 E34.13864
G1 X63.263 Y56.350 E34.16293
G1 X63.201 Y56.539 E34.18680
G1 X63.115 Y56.717 E34.21052
G1 X63.003 Y56.887 E34.23495
G1 X62.878 Y57.031 E34.25783
G1 X62.713 Y57.173 E34.28396
G1 X60.297 Y58.583 E34.61964
G1 X60.297 Y45.455 E36.19500
G1 X60.272 Y45.091 E36.23878
G1 X60.189 Y44.713 E36.28522
G1 X60.054 Y44.350 E36.33170
G1 X59.867 Y44.010 E36.37826
G1 X59.637 Y43.702 E36.42439
G1 X59.364 Y43.429 E36.47072
G1 X59.054 Y43.197 E36.51718
G1 X58.715 Y43.012 E36.56353
G1 X58.353 Y42.877 E36.60989
G1 X57.957 Y42.790 E36.65854
G1 X54.832 Y42.768 E37.03355
G1 X53.829 Y42.768 E37.15391
G1 X53.829 Y57.313 E38.89931
G1 X53.815 Y57.504 E38.92229
G1 X53.778 Y57.676 E38.94341
G1 X53.715 Y57.843 E38.96482
G1 X53.630 Y58.000 E38.98625
G1 X53.522 Y58.144 E39.00785
G1 X53.401 Y58.265 E39.02838
G1 X53.256 Y58.373 E39.05008
G1 X53.098 Y58.459 E39.07166
G1 X52.936 Y58.520 E39.09244
G1 X52.777 Y58.554 E39.11195
G1 X52.123 Y58.571 E39.19046
G1 X51.861 Y58.553 E39.22197
G1 X51.692 Y58.513 E39.24281
G1 X51.522 Y58.447 E39.26469
G1 X51.372 Y58.362 E39.28538
G1 X51.230 Y58.251 E39.30701
G1 X51.105 Y58.121 E39.32865
G1 X51.018 Y58.005 E39.34605
G1 X50.920 Y57.816 E39.37160
G1 X50.858 Y57.638 E39.39422
G1 X50.834 Y57.526 E39.40796
G1 X50.814 Y42.768 E41.17893
G1 X47.446 Y42.768 E41.58309
G1 X46.760 Y42.788 E41.66544
G1 X46.666 Y42.795 E41.67675
G1 X46.291 Y42.877 E41.72281
G1 X45.929 Y43.012 E41.76918
G1 X45.590 Y43.197 E41.81552
G1 X45.280 Y43.429 E41.86198
G1 X45.007 Y43.702 E41.90831
G1 X44.777 Y44.010 E41.95444
G1 X44.590 Y44.350 E42.00101
G1 X44.455 Y44.713 E42.04748
G1 X44.368 Y45.111 E42.09637
G1 X44.349 Y58.587 E43.71349
G1 X42.501 Y57.521 E43.96950
G1 X41.909 Y57.158 E44.05283
G1 X41.769 Y57.035 E44.07519
G1 X41.641 Y56.887 E44.09868
G1 X41.529 Y56.717 E44.12310
G1 X41.443 Y56.539 E44.14683
G1 X41.381 Y56.350 E44.17070
G1 X41.344 Y56.151 E44.19499
G1 X41.334 Y55.955 E44.21854
G1 X41.351 Y55.749 E44.24334
G1 X41.391 Y55.564 E44.26605
G1 X41.463 Y55.366 E44.29134
G1 X41.551 Y55.197 E44.31420
G1 X42.030 Y54.544 E44.41138
G1 X42.352 Y54.038 E44.48335
G1 X42.635 Y53.507 E44.55556
G1 X42.878 Y52.957 E44.62771
G1 X43.079 Y52.389 E44.70001
G1 X43.236 Y51.807 E44.77235
G1 X43.350 Y51.216 E44.84458
G1 X43.418 Y50.617 E44.91692
G1 X43.440 Y50.027 E44.98777
G1 X43.440 Y39.607 E46.23817
G1 X40.746 Y39.607 E46.56145
G1 X40.356 Y39.589 E46.60830
G1 X40.312 Y39.554 E46.61505
G1 X40.295 Y39.524 E46.61918
G1 X40.280 Y38.927 E46.69085
G0 F9000 X39.879 Y38.913
;TYPE:WALL-OUTER
G1 F1800 X39.894 Y38.719 E46.71420
G1 X39.935 Y38.601 E46.72919
G1 X39.997 Y38.503 E46.74310
G1 X40.080 Y38.420 E46.75719
G1 X40.184 Y38.354 E46.77197
G1 X40.295 Y38.316 E46.78605
G1 X64.214 Y38.300 E49.65633
G1 X64.349 Y38.316 E49.67264
G1 X64.460 Y38.354 E49.68672
G1 X64.564 Y38.420 E49.70150
G1 X64.647 Y38.503 E49.71559
G1 X64.709 Y38.601 E49.72950
G1 X64.748 Y38.712 E49.74362
G1 X64.765 Y39.395 E49.82561
G1 X64.750 Y39.589 E49.84896
G1 X64.709 Y39.707 E49.86395
G1 X64.647 Y39.805 E49.87786
G1 X64.565 Y39.887 E49.89178
G1 X64.461 Y39.952 E49.90650
G1 X64.355 Y39.989 E49.91997
G1 X62.109 Y40.007 E50.18950
G1 X61.604 Y40.007 E50.25010
G1 X61.604 Y50.020 E51.45166
G1 X61.625 Y50.587 E51.51974
G1 X61.690 Y51.155 E51.58835
G1 X61.798 Y51.717 E51.65702
G1 X61.947 Y52.270 E51.72575
G1 X62.138 Y52.809 E51.79437
G1 X62.369 Y53.332 E51.86298
G1 X62.638 Y53.836 E51.93153
G1 X62.945 Y54.319 E52.00021
G1 X63.279 Y54.766 E52.06717
G1 X63.436 Y54.989 E52.09990
G1 X63.547 Y55.203 E52.12883
G1 X63.638 Y55.452 E52.16064
G1 X63.690 Y55.692 E52.19011
G1 X63.711 Y55.942 E52.22021
G1 X63.698 Y56.200 E52.25121
G1 X63.651 Y56.451 E52.28186
G1 X63.573 Y56.688 E52.31180
G1 X63.463 Y56.916 E52.34217
G1 X63.323 Y57.128 E52.37266
G1 X63.159 Y57.317 E52.40269
G1 X62.946 Y57.499 E52.43631
G1 X59.897 Y59.277 E52.85985
G1 X59.897 Y45.469 E54.51681
G1 X59.875 Y45.148 E54.55543
G1 X59.804 Y44.826 E54.59499
G1 X59.689 Y44.517 E54.63456
G1 X59.530 Y44.227 E54.67425
G1 X59.334 Y43.965 E54.71351
G1 X59.101 Y43.732 E54.75305
G1 X58.837 Y43.534 E54.79265
G1 X58.548 Y43.377 E54.83212
G1 X58.240 Y43.262 E54.87157
G1 X57.912 Y43.190 E54.91187
G1 X54.831 Y43.168 E55.28160
G1 X54.229 Y43.168 E55.35384
G1 X54.229 Y57.328 E57.05304
G1 X54.212 Y57.562 E57.08119
G1 X54.162 Y57.790 E57.10920
G1 X54.082 Y58.005 E57.13673
G1 X53.965 Y58.219 E57.16600
G1 X53.824 Y58.408 E57.19429
G1 X53.664 Y58.568 E57.22145
G1 X53.476 Y58.708 E57.24957
G1 X53.263 Y58.825 E57.27874
G1 X53.048 Y58.905 E57.30626
G1 X52.825 Y58.953 E57.33364
G1 X52.115 Y58.972 E57.41887
G1 X51.805 Y58.950 E57.45616
G1 X51.569 Y58.894 E57.48527
G1 X51.352 Y58.810 E57.51319
G1 X51.151 Y58.696 E57.54092
G1 X50.963 Y58.549 E57.56956
G1 X50.798 Y58.378 E57.59807
G1 X50.678 Y58.218 E57.62207
G1 X50.552 Y57.977 E57.65471
G1 X50.473 Y57.750 E57.68355
G1 X50.434 Y57.570 E57.70565
G1 X50.415 Y43.168 E59.43389
G1 X47.452 Y43.168 E59.78945
G1 X46.781 Y43.187 E59.87000
G1 X46.725 Y43.192 E59.87675
G1 X46.404 Y43.262 E59.91618
G1 X46.096 Y43.377 E59.95563
G1 X45.807 Y43.534 E59.99510
G1 X45.543 Y43.732 E60.03470
G1 X45.310 Y43.965 E60.07424
G1 X45.114 Y44.227 E60.11350
G1 X44.955 Y44.517 E60.15319
G1 X44.840 Y44.826 E60.19275
G1 X44.768 Y45.154 E60.23305
G1 X44.748 Y59.280 E61.92817
G1 X42.292 Y57.863 E62.26843
G1 X41.669 Y57.480 E62.35618
G1 X41.487 Y57.319 E62.38534
G1 X41.321 Y57.128 E62.41571
G1 X41.181 Y56.916 E62.44620
G1 X41.071 Y56.688 E62.47657
G1 X40.993 Y56.451 E62.50651
G1 X40.946 Y56.200 E62.53716
G1 X40.933 Y55.942 E62.56816
G1 X40.954 Y55.692 E62.59826
G1 X41.006 Y55.452 E62.62773
G1 X41.097 Y55.203 E62.65954
G1 X41.210 Y54.986 E62.68890
G1 X41.699 Y54.318 E62.78825
G1 X42.006 Y53.836 E62.85682
G1 X42.275 Y53.332 E62.92538
G1 X42.506 Y52.809 E62.99399
G1 X42.697 Y52.270 E63.06261
G1 X42.846 Y51.717 E63.13133
G1 X42.954 Y51.155 E63.20001
G1 X43.019 Y50.587 E63.26861
G1 X43.040 Y50.020 E63.33670
G1 X43.040 Y40.007 E64.53826
G1 X40.731 Y40.007 E64.81534
G1 X40.291 Y39.990 E64.86818
G1 X40.183 Y39.952 E64.88192
G1 X40.079 Y39.887 E64.89663
G1 X39.997 Y39.805 E64.91055
G1 X39.935 Y39.707 E64.92447
G1 X39.896 Y39.596 E64.93858
G1 X39.879 Y38.913 E65.02057
G0 F9000 X40.421 Y39.006
;TYPE:SKIN
G1 F1800 X40.880 Y39.466 E65.09855
G0 F9000 X41.446 Y39.466
G1 F1800 X40.819 Y38.839 E65.20496
G0 F9000 X41.385 Y38.839
G1 F1800 X42.012 Y39.466 E65.31136
G0 F9000 X42.577 Y39.466
G1 F1800 X41.951 Y38.839 E65.41768
G0 F9000 X42.516 Y38.839
G1 F1800 X43.143 Y39.466 E65.52409
G0 F9000 X43.579 Y39.902
G1 F1800 X46.389 Y42.712 E66.00096
G0 F9000 X45.961 Y42.849
G1 F1800 X43.579 Y40.468 E66.40511
G0 F9000 X43.579 Y41.034
G1 F1800 X45.585 Y43.040 E66.74554
G0 F9000 X45.253 Y43.273
G1 F1800 X43.579 Y41.599 E67.02963
G0 F9000 X43.579 Y42.165
G1 F1800 X44.962 Y43.547 E67.26425
G0 F9000 X44.711 Y43.863
G1 F1800 X43.579 Y42.731 E67.45636
G0 F9000 X43.579 Y43.296
G1 F1800 X44.502 Y44.219 E67.61299
G0 F9000 X44.339 Y44.621
G1 F1800 X43.579 Y43.862 E67.74188
G0 F9000 X43.579 Y44.428
G1 F1800 X44.232 Y45.080 E67.85262
G0 F9000 X44.227 Y45.641
G1 F1800 X43.579 Y44.993 E67.96259
G0 F9000 X43.579 Y45.559
G1 F1800 X44.226 Y46.206 E68.07239
G0 F9000 X44.225 Y46.771
G1 F1800 X43.579 Y46.125 E68.18202
G0 F9000 X43.579 Y46.690
G1 F1800 X44.225 Y47.336 E68.29165
G0 F9000 X44.224 Y47.901
G1 F1800 X43.579 Y47.256 E68.40111
G0 F9000 X43.579 Y47.822
G1 F1800 X44.223 Y48.466 E68.51040
G0 F9000 X44.222 Y49.030
G1 F1800 X43.579 Y48.388 E68.61943
G0 F9000 X43.579 Y48.953
G1 F1800 X44.221 Y49.595 E68.72838
G0 F9000 X44.221 Y50.160
G1 F1800 X43.579 Y49.519 E68.83725
G0 F9000 X43.577 Y50.082
G1 F1800 X44.220 Y50.725 E68.94637
G0 F9000 X44.219 Y51.290
G1 F1800 X43.557 Y50.628 E69.05872
G0 F9000 X43.499 Y51.136
G1 F1800 X44.218 Y51.855 E69.18073
G0 F9000 X44.218 Y52.420
G1 F1800 X43.414 Y51.616 E69.31718
G0 F9000 X43.307 Y52.075
G1 F1800 X44.216 Y52.984 E69.47144
G0 F9000 X44.216 Y53.549
G1 F1800 X43.181 Y52.515 E69.64700
G0 F9000 X43.033 Y52.933
G1 F1800 X44.215 Y54.114 E69.84751
G0 F9000 X44.214 Y54.679
G1 F1800 X42.864 Y53.329 E70.07661
G0 F9000 X42.682 Y53.713
G1 F1800 X44.213 Y55.244 E70.33643
G0 F9000 X44.213 Y55.809
G1 F1800 X42.486 Y54.083 E70.62943
G0 F9000 X42.268 Y54.430
G1 F1800 X44.212 Y56.374 E70.95933
G0 F9000 X44.211 Y56.939
G1 F1800 X42.038 Y54.766 E71.32810
G0 F9000 X41.798 Y55.092
G1 F1800 X44.210 Y57.504 E71.73743
G0 F9000 X44.209 Y58.069
G1 F1800 X41.583 Y55.442 E72.18317
G0 F9000 X41.477 Y55.902
G1 F1800 X43.524 Y57.949 E72.53055
G0 F9000 X42.152 Y57.142
G1 F1800 X41.645 Y56.635 E72.61659
G0 F9000 X44.351 Y56.550
G0 X44.456 Y44.713
G0 X45.591 Y43.197
G0 X47.447 Y42.768
G0 X50.755 Y42.827
G0 X50.972 Y56.346
G1 F1800 X52.979 Y58.353 E72.95719
G0 F9000 X53.329 Y58.138
G1 F1800 X50.971 Y55.780 E73.35736
G0 F9000 X50.971 Y55.213
G1 F1800 X53.571 Y57.814 E73.79868
G0 F9000 X53.685 Y57.362
G1 F1800 X50.970 Y54.647 E74.25943
G0 F9000 X50.969 Y54.080
G1 F1800 X53.689 Y56.800 E74.72103
G0 F9000 X53.689 Y56.234
G1 F1800 X50.968 Y53.513 E75.18280
G0 F9000 X50.967 Y52.947
G1 F1800 X53.689 Y55.669 E75.64474
G0 F9000 X53.689 Y55.103
G1 F1800 X50.966 Y52.381 E76.10676
G0 F9000 X50.966 Y51.814
G1 F1800 X53.689 Y54.537 E76.56887
G0 F9000 X53.689 Y53.972
G1 F1800 X50.965 Y51.248 E77.03115
G0 F9000 X50.964 Y50.681
G1 F1800 X53.689 Y53.406 E77.49359
G0 F9000 X53.689 Y52.840
G1 F1800 X50.964 Y50.115 E77.95604
G0 F9000 X50.962 Y49.548
G1 F1800 X53.689 Y52.274 E78.41874
G0 F9000 X53.689 Y51.709
G1 F1800 X50.961 Y48.981 E78.88170
G0 F9000 X50.961 Y48.415
G1 F1800 X53.689 Y51.143 E79.34466
G0 F9000 X53.689 Y50.577
G1 F1800 X50.960 Y47.849 E79.80770
G0 F9000 X50.959 Y47.282
G1 F1800 X53.689 Y50.012 E80.27100
G0 F9000 X53.689 Y49.446
G1 F1800 X50.959 Y46.716 E80.73429
G0 F9000 X50.958 Y46.150
G1 F1800 X53.689 Y48.880 E81.19767
G0 F9000 X53.689 Y48.315
G1 F1800 X50.956 Y45.582 E81.66148
G0 F9000 X50.956 Y45.016
