;FLAVOR:UltiGCode
;TIME:5148
;MATERIAL:10961
;MATERIAL2:0

;Layer count: 79
;LAYER:0
M107
G0 F9000 X140.688 Y54.754 Z0.300
;TYPE:SKIRT
G1 F1800 X144.745 Y54.754 E0.48684
G1 X144.745 Y54.705 E0.49272
G1 X148.300 Y54.743 E0.91934
G1 X148.511 Y54.742 E0.94466
G1 X148.511 Y54.745 E0.94502
G1 X152.567 Y54.788 E1.43177
G1 X152.567 Y64.746 E2.62673
G1 X153.393 Y64.746 E2.72585
G1 X153.459 Y68.220 E3.14281
G1 X153.444 Y68.796 E3.21195
G1 X153.420 Y69.676 E3.31759
G1 X153.421 Y69.707 E3.32131
G1 X153.399 Y70.487 E3.41495
G1 X153.398 Y70.487 E3.41507
G1 X153.383 Y71.188 E3.49921
G1 X153.368 Y71.910 E3.58587
G1 X153.352 Y72.612 E3.67013
G1 X153.353 Y72.612 E3.67025
G1 X153.317 Y74.789 E3.93152
G1 X153.306 Y75.510 E4.01805
G1 X153.277 Y79.312 E4.47431
G1 X152.304 Y79.312 E4.59107
G1 X152.304 Y88.501 E5.69375
G1 X148.045 Y88.517 E6.20483
G1 X145.421 Y88.517 E6.51971
G1 X145.204 Y88.518 E6.54575
G1 X144.991 Y88.517 E6.57131
G1 X144.613 Y88.517 E6.61667
G1 X144.613 Y88.515 E6.61691
G1 X140.952 Y88.498 E7.05624
G1 X140.952 Y79.312 E8.15856
G1 X140.000 Y79.312 E8.27280
G1 X139.941 Y75.165 E8.77049
G1 X139.927 Y74.331 E8.87058
G1 X139.914 Y73.495 E8.97091
G1 X139.915 Y73.495 E8.97103
G1 X139.898 Y72.661 E9.07113
G1 X139.866 Y70.984 E9.27241
G1 X139.846 Y70.133 E9.37456
G1 X139.828 Y69.345 E9.46914
G1 X139.802 Y68.427 E9.57935
G1 X139.805 Y68.370 E9.58620
G1 X139.782 Y64.746 E10.02109
G1 X140.688 Y64.746 E10.12981
G1 X140.688 Y54.754 E11.32885
G0 F9000 X121.617 Y82.256
G1 F1800 X122.183 Y82.676 E11.41342
G1 X122.722 Y83.131 E11.49807
G1 X123.231 Y83.616 E11.58244
G1 X123.711 Y84.133 E11.66709
G1 X124.160 Y84.681 E11.75211
G1 X124.571 Y85.249 E11.83624
G1 X124.946 Y85.839 E11.92013
G1 X125.289 Y86.459 E12.00516
G1 X125.591 Y87.096 E12.08975
G1 X125.854 Y87.748 E12.17412
G1 X126.078 Y88.418 E12.25889
G1 X126.258 Y89.096 E12.34307
G1 X126.400 Y89.787 E12.42772
G1 X126.497 Y90.487 E12.51253
G1 X126.552 Y91.187 E12.59678
G1 X126.564 Y91.891 E12.68128
G1 X126.534 Y92.593 E12.76559
G1 X126.460 Y93.296 E12.85042
G1 X126.344 Y93.991 E12.93497
G1 X126.187 Y94.675 E13.01919
G1 X125.987 Y95.353 E13.10401
G1 X125.746 Y96.017 E13.18878
G1 X125.466 Y96.660 E13.27294
G1 X125.145 Y97.294 E13.35821
G1 X124.663 Y98.105 E13.47142
G1 X124.242 Y98.701 E13.55899
G1 X123.800 Y99.254 E13.64394
G1 X123.326 Y99.773 E13.72829
G1 X122.824 Y100.266 E13.81272
G1 X122.288 Y100.727 E13.89755
G1 X121.730 Y101.153 E13.98180
G1 X121.541 Y101.280 E14.00912
G1 X121.621 Y101.271 E14.01878
G1 X122.340 Y101.241 E14.10514
G1 X122.715 Y101.235 E14.15014
G1 X124.125 Y101.336 E14.31978
G1 X125.587 Y101.698 E14.50052
G1 X126.978 Y102.384 E14.68663
G1 X128.174 Y103.405 E14.87533
G1 X129.067 Y104.676 E15.06174
G1 X129.338 Y105.343 E15.14813
G1 X130.123 Y104.906 E15.25594
G1 X131.422 Y104.535 E15.41806
G1 X132.695 Y104.428 E15.57135
G1 X133.573 Y104.478 E15.67689
G1 X134.401 Y104.625 E15.77780
G1 X134.613 Y104.692 E15.80448
G1 X140.353 Y104.692 E16.49328
G1 X140.353 Y105.086 E16.54056
G1 X140.669 Y104.963 E16.58125
G1 X141.827 Y104.748 E16.72259
G1 X142.910 Y104.692 E16.85272
G1 X146.536 Y104.692 E17.28784
G1 X147.091 Y104.588 E17.35560
G1 X147.879 Y104.485 E17.45096
G1 X148.606 Y104.443 E17.53835
G1 X148.973 Y104.434 E17.58240
G1 X150.147 Y104.500 E17.72350
G1 X151.338 Y104.724 E17.86893
G1 X152.506 Y105.142 E18.01780
G1 X153.609 Y105.792 E18.17143
G1 X154.579 Y106.685 E18.32964
G1 X155.330 Y107.806 E18.49156
G1 X155.779 Y109.080 E18.65366
G1 X155.912 Y110.350 E18.80689
G1 X155.823 Y111.468 E18.94148
G1 X155.530 Y112.550 E19.07599
G1 X155.387 Y112.827 E19.11340
G1 X155.387 Y118.931 E19.84588
G1 X152.921 Y119.867 E20.16240
G1 X152.612 Y119.965 E20.20130
G1 X151.938 Y120.150 E20.28517
G1 X151.393 Y120.260 E20.35189
G1 X150.848 Y120.342 E20.41803
G1 X150.080 Y120.410 E20.51055
G1 X149.243 Y120.438 E20.61104
G1 X148.100 Y120.374 E20.74842
G1 X147.076 Y120.179 E20.87351
G1 X144.653 Y120.179 E21.16427
G1 X144.653 Y122.739 E21.47147
G1 X136.781 Y122.739 E22.41611
G1 X136.781 Y120.179 E22.72331
G1 X124.357 Y120.179 E24.21419
G1 X124.085 Y120.260 E24.24824
G1 X123.254 Y120.398 E24.34933
G1 X122.345 Y120.443 E24.45854
G1 X120.952 Y120.305 E24.62652
G1 X119.529 Y119.828 E24.80662
G1 X118.259 Y119.029 E24.98667
G1 X117.214 Y117.974 E25.16486
G1 X116.418 Y116.747 E25.34037
G1 X116.254 Y116.339 E25.39314
G1 X115.568 Y116.339 E25.47546
G1 X114.123 Y120.179 E25.96781
G1 X108.789 Y120.179 E26.60789
G1 X108.708 Y120.108 E26.62081
G1 X108.708 Y121.961 E26.84317
G1 X109.299 Y121.619 E26.92511
G1 X110.907 Y121.363 E27.12050
G1 X119.178 Y121.363 E28.11302
G1 X121.189 Y121.792 E28.35977
G1 X123.130 Y123.202 E28.64766
G1 X123.934 Y124.597 E28.84087
G1 X124.285 Y125.195 E28.92408
G1 X124.527 Y126.735 E29.11115
G1 X124.540 Y128.340 E29.30375
G1 X124.540 Y128.807 E29.35979
G1 X124.272 Y130.066 E29.51426
G1 X124.273 Y130.066 E29.51438
G1 X124.113 Y130.818 E29.60664
G1 X123.461 Y131.714 E29.73961
G1 X123.790 Y132.431 E29.83428
G1 X124.066 Y133.210 E29.93345
G1 X124.266 Y133.973 E30.02811
G1 X124.402 Y134.775 E30.12572
G1 X124.464 Y135.502 E30.21328
G1 X124.476 Y135.911 E30.26238
G1 X124.443 Y136.774 E30.36601
G1 X124.307 Y137.757 E30.48510
G1 X124.169 Y138.372 E30.56073
G1 X123.838 Y139.380 E30.68805
G1 X123.345 Y140.413 E30.82540
G1 X123.112 Y140.770 E30.87656
G1 X123.112 Y145.356 E31.42688
G1 X123.013 Y146.299 E31.54066
G1 X122.967 Y146.702 E31.58933
G1 X122.630 Y147.741 E31.72041
G1 X122.503 Y148.127 E31.76917
G1 X121.959 Y149.072 E31.90002
G1 X121.754 Y149.429 E31.94942
G1 X121.010 Y150.253 E32.08264
G1 X120.739 Y150.553 E32.13115
G1 X119.522 Y151.439 E32.31180
G1 X118.064 Y152.088 E32.50331
G1 X116.163 Y152.388 E32.73425
G1 X112.746 Y152.388 E33.14429
G1 X111.413 Y152.249 E33.30512
G1 X109.978 Y151.783 E33.48617
G1 X108.671 Y151.028 E33.66730
G1 X107.548 Y150.018 E33.84854
G1 X106.896 Y149.119 E33.98181
G1 X106.659 Y148.789 E34.03056
G1 X106.214 Y147.790 E34.16180
G1 X106.016 Y147.352 E34.21948
G1 X105.769 Y145.791 E34.40913
G1 X105.713 Y145.448 E34.45083
G1 X105.713 Y139.936 E35.11227
G1 X105.585 Y139.208 E35.20097
G1 X105.524 Y138.875 E35.24160
G1 X105.524 Y136.584 E35.51652
G1 X105.713 Y135.694 E35.62570
G1 X105.713 Y130.184 E36.28690
G1 X105.522 Y129.100 E36.41898
G1 X105.460 Y128.758 E36.46069
G1 X105.460 Y126.726 E36.70453
G1 X105.728 Y125.466 E36.85911
G1 X105.887 Y124.717 E36.95100
G1 X106.580 Y123.763 E37.09249
G1 X100.836 Y123.763 E37.78177
G1 X100.836 Y120.255 E38.20273
G1 X100.782 Y120.267 E38.20937
G1 X100.053 Y120.379 E38.29788
G1 X99.513 Y120.423 E38.36289
G1 X98.916 Y120.438 E38.43456
G1 X97.450 Y120.321 E38.61104
G1 X95.945 Y119.916 E38.79806
G1 X95.459 Y119.666 E38.86364
G1 X95.459 Y120.179 E38.92520
G1 X83.061 Y120.179 E40.41296
G1 X83.061 Y122.739 E40.72016
G1 X75.189 Y122.739 E41.66480
G1 X75.189 Y120.179 E41.97200
G1 X74.101 Y120.179 E42.10256
G1 X74.101 Y112.627 E43.00880
G1 X75.189 Y112.627 E43.13936
G1 X75.189 Y110.828 E43.35524
G1 X75.245 Y109.743 E43.48562
G1 X75.460 Y108.584 E43.62707
G1 X75.919 Y107.396 E43.77990
G1 X76.746 Y106.252 E43.94929
G1 X77.889 Y105.424 E44.11866
G1 X79.077 Y104.963 E44.27158
G1 X80.235 Y104.748 E44.41291
G1 X81.318 Y104.692 E44.54305
G1 X85.978 Y104.692 E45.10225
G1 X86.527 Y104.535 E45.17077
G1 X87.801 Y104.428 E45.32419
G1 X88.678 Y104.478 E45.42960
G1 X89.507 Y104.625 E45.53063
G1 X89.719 Y104.692 E45.55731
G1 X95.459 Y104.692 E46.24611
G1 X95.459 Y105.192 E46.30611
G1 X95.868 Y104.974 E46.36173
G1 X97.361 Y104.555 E46.54781
G1 X98.812 Y104.432 E46.72255
G1 X99.464 Y104.450 E46.80082
G1 X100.218 Y104.519 E46.89168
G1 X100.996 Y104.648 E46.98631
G1 X101.162 Y104.692 E47.00692
G1 X108.708 Y104.692 E47.91244
G1 X108.708 Y104.837 E47.92984
G1 X108.859 Y104.692 E47.95496
G1 X114.262 Y104.692 E48.60332
G1 X115.832 Y108.596 E49.10827
G1 X116.331 Y108.596 E49.16815
G1 X116.418 Y108.381 E49.19598
G1 X116.581 Y108.130 E49.23189
G1 X116.581 Y103.202 E49.82325
G1 X116.543 Y103.208 E49.82787
G1 X115.841 Y103.281 E49.91256
G1 X115.133 Y103.310 E49.99760
G1 X114.434 Y103.297 E50.08149
G1 X113.731 Y103.241 E50.16612
G1 X113.034 Y103.142 E50.25060
G1 X112.343 Y103.002 E50.33520
G1 X111.659 Y102.817 E50.42023
G1 X110.994 Y102.594 E50.50440
G1 X110.345 Y102.331 E50.58843
G1 X109.707 Y102.028 E50.67319
G1 X109.088 Y101.684 E50.75817
G1 X108.497 Y101.307 E50.84229
G1 X107.931 Y100.897 E50.92615
G1 X107.383 Y100.448 E51.01117
G1 X106.864 Y99.963 E51.09641
G1 X106.382 Y99.455 E51.18044
G1 X105.927 Y98.916 E51.26509
G1 X105.508 Y98.349 E51.34969
G1 X105.119 Y97.753 E51.43509
G1 X104.660 Y96.931 E51.54807
G1 X104.354 Y96.266 E51.63591
G1 X104.100 Y95.613 E51.71999
G1 X103.884 Y94.944 E51.80435
G1 X103.710 Y94.261 E51.88893
G1 X103.576 Y93.566 E51.97387
G1 X103.487 Y92.865 E52.05866
G1 X103.441 Y92.164 E52.14296
G1 X103.436 Y91.461 E52.22733
G1 X103.475 Y90.758 E52.31182
G1 X103.557 Y90.056 E52.39663
G1 X103.681 Y89.363 E52.48111
G1 X103.846 Y88.682 E52.56519
G1 X104.053 Y88.007 E52.64992
G1 X104.302 Y87.346 E52.73468
G1 X104.590 Y86.703 E52.81922
G1 X104.917 Y86.077 E52.90398
G1 X105.278 Y85.478 E52.98790
G1 X105.676 Y84.898 E53.07231
G1 X106.114 Y84.338 E53.15762
G1 X106.582 Y83.812 E53.24211
G1 X107.078 Y83.317 E53.32620
G1 X107.605 Y82.850 E53.41070
G1 X108.162 Y82.415 E53.49551
G1 X108.743 Y82.017 E53.58002
G1 X109.346 Y81.654 E53.66448
G1 X109.971 Y81.330 E53.74895
G1 X110.614 Y81.042 E53.83350
G1 X111.272 Y80.797 E53.91776
G1 X111.946 Y80.589 E54.00240
G1 X112.633 Y80.424 E54.08718
G1 X113.326 Y80.301 E54.17164
G1 X114.024 Y80.221 E54.25595
G1 X114.674 Y80.185 E54.33407
G1 X115.037 Y80.176 E54.37765
G1 X115.965 Y80.221 E54.48914
G1 X116.673 Y80.302 E54.57465
G1 X117.329 Y80.419 E54.65461
G1 X117.789 Y80.518 E54.71108
G1 X118.469 Y80.709 E54.79583
G1 X119.134 Y80.940 E54.88031
G1 X119.782 Y81.212 E54.96464
G1 X120.414 Y81.521 E55.04906
G1 X121.028 Y81.871 E55.13387
G1 X121.617 Y82.256 E55.21831
G0 F9000 X156.830 Y95.623
G1 F1800 X160.887 Y95.623 E55.70515
G1 X160.887 Y95.574 E55.71103
G1 X164.442 Y95.612 E56.13766
G1 X164.653 Y95.611 E56.16298
G1 X164.653 Y95.614 E56.16334
G1 X168.709 Y95.657 E56.65009
G1 X168.709 Y105.615 E57.84505
G1 X169.547 Y105.615 E57.94561
G1 X169.600 Y109.095 E58.36325
G1 X169.562 Y110.543 E58.53707
G1 X169.563 Y110.576 E58.54104
G1 X169.541 Y111.356 E58.63467
G1 X169.540 Y111.356 E58.63479
G1 X169.525 Y112.057 E58.71893
G1 X169.510 Y112.778 E58.80547
G1 X169.494 Y113.480 E58.88973
G1 X169.495 Y113.480 E58.88985
G1 X169.459 Y115.657 E59.15113
G1 X169.448 Y116.378 E59.23766
G1 X169.419 Y120.180 E59.69391
G1 X168.446 Y120.180 E59.81067
G1 X168.446 Y129.369 E60.91335
G1 X164.187 Y129.385 E61.42444
G1 X161.563 Y129.385 E61.73932
G1 X161.346 Y129.386 E61.76536
G1 X161.133 Y129.385 E61.79092
G1 X160.755 Y129.385 E61.83628
G1 X160.755 Y129.383 E61.83652
G1 X157.094 Y129.366 E62.27584
G1 X157.094 Y120.180 E63.37816
G1 X156.142 Y120.180 E63.49240
G1 X156.083 Y116.033 E63.99009
G1 X156.069 Y115.199 E64.09019
G1 X156.056 Y114.363 E64.19052
G1 X156.057 Y114.363 E64.19064
G1 X156.040 Y113.529 E64.29074
G1 X156.024 Y112.691 E64.39132
G1 X156.007 Y111.857 E64.49142
G1 X155.987 Y111.000 E64.59429
G1 X155.971 Y110.214 E64.68863
G1 X155.970 Y110.214 E64.68875
G1 X155.944 Y109.296 E64.79895
G1 X155.947 Y109.239 E64.80580
G1 X155.924 Y105.615 E65.24069
G1 X156.830 Y105.615 E65.34941
G1 X156.830 Y95.623 E66.54845
G0 F9000 X152.567 Y136.525
G1 F1800 X152.567 Y146.483 E67.74341
G1 X153.393 Y146.483 E67.84253
G1 X153.459 Y149.957 E68.25948
G1 X153.444 Y150.533 E68.32863
G1 X153.420 Y151.413 E68.43427
G1 X153.421 Y151.444 E68.43799
G1 X153.399 Y152.224 E68.53162
G1 X153.398 Y152.224 E68.53174
G1 X153.383 Y152.925 E68.61588
G1 X153.368 Y153.647 E68.70254
G1 X153.352 Y154.349 E68.78680
G1 X153.353 Y154.349 E68.78692
G1 X153.317 Y156.526 E69.04820
G1 X153.306 Y157.247 E69.13473
G1 X153.277 Y161.049 E69.59098
G1 X152.304 Y161.049 E69.70774
G1 X152.304 Y170.238 E70.81042
G1 X148.045 Y170.254 E71.32151
G1 X145.421 Y170.254 E71.63639
G1 X145.204 Y170.255 E71.66243
G1 X144.991 Y170.254 E71.68799
G1 X144.613 Y170.254 E71.73335
G1 X144.613 Y170.252 E71.73359
G1 X140.952 Y170.235 E72.17291
G1 X140.952 Y161.049 E73.27523
G1 X140.000 Y161.049 E73.38947
G1 X139.941 Y156.902 E73.88716
G1 X139.927 Y156.068 E73.98726
G1 X139.914 Y155.232 E74.08759
G1 X139.915 Y155.232 E74.08771
G1 X139.898 Y154.398 E74.18781
G1 X139.866 Y152.721 E74.38909
G1 X139.846 Y151.870 E74.49123
G1 X139.828 Y151.082 E74.58582
G1 X139.802 Y150.164 E74.69602
G1 X139.805 Y150.107 E74.70287
G1 X139.782 Y146.483 E75.13776
G1 X140.688 Y146.483 E75.24648
G1 X140.688 Y136.491 E76.44552
G1 X144.745 Y136.491 E76.93236
G1 X144.745 Y136.442 E76.93824
G1 X148.300 Y136.480 E77.36487
G1 X148.511 Y136.479 E77.39019
G1 X148.511 Y136.482 E77.39055
G1 X152.567 Y136.525 E77.87729
G0 F9000 X136.426 Y136.525
G1 F1800 X136.426 Y146.483 E79.07225
G1 X137.251 Y146.483 E79.17125
G1 X137.317 Y149.957 E79.58821
G1 X137.302 Y150.533 E79.65735
G1 X137.278 Y151.413 E79.76299
G1 X137.279 Y151.444 E79.76671
G1 X137.257 Y152.224 E79.86035
G1 X137.256 Y152.224 E79.86047
G1 X137.241 Y152.925 E79.94461
G1 X137.227 Y153.645 E80.03103
G1 X137.211 Y154.367 E80.11769
G1 X137.198 Y155.075 E80.20266
G1 X137.199 Y155.075 E80.20278
G1 X137.175 Y156.526 E80.37693
G1 X137.164 Y157.247 E80.46346
G1 X137.135 Y161.049 E80.91971
G1 X136.162 Y161.049 E81.03647
G1 X136.162 Y170.238 E82.13915
G1 X131.903 Y170.254 E82.65023
G1 X129.279 Y170.254 E82.96511
G1 X129.062 Y170.255 E82.99115
G1 X128.849 Y170.254 E83.01671
G1 X128.471 Y170.254 E83.06207
G1 X128.471 Y170.252 E83.06231
G1 X124.810 Y170.235 E83.50164
G1 X124.810 Y161.049 E84.60396
G1 X123.858 Y161.049 E84.71820
G1 X123.799 Y156.902 E85.21589
G1 X123.785 Y156.068 E85.31598
G1 X123.772 Y155.232 E85.41631
G1 X123.773 Y155.232 E85.41643
G1 X123.756 Y154.398 E85.51654
G1 X123.724 Y152.721 E85.71781
G1 X123.704 Y151.870 E85.81996
G1 X123.686 Y151.082 E85.91455
G1 X123.660 Y150.164 E86.02475
G1 X123.663 Y150.107 E86.03160
G1 X123.640 Y146.483 E86.46649
G1 X124.547 Y146.483 E86.57533
G1 X124.547 Y136.491 E87.77437
G1 X128.603 Y136.491 E88.26109
G1 X128.603 Y136.442 E88.26697
G1 X132.158 Y136.480 E88.69359
G1 X132.369 Y136.479 E88.71891
G1 X132.369 Y136.482 E88.71927
G1 X136.426 Y136.525 E89.20614
G0 F9000 X72.906 Y129.369
G1 F1800 X68.648 Y129.385 E89.71710
G1 X66.036 Y129.385 E90.03054
G1 X65.807 Y129.386 E90.05802
G1 X65.594 Y129.385 E90.08358
G1 X65.216 Y129.385 E90.12894
G1 X65.216 Y129.383 E90.12918
G1 X61.554 Y129.366 E90.56863
G1 X61.554 Y120.180 E91.67095
G1 X60.602 Y120.180 E91.78519
G1 X60.543 Y116.033 E92.28288
G1 X60.530 Y115.196 E92.38333
G1 X60.516 Y114.367 E92.48282
G1 X60.517 Y114.367 E92.48294
G1 X60.500 Y113.529 E92.58353
G1 X60.468 Y111.853 E92.78468
G1 X60.448 Y111.002 E92.88683
G1 X60.430 Y110.194 E92.98381
G1 X60.405 Y109.294 E93.09186
G1 X60.407 Y109.242 E93.09810
G1 X60.377 Y105.615 E93.53336
G1 X61.291 Y105.615 E93.64304
G1 X61.291 Y95.623 E94.84208
G1 X65.347 Y95.623 E95.32880
G1 X65.347 Y95.574 E95.33468
G1 X68.902 Y95.612 E95.76130
G1 X69.113 Y95.611 E95.78662
G1 X69.113 Y95.614 E95.78698
G1 X73.170 Y95.657 E96.27385
G1 X73.170 Y105.615 E97.46881
G1 X73.995 Y105.615 E97.56781
G1 X74.061 Y109.089 E97.98476
G1 X74.046 Y109.665 E98.05391
G1 X74.022 Y110.545 E98.15955
G1 X74.023 Y110.574 E98.16303
G1 X74.002 Y111.351 E98.25630
G1 X73.986 Y112.057 E98.34104
G1 X73.971 Y112.778 E98.42758
G1 X73.955 Y113.498 E98.51400
G1 X73.942 Y114.206 E98.59898
G1 X73.943 Y114.206 E98.59910
G1 X73.919 Y115.657 E98.77324
G1 X73.908 Y116.378 E98.85977
G1 X73.879 Y120.180 E99.31603
G1 X72.906 Y120.180 E99.43279
G1 X72.906 Y129.369 E100.53547
G10
G0 F9000 X69.106 Y125.583
;TYPE:WALL-INNER
G11
G1 F1800 X69.016 Y125.584 E100.54627
G1 X69.016 Y116.383 E101.65039
G1 X65.429 Y116.383 E102.08083
G1 X65.429 Y125.584 E103.18495
G1 X65.354 Y125.584 E103.19395
G1 X65.354 Y116.380 E104.29843
G1 X64.348 Y116.380 E104.41915
G1 X64.330 Y115.138 E104.56820
G1 X64.316 Y114.302 E104.66854
G1 X64.267 Y111.779 E104.97135
G1 X64.229 Y110.108 E105.17192
G1 X64.210 Y109.415 E105.25512
