;FLAVOR:UltiGCode
;TIME:2174
;MATERIAL:4802
;MATERIAL2:0

;Layer count: 20
;LAYER:0
M107
G0 F9000 X67.095 Y67.098 Z0.300
;TYPE:SKIRT
G1 F1800 X67.589 Y66.640 E0.08084
G1 X68.119 Y66.240 E0.16052
G1 X69.011 Y65.772 E0.28140
G1 X69.736 Y65.533 E0.37300
G1 X70.810 Y65.361 E0.50352
G1 X71.898 Y65.425 E0.63431
G1 X72.641 Y65.592 E0.72569
G1 X73.648 Y65.997 E0.85594
G1 X74.554 Y66.612 E0.98734
G1 X75.103 Y67.139 E1.07866
G1 X75.704 Y67.929 E1.19778
G1 X76.053 Y68.588 E1.28726
G1 X76.317 Y69.345 E1.38347
G1 X76.401 Y69.681 E1.42503
G1 X76.503 Y70.302 E1.50055
G1 X76.518 Y77.043 E2.30947
G1 X76.518 Y92.883 E4.21027
G1 X78.594 Y92.891 E4.45939
G1 X85.672 Y92.890 E5.30875
G1 X85.681 Y89.767 E5.68351
G1 X85.681 Y78.845 E6.99415
G1 X85.716 Y78.233 E7.06771
G1 X85.907 Y77.278 E7.18458
G1 X86.186 Y76.504 E7.28331
G1 X86.487 Y75.913 E7.36290
G1 X86.832 Y75.381 E7.43899
G1 X87.232 Y74.887 E7.51527
G1 X87.681 Y74.438 E7.59146
G1 X88.224 Y74.001 E7.67511
G1 X89.067 Y73.500 E7.79278
G1 X89.892 Y73.165 E7.89963
G1 X90.860 Y72.949 E8.01865
G1 X91.451 Y72.899 E8.08982
G1 X91.756 Y72.888 E8.12645
G1 X92.568 Y72.931 E8.22402
G1 X93.400 Y73.062 E8.32509
G1 X94.214 Y73.280 E8.42622
G1 X95.001 Y73.582 E8.52737
G1 X95.752 Y73.965 E8.62853
G1 X96.460 Y74.425 E8.72985
G1 X97.114 Y74.955 E8.83087
G1 X97.709 Y75.550 E8.93184
G1 X98.239 Y76.204 E9.03286
G1 X98.699 Y76.912 E9.13417
G1 X99.082 Y77.663 E9.23534
G1 X99.384 Y78.450 E9.33649
G1 X99.602 Y79.264 E9.43761
G1 X99.733 Y80.096 E9.53868
G1 X99.773 Y80.852 E9.62953
G1 X99.773 Y83.657 E9.96613
G1 X99.718 Y84.261 E10.03891
G1 X99.525 Y85.006 E10.13126
G1 X99.190 Y85.709 E10.22471
G1 X98.754 Y86.326 E10.31537
G1 X98.218 Y86.854 E10.40566
G1 X97.605 Y87.284 E10.49551
G1 X96.912 Y87.608 E10.58731
G1 X96.159 Y87.807 E10.68077
G1 X95.404 Y87.864 E10.77163
G1 X94.685 Y87.799 E10.85826
G1 X93.646 Y87.541 E10.98673
G1 X93.646 Y93.897 E11.74945
G1 X93.610 Y94.549 E11.82781
G1 X93.495 Y95.274 E11.91589
G1 X93.287 Y96.052 E12.01253
G1 X92.825 Y97.119 E12.15206
G1 X92.324 Y97.926 E12.26604
G1 X91.839 Y98.525 E12.35853
G1 X91.318 Y99.046 E12.44695
G1 X90.744 Y99.513 E12.53575
G1 X90.120 Y99.917 E12.62495
G1 X89.466 Y100.248 E12.71291
G1 X88.780 Y100.513 E12.80116
G1 X88.065 Y100.704 E12.88997
G1 X87.263 Y100.831 E12.98741
G1 X83.626 Y100.855 E13.42386
G1 X75.511 Y100.855 E14.39766
G1 X74.859 Y100.819 E14.47601
G1 X74.134 Y100.704 E14.56410
G1 X73.356 Y100.496 E14.66074
G1 X72.291 Y100.035 E14.80000
G1 X71.481 Y99.534 E14.91429
G1 X70.881 Y99.046 E15.00710
G1 X70.360 Y98.525 E15.09551
G1 X69.897 Y97.953 E15.18382
G1 X69.494 Y97.333 E15.27256
G1 X69.160 Y96.676 E15.36100
G1 X68.895 Y95.987 E15.44959
G1 X68.704 Y95.274 E15.53816
G1 X68.576 Y94.467 E15.63621
G1 X68.552 Y87.001 E16.53214
G1 X68.547 Y83.310 E16.97506
G1 X68.544 Y79.326 E17.45314
G1 X68.543 Y75.616 E17.89834
G1 X68.401 Y75.548 E17.91723
G1 X67.576 Y74.976 E18.03770
G1 X67.094 Y74.507 E18.11840
G1 X66.720 Y74.059 E18.18843
G1 X66.347 Y73.499 E18.26918
G1 X65.933 Y72.581 E18.39002
G1 X65.759 Y71.928 E18.47111
G1 X65.670 Y71.357 E18.54046
G1 X65.641 Y70.765 E18.61159
G1 X65.680 Y70.171 E18.68302
G1 X65.778 Y69.601 E18.75242
G1 X65.939 Y69.037 E18.82281
G1 X66.162 Y68.487 E18.89403
G1 X66.483 Y67.896 E18.97473
G1 X67.095 Y67.098 E19.09541
G0 F9000 X97.971 Y70.171
G1 F1800 X98.069 Y69.601 E19.16481
G1 X98.230 Y69.037 E19.23520
G1 X98.453 Y68.487 E19.30642
G1 X98.774 Y67.896 E19.38712
G1 X99.384 Y67.101 E19.50737
G1 X99.878 Y66.640 E19.58845
G1 X100.414 Y66.238 E19.66885
G1 X101.300 Y65.773 E19.78893
G1 X102.024 Y65.533 E19.88045
G1 X103.100 Y65.361 E20.01121
G1 X104.189 Y65.425 E20.14212
G1 X104.932 Y65.592 E20.23350
G1 X105.939 Y65.997 E20.36375
G1 X106.845 Y66.612 E20.49515
G1 X107.394 Y67.139 E20.58647
G1 X108.049 Y68.001 E20.71639
G1 X108.508 Y68.996 E20.84788
G1 X108.686 Y69.645 E20.92864
G1 X108.794 Y70.302 E21.00853
G1 X108.808 Y77.043 E21.81746
G1 X108.808 Y92.883 E23.71826
G1 X110.884 Y92.891 E23.96738
G1 X117.962 Y92.890 E24.81674
G1 X117.971 Y89.767 E25.19150
G1 X117.971 Y78.851 E26.50142
G1 X118.004 Y78.236 E26.57533
G1 X118.198 Y77.275 E26.69297
G1 X118.476 Y76.504 E26.79132
G1 X118.777 Y75.913 E26.87091
G1 X119.122 Y75.381 E26.94700
G1 X119.566 Y74.834 E27.03154
G1 X120.285 Y74.174 E27.14866
G1 X121.014 Y73.677 E27.25454
G1 X121.943 Y73.250 E27.37723
G1 X122.731 Y73.024 E27.47560
G1 X123.381 Y72.921 E27.55457
G1 X124.016 Y72.886 E27.63089
G1 X124.858 Y72.931 E27.73207
G1 X125.688 Y73.062 E27.83291
G1 X126.504 Y73.280 E27.93426
G1 X127.291 Y73.582 E28.03542
G1 X128.044 Y73.966 E28.13685
G1 X128.749 Y74.425 E28.23780
G1 X129.403 Y74.953 E28.33866
G1 X129.999 Y75.550 E28.43989
G1 X130.531 Y76.206 E28.54124
G1 X130.989 Y76.914 E28.64243
G1 X131.371 Y77.663 E28.74333
G1 X131.673 Y78.450 E28.84448
G1 X131.890 Y79.261 E28.94522
G1 X132.023 Y80.093 E29.04633
G1 X132.063 Y80.852 E29.13754
G1 X132.063 Y83.657 E29.47414
G1 X132.008 Y84.261 E29.54692
G1 X131.815 Y85.006 E29.63927
G1 X131.480 Y85.709 E29.73272
G1 X131.044 Y86.326 E29.82338
G1 X130.508 Y86.854 E29.91366
G1 X129.895 Y87.284 E30.00352
G1 X129.202 Y87.608 E30.09532
G1 X128.448 Y87.807 E30.18889
G1 X127.692 Y87.864 E30.27987
G1 X126.972 Y87.799 E30.36662
G1 X125.935 Y87.541 E30.49486
G1 X125.935 Y93.897 E31.25758
G1 X125.899 Y94.549 E31.33594
G1 X125.784 Y95.274 E31.42402
G1 X125.594 Y95.984 E31.51222
G1 X125.330 Y96.676 E31.60110
G1 X124.994 Y97.333 E31.68965
G1 X124.594 Y97.950 E31.77789
G1 X124.129 Y98.525 E31.86663
G1 X123.816 Y98.838 E31.91975
G1 X124.282 Y98.789 E31.97598
G1 X124.955 Y98.749 E32.05688
G1 X125.612 Y98.736 E32.13573
G1 X126.528 Y98.769 E32.24572
G1 X127.571 Y98.889 E32.37171
G1 X128.645 Y99.121 E32.50356
G1 X129.733 Y99.486 E32.64127
G1 X130.762 Y99.981 E32.77830
G1 X131.327 Y100.328 E32.85786
G1 X131.862 Y100.710 E32.93675
G1 X132.333 Y101.098 E33.00998
G1 X133.145 Y101.922 E33.14880
G1 X133.372 Y102.228 E33.19452
G1 X133.923 Y102.093 E33.26260
G1 X134.907 Y101.966 E33.38166
G1 X135.841 Y101.935 E33.49380
G1 X136.851 Y101.999 E33.61524
G1 X137.792 Y102.157 E33.72974
G1 X138.089 Y102.242 E33.76681
G1 X138.404 Y102.192 E33.80509
G1 X140.467 Y102.192 E34.05265
G1 X142.478 Y102.621 E34.29940
G1 X142.583 Y102.698 E34.31502
G1 X143.263 Y102.490 E34.40035
G1 X144.176 Y102.315 E34.51191
G1 X145.040 Y102.223 E34.61617
G1 X145.911 Y102.192 E34.72076
G1 X147.838 Y102.192 E34.95200
G1 X148.544 Y102.343 E35.03864
G1 X149.038 Y102.232 E35.09939
G1 X149.754 Y102.104 E35.18668
G1 X150.477 Y102.011 E35.27415
G1 X151.204 Y101.953 E35.36167
G1 X151.877 Y101.936 E35.44245
G1 X152.652 Y101.957 E35.53549
G1 X153.497 Y102.032 E35.63729
G1 X154.363 Y102.176 E35.74263
G1 X155.240 Y102.398 E35.85119
G1 X156.123 Y102.709 E35.96353
G1 X157.005 Y103.125 E36.08055
G1 X157.822 Y103.627 E36.19562
G1 X158.312 Y103.991 E36.26887
G1 X159.014 Y104.618 E36.38182
G1 X159.452 Y105.091 E36.45918
G1 X159.974 Y105.782 E36.56310
G1 X160.092 Y105.952 E36.58793
G1 X160.423 Y106.511 E36.66589
G1 X160.827 Y107.401 E36.78318
G1 X161.049 Y108.052 E36.86572
G1 X161.272 Y109.051 E36.98855
G1 X161.366 Y110.041 E37.10788
G1 X161.373 Y110.551 E37.16909
G1 X161.349 Y111.072 E37.23167
G1 X161.257 Y111.850 E37.32568
G1 X161.065 Y112.720 E37.43259
G1 X160.874 Y113.273 E37.50280
G1 X160.874 Y114.056 E37.59676
G1 X160.806 Y114.715 E37.67626
G1 X160.862 Y115.036 E37.71536
G1 X160.862 Y117.059 E37.95812
G1 X160.594 Y118.318 E38.11259
G1 X160.595 Y118.318 E38.11271
G1 X160.435 Y119.070 E38.20497
G1 X159.474 Y120.392 E38.40109
G1 X159.062 Y120.965 E38.48578
G1 X157.492 Y121.938 E38.70743
G1 X156.574 Y122.278 E38.82490
G1 X155.846 Y122.495 E38.91606
G1 X155.118 Y122.662 E39.00569
G1 X154.394 Y122.787 E39.09386
G1 X153.671 Y122.872 E39.18121
G1 X152.948 Y122.922 E39.26818
G1 X152.273 Y122.936 E39.34920
G1 X151.529 Y122.916 E39.43851
G1 X150.705 Y122.842 E39.53779
G1 X149.858 Y122.701 E39.64083
G1 X149.225 Y122.540 E39.71921
G1 X148.740 Y123.208 E39.81827
G1 X148.298 Y123.823 E39.90915
G1 X146.287 Y124.985 E40.18786
G1 X144.679 Y125.239 E40.38321
G1 X142.620 Y125.239 E40.63029
G1 X140.609 Y124.812 E40.87699
G1 X138.666 Y123.401 E41.16514
G1 X138.240 Y122.662 E41.26750
G1 X136.310 Y122.252 E41.50427
G1 X136.236 Y122.198 E41.51526
G1 X135.843 Y122.425 E41.56973
G1 X134.236 Y122.679 E41.76496
G1 X132.177 Y122.679 E42.01204
G1 X131.268 Y122.486 E42.12355
G1 X130.048 Y122.679 E42.27177
G1 X127.990 Y122.679 E42.51873
G1 X127.806 Y122.640 E42.54130
G1 X127.405 Y122.737 E42.59081
G1 X126.774 Y122.845 E42.66763
G1 X126.128 Y122.911 E42.74556
G1 X125.445 Y122.937 E42.82757
G1 X124.481 Y122.894 E42.94337
G1 X123.370 Y122.724 E43.07824
G1 X122.244 Y122.402 E43.21878
G1 X121.193 Y121.944 E43.35635
G1 X120.590 Y121.602 E43.43954
G1 X119.858 Y121.091 E43.54667
G1 X118.890 Y121.091 E43.66283
G1 X118.803 Y121.215 E43.68100
G1 X116.803 Y122.406 E43.96034
G1 X115.144 Y122.679 E44.16209
G1 X113.805 Y122.679 E44.32277
G1 X113.756 Y122.910 E44.35111
G1 X112.795 Y124.232 E44.54724
G1 X112.353 Y124.848 E44.63822
G1 X110.341 Y126.009 E44.91697
G1 X108.734 Y126.263 E45.11220
G1 X107.667 Y126.263 E45.24024
G1 X107.930 Y126.601 E45.29163
G1 X108.299 Y127.267 E45.38300
G1 X108.530 Y127.845 E45.45770
G1 X108.686 Y128.414 E45.52850
G1 X108.794 Y129.071 E45.60839
G1 X108.808 Y135.812 E46.41732
G1 X108.808 Y151.652 E48.31812
G1 X110.884 Y151.660 E48.56724
G1 X117.962 Y151.660 E49.41660
G1 X117.971 Y148.536 E49.79148
G1 X117.971 Y137.620 E51.10140
G1 X118.004 Y137.005 E51.17531
G1 X118.198 Y136.042 E51.29319
G1 X118.476 Y135.275 E51.39109
G1 X118.776 Y134.684 E51.47062
G1 X119.122 Y134.150 E51.54698
G1 X119.566 Y133.603 E51.63152
G1 X120.288 Y132.940 E51.74915
G1 X121.018 Y132.445 E51.85499
G1 X121.939 Y132.021 E51.97665
G1 X122.727 Y131.794 E52.07506
G1 X123.381 Y131.690 E52.15453
G1 X124.016 Y131.655 E52.23084
G1 X124.858 Y131.700 E52.33203
G1 X125.688 Y131.831 E52.43286
G1 X126.504 Y132.049 E52.53421
G1 X127.291 Y132.351 E52.63537
G1 X128.044 Y132.735 E52.73680
G1 X128.749 Y133.194 E52.83775
G1 X129.403 Y133.722 E52.93861
G1 X129.999 Y134.319 E53.03984
G1 X130.531 Y134.975 E53.14120
G1 X130.989 Y135.683 E53.24238
G1 X131.371 Y136.432 E53.34328
G1 X131.673 Y137.219 E53.44443
G1 X131.890 Y138.030 E53.54518
G1 X132.023 Y138.862 E53.64628
G1 X132.063 Y139.621 E53.73749
G1 X132.063 Y142.426 E54.07409
G1 X132.008 Y143.030 E54.14687
G1 X131.815 Y143.775 E54.23922
G1 X131.480 Y144.478 E54.33267
G1 X131.047 Y145.090 E54.42263
G1 X130.508 Y145.626 E54.51385
G1 X129.890 Y146.056 E54.60419
G1 X129.202 Y146.377 E54.69530
G1 X128.448 Y146.576 E54.78888
G1 X127.692 Y146.633 E54.87985
G1 X126.972 Y146.568 E54.96661
G1 X125.935 Y146.310 E55.09484
G1 X125.935 Y152.666 E55.85756
G1 X125.899 Y153.318 E55.93592
G1 X125.785 Y154.042 E56.02387
G1 X125.594 Y154.754 E56.11233
G1 X125.329 Y155.446 E56.20125
G1 X124.994 Y156.102 E56.28964
G1 X124.594 Y156.719 E56.37788
G1 X124.129 Y157.294 E56.46662
G1 X123.608 Y157.815 E56.55503
G1 X123.034 Y158.282 E56.64383
G1 X122.357 Y158.720 E56.74059
G1 X121.301 Y159.204 E56.87999
G1 X120.386 Y159.469 E56.99430
G1 X119.553 Y159.600 E57.09549
G1 X115.917 Y159.624 E57.53182
G1 X107.802 Y159.624 E58.50562
G1 X107.150 Y159.588 E58.58398
G1 X106.425 Y159.473 E58.67206
G1 X105.715 Y159.283 E58.76026
G1 X105.023 Y159.019 E58.84914
G1 X104.366 Y158.683 E58.93769
G1 X103.746 Y158.282 E59.02630
G1 X103.172 Y157.815 E59.11509
G1 X102.653 Y157.296 E59.20317
G1 X102.186 Y156.722 E59.29197
G1 X101.783 Y156.099 E59.38101
G1 X101.451 Y155.446 E59.46891
G1 X101.186 Y154.758 E59.55739
G1 X100.994 Y154.042 E59.64634
G1 X100.867 Y153.236 E59.74425
G1 X100.842 Y145.770 E60.64018
G1 X100.837 Y142.079 E61.08310
G1 X100.835 Y138.095 E61.56118
G1 X100.834 Y134.385 E62.00638
G1 X100.692 Y134.317 E62.02527
G1 X99.871 Y133.747 E62.14521
G1 X99.386 Y133.279 E62.22609
G1 X99.012 Y132.830 E62.29621
G1 X98.637 Y132.267 E62.37738
G1 X98.223 Y131.347 E62.49845
G1 X98.050 Y130.697 E62.57916
G1 X97.961 Y130.126 E62.64851
G1 X97.932 Y129.534 E62.71964
G1 X97.971 Y128.940 E62.79107
G1 X98.069 Y128.370 E62.86047
G1 X98.230 Y127.806 E62.93086
G1 X98.453 Y127.256 E63.00208
G1 X98.731 Y126.743 E63.07209
G1 X99.059 Y126.263 E63.14186
G1 X99.448 Y125.810 E63.21351
G1 X99.878 Y125.409 E63.28406
G1 X100.414 Y125.007 E63.36446
G1 X101.300 Y124.542 E63.48454
G1 X102.024 Y124.302 E63.57607
G1 X102.597 Y124.210 E63.64571
G1 X101.905 Y123.010 E63.81194
G1 X101.859 Y122.932 E63.82280
G1 X101.013 Y122.899 E63.92440
G1 X99.916 Y122.759 E64.05711
G1 X98.797 Y122.496 E64.19505
G1 X97.731 Y122.112 E64.33101
G1 X97.678 Y122.087 E64.33804
G1 X97.093 Y122.425 E64.41912
G1 X95.485 Y122.679 E64.61447
G1 X93.426 Y122.679 E64.86155
G1 X91.415 Y122.252 E65.10825
G1 X91.341 Y122.198 E65.11924
G1 X90.949 Y122.425 E65.17360
G1 X89.341 Y122.679 E65.36895
G1 X87.533 Y122.679 E65.58591
G1 X87.148 Y123.208 E65.66443
G1 X86.706 Y123.823 E65.75531
G1 X84.695 Y124.985 E66.03402
G1 X83.087 Y125.239 E66.22937
G1 X81.028 Y125.239 E66.47645
G1 X79.017 Y124.812 E66.72315
G1 X77.075 Y123.401 E67.01121
G1 X76.259 Y121.986 E67.20722
G1 X75.921 Y121.409 E67.28747
G1 X75.871 Y121.091 E67.32609
G1 X75.661 Y121.091 E67.35129
G1 X74.330 Y120.952 E67.51188
G1 X72.893 Y120.486 E67.69316
G1 X71.585 Y119.731 E67.87439
G1 X70.465 Y118.721 E68.05537
G1 X69.812 Y117.823 E68.18861
G1 X69.574 Y117.492 E68.23753
G1 X69.129 Y116.493 E68.36877
G1 X68.931 Y116.055 E68.42645
G1 X68.684 Y114.494 E68.61610
G1 X68.628 Y114.151 E68.65780
G1 X68.628 Y110.724 E69.06904
G1 X68.727 Y109.782 E69.18271
G1 X68.773 Y109.379 E69.23138
G1 X69.110 Y108.340 E69.36245
G1 X69.237 Y107.954 E69.41122
G1 X69.781 Y107.009 E69.54207
G1 X69.986 Y106.652 E69.59147
G1 X70.730 Y105.828 E69.72469
G1 X71.001 Y105.528 E69.77320
G1 X72.218 Y104.642 E69.95384
G1 X73.675 Y103.993 E70.14524
G1 X75.576 Y103.692 E70.37621
G1 X78.987 Y103.692 E70.78553
G1 X79.247 Y103.498 E70.82445
G1 X80.176 Y103.006 E70.95060
G1 X80.754 Y102.770 E71.02552
G1 X81.671 Y102.490 E71.14058
G1 X82.584 Y102.315 E71.25213
G1 X83.449 Y102.223 E71.35652
G1 X84.319 Y102.192 E71.46098
G1 X86.246 Y102.192 E71.69222
G1 X87.627 Y102.487 E71.86168
G1 X88.017 Y102.340 E71.91170
G1 X89.029 Y102.093 E72.03670
G1 X90.011 Y101.966 E72.15552
G1 X90.946 Y101.935 E72.26778
G1 X91.956 Y101.999 E72.38923
G1 X92.896 Y102.157 E72.50361
G1 X93.195 Y102.242 E72.54091
G1 X93.500 Y102.192 E72.57800
G1 X95.572 Y102.192 E72.82664
G1 X97.583 Y102.621 E73.07339
G1 X97.754 Y102.745 E73.09874
G1 X98.314 Y102.522 E73.17107
G1 X99.424 Y102.201 E73.30973
G1 X100.578 Y102.007 E73.45015
G1 X101.645 Y101.940 E73.57844
G1 X101.972 Y101.936 E73.61769
G1 X102.675 Y101.960 E73.70209
G1 X103.426 Y102.027 E73.79257
G1 X104.180 Y102.143 E73.88412
G1 X104.918 Y102.305 E73.97479
G1 X105.320 Y102.421 E74.02499
G1 X106.758 Y102.192 E74.19973
G1 X108.821 Y102.192 E74.44729
G1 X110.832 Y102.621 E74.69404
G1 X110.868 Y102.647 E74.69937
G1 X111.115 Y102.494 E74.73423
G1 X112.841 Y102.192 E74.94450
G1 X115.412 Y102.192 E75.25302
G1 X117.423 Y102.621 E75.49977
G1 X117.461 Y102.648 E75.50536
G1 X117.484 Y102.538 E75.51885
G1 X118.445 Y101.216 E75.71497
G1 X118.718 Y100.837 E75.77103
G1 X115.917 Y100.855 E76.10715
G1 X107.802 Y100.855 E77.08095
G1 X107.150 Y100.819 E77.15931
G1 X106.425 Y100.704 E77.24740
G1 X105.647 Y100.496 E77.34404
G1 X104.582 Y100.035 E77.48330
G1 X103.772 Y99.534 E77.59759
G1 X103.172 Y99.046 E77.69040
G1 X102.653 Y98.527 E77.77847
G1 X102.186 Y97.953 E77.86727
G1 X101.783 Y97.330 E77.95631
G1 X101.451 Y96.676 E78.04432
G1 X101.186 Y95.987 E78.13291
G1 X100.995 Y95.274 E78.22148
G1 X100.867 Y94.467 E78.31953
G1 X100.842 Y87.001 E79.21546
G1 X100.837 Y83.310 E79.65838
G1 X100.835 Y79.326 E80.13646
G1 X100.834 Y75.616 E80.58166
G1 X100.692 Y75.548 E80.60055
G1 X99.797 Y74.927 E80.73127
G1 X99.062 Y74.133 E80.86111
G1 X98.638 Y73.501 E80.95243
G1 X98.223 Y72.578 E81.07388
G1 X98.050 Y71.928 E81.15459
G1 X97.961 Y71.357 E81.22394
G1 X97.932 Y70.765 E81.29506
G1 X97.971 Y70.171 E81.36650
G0 F9000 X130.222 Y70.765
G1 F1800 X130.259 Y70.178 E81.43708
G1 X130.358 Y69.601 E81.50733
G1 X130.519 Y69.037 E81.57771
