;FLAVOR:UltiGCode
;TIME:4752
;MATERIAL:11050
;MATERIAL2:0

;Layer count: 79
;LAYER:0
M107
G0 F9000 X108.661 Y16.539 Z0.300
;TYPE:SKIRT
G1 F1800 X112.717 Y16.539 E0.48672
G1 X112.717 Y16.486 E0.49308
G1 X116.693 Y16.528 E0.97023
G1 X117.283 Y16.526 E1.04103
G1 X117.283 Y16.534 E1.04199
G1 X121.339 Y16.577 E1.52873
G1 X121.339 Y26.531 E2.72321
G1 X122.156 Y26.531 E2.82125
G1 X122.230 Y30.406 E3.28634
G1 X122.193 Y31.853 E3.46004
G1 X122.194 Y31.892 E3.46472
G1 X122.170 Y32.683 E3.55968
G1 X122.155 Y33.382 E3.64358
G1 X122.140 Y34.102 E3.73000
G1 X122.124 Y34.802 E3.81402
G1 X122.125 Y34.802 E3.81414
G1 X122.112 Y35.531 E3.90164
G1 X122.099 Y36.250 E3.98793
G1 X122.100 Y36.250 E3.98805
G1 X122.078 Y37.700 E4.16207
G1 X122.045 Y41.896 E4.66560
G1 X121.076 Y41.896 E4.78188
G1 X121.076 Y51.084 E5.88444
G1 X116.418 Y51.101 E6.44341
G1 X113.802 Y51.101 E6.75733
G1 X113.577 Y51.102 E6.78433
G1 X113.365 Y51.101 E6.80977
G1 X112.585 Y51.101 E6.90337
G1 X112.585 Y51.097 E6.90385
G1 X108.924 Y51.080 E7.34317
G1 X108.924 Y41.896 E8.44525
G1 X107.977 Y41.896 E8.55889
G1 X107.913 Y37.355 E9.10387
G1 X107.900 Y36.519 E9.20420
G1 X107.901 Y36.519 E9.20432
G1 X107.887 Y35.689 E9.30393
G1 X107.870 Y34.850 E9.40463
G1 X107.855 Y34.011 E9.50533
G1 X107.838 Y33.181 E9.60495
G1 X107.818 Y32.327 E9.70746
G1 X107.800 Y31.519 E9.80444
G1 X107.775 Y30.607 E9.91393
G1 X107.777 Y30.546 E9.92125
G1 X107.752 Y26.531 E10.40306
G1 X108.661 Y26.531 E10.51214
G1 X108.661 Y16.539 E11.71118
G0 F9000 X109.061 Y16.939
G1 F1800 X113.117 Y16.939 E12.19790
G1 X113.117 Y16.890 E12.20378
G1 X116.672 Y16.928 E12.63040
G1 X116.883 Y16.927 E12.65572
G1 X116.883 Y16.930 E12.65608
G1 X120.939 Y16.973 E13.14283
G1 X120.939 Y26.931 E14.33779
G1 X121.764 Y26.931 E14.43679
G1 X121.830 Y30.405 E14.85375
G1 X121.792 Y31.859 E15.02829
G1 X121.793 Y31.892 E15.03225
G1 X121.771 Y32.672 E15.12588
G1 X121.770 Y32.672 E15.12600
G1 X121.755 Y33.373 E15.21014
G1 X121.740 Y34.094 E15.29668
G1 X121.724 Y34.796 E15.38094
G1 X121.725 Y34.796 E15.38106
G1 X121.713 Y35.524 E15.46844
G1 X121.699 Y36.244 E15.55485
G1 X121.700 Y36.244 E15.55497
G1 X121.678 Y37.694 E15.72899
G1 X121.649 Y41.496 E16.18525
G1 X120.676 Y41.496 E16.30201
G1 X120.676 Y50.685 E17.40469
G1 X116.417 Y50.701 E17.91577
G1 X113.806 Y50.701 E18.22909
G1 X113.577 Y50.702 E18.25657
G1 X113.364 Y50.701 E18.28213
G1 X112.985 Y50.701 E18.32761
G1 X112.985 Y50.699 E18.32785
G1 X109.324 Y50.682 E18.76717
G1 X109.324 Y41.496 E19.86949
G1 X108.372 Y41.496 E19.98373
G1 X108.313 Y37.349 E20.48142
G1 X108.300 Y36.512 E20.58188
G1 X108.286 Y35.683 E20.68137
G1 X108.287 Y35.683 E20.68149
G1 X108.270 Y34.843 E20.78231
G1 X108.255 Y34.003 E20.88313
G1 X108.238 Y33.173 E20.98275
G1 X108.218 Y32.318 E21.08538
G1 X108.200 Y31.510 E21.18236
G1 X108.175 Y30.610 E21.29040
G1 X108.178 Y30.553 E21.29725
G1 X108.155 Y26.931 E21.73190
G1 X109.061 Y26.931 E21.84062
G1 X109.061 Y16.939 E23.03966
G10
G0 F9000 X112.861 Y20.739
;TYPE:WALL-INNER
G11
G1 F1800 X113.083 Y20.739 E23.06630
G1 X113.083 Y30.731 E24.26534
G1 X116.917 Y30.731 E24.72542
G1 X116.917 Y20.730 E25.92554
G1 X117.139 Y20.733 E25.95218
G1 X117.139 Y30.731 E27.15194
G1 X118.020 Y30.731 E27.25766
G1 X117.991 Y31.862 E27.39343
G1 X117.992 Y31.891 E27.39691
G1 X117.972 Y32.563 E27.47759
G1 X117.925 Y34.731 E27.73781
G1 X117.878 Y37.638 E28.08669
G1 X117.878 Y37.696 E28.09365
G1 X116.876 Y37.696 E28.21389
G1 X116.876 Y46.899 E29.31825
G1 X116.785 Y46.900 E29.32917
G1 X116.785 Y37.699 E30.43329
G1 X113.199 Y37.699 E30.86361
G1 X113.199 Y46.900 E31.96773
G1 X113.124 Y46.900 E31.97673
G1 X113.124 Y37.696 E33.08121
G1 X112.118 Y37.696 E33.20193
G1 X112.100 Y36.454 E33.35099
G1 X112.086 Y35.618 E33.45132
G1 X112.069 Y34.770 E33.55310
G1 X112.054 Y33.935 E33.65332
G1 X112.037 Y33.095 E33.75414
G1 X111.999 Y31.424 E33.95471
G1 X111.980 Y30.731 E34.03790
G1 X112.861 Y30.731 E34.14362
G1 X112.861 Y20.739 E35.34266
G0 F9000 X112.461 Y20.339
;TYPE:WALL-OUTER
G1 F1800 X113.483 Y20.338 E35.46530
G1 X113.483 Y30.331 E36.66446
G1 X116.517 Y30.331 E37.02854
G1 X116.517 Y20.326 E38.22914
G1 X117.539 Y20.337 E38.35179
G1 X117.539 Y30.331 E39.55107
G1 X118.428 Y30.331 E39.65775
G1 X118.429 Y30.389 E39.66471
G1 X118.391 Y31.861 E39.84141
G1 X118.392 Y31.888 E39.84465
G1 X118.372 Y32.573 E39.92689
G1 X118.325 Y34.739 E40.18687
G1 X118.278 Y37.643 E40.53539
G1 X118.275 Y38.096 E40.58976
G1 X117.276 Y38.096 E40.70964
G1 X117.276 Y47.298 E41.81388
G1 X116.385 Y47.300 E41.92080
G1 X116.385 Y38.099 E43.02492
G1 X113.599 Y38.099 E43.35924
G1 X113.600 Y47.302 E44.46360
G1 X112.724 Y47.298 E44.56872
G1 X112.724 Y38.096 E45.67296
G1 X111.724 Y38.096 E45.79296
G1 X111.686 Y35.626 E46.08939
G1 X111.599 Y31.434 E46.59254
G1 X111.577 Y30.641 E46.68774
G1 X111.578 Y30.613 E46.69110
G1 X111.576 Y30.331 E46.72494
G1 X112.461 Y30.331 E46.83114
G1 X112.461 Y20.339 E48.03018
G0 F9000 X112.761 Y20.549
G0 X112.802 Y30.672
G0 X112.612 Y30.870
;TYPE:SKIN
G1 F1800 X117.768 Y36.027 E48.90527
G0 F9000 X117.757 Y36.581
G1 F1800 X112.125 Y30.950 E49.86096
G0 F9000 X112.137 Y31.527
G1 F1800 X117.746 Y37.135 E50.81276
G0 F9000 X117.600 Y37.555
G1 F1800 X112.148 Y32.104 E51.73791
G0 F9000 X112.159 Y32.681
G1 F1800 X117.034 Y37.555 E52.56514
G0 F9000 X116.471 Y37.558
G1 F1800 X112.171 Y33.258 E53.29487
G0 F9000 X112.182 Y33.835
G1 F1800 X115.906 Y37.558 E53.92677
G0 F9000 X115.340 Y37.558
G1 F1800 X112.193 Y34.411 E54.46084
G0 F9000 X112.204 Y34.988
G1 F1800 X114.774 Y37.558 E54.89698
G0 F9000 X114.209 Y37.558
G1 F1800 X112.215 Y35.565 E55.23529
G0 F9000 X112.227 Y36.142
G1 F1800 X113.643 Y37.558 E55.47559
G0 F9000 X113.074 Y37.555
G1 F1800 X112.238 Y36.719 E55.61746
G0 F9000 X112.249 Y37.296
G1 F1800 X112.509 Y37.555 E55.66150
G0 F9000 X117.779 Y35.472
G1 F1800 X113.178 Y30.870 E56.44240
G0 F9000 X113.743 Y30.870
G1 F1800 X117.790 Y34.917 E57.12920
G0 F9000 X117.801 Y34.363
G1 F1800 X114.309 Y30.870 E57.72190
G0 F9000 X114.875 Y30.870
G1 F1800 X117.813 Y33.808 E58.22049
G0 F9000 X117.824 Y33.254
G1 F1800 X115.440 Y30.870 E58.62507
G0 F9000 X116.006 Y30.870
G1 F1800 X117.835 Y32.699 E58.93546
G0 F9000 X117.846 Y32.145
G1 F1800 X116.572 Y30.870 E59.15175
G0 F9000 X117.137 Y30.870
G1 F1800 X117.857 Y31.590 E59.27394
G0 F9000 X117.871 Y31.039
G1 F1800 X117.703 Y30.870 E59.30254
;LAYER:1
M106 S255
G0 F9000 X117.139 Y30.731 Z0.500
;TYPE:WALL-INNER
G1 F2520 X118.374 Y30.731 E59.40134
G1 X118.336 Y31.588 E59.46996
G1 X118.305 Y32.301 E59.52706
G1 X118.252 Y33.729 E59.64138
G1 X118.229 Y34.447 E59.69885
G1 X118.189 Y35.879 E59.81345
G1 X118.172 Y36.600 E59.87115
G1 X118.163 Y37.104 E59.91147
G1 X118.151 Y37.696 E59.95884
G1 X116.876 Y37.696 E60.06084
G1 X116.876 Y47.548 E60.84900
G1 X116.785 Y47.548 E60.85628
G1 X116.785 Y37.699 E61.64420
G1 X113.200 Y37.699 E61.93100
G1 X113.202 Y47.547 E62.71884
G1 X113.124 Y47.547 E62.72508
G1 X113.124 Y37.696 E63.51316
G1 X111.847 Y37.696 E63.61532
G1 X111.818 Y36.359 E63.72231
G1 X111.795 Y35.496 E63.79137
G1 X111.770 Y34.641 E63.85980
G1 X111.745 Y33.835 E63.92431
G1 X111.693 Y32.364 E64.04207
G1 X111.651 Y31.411 E64.11838
G1 X111.619 Y30.731 E64.17284
G1 X112.861 Y30.731 E64.27220
G1 X112.861 Y20.088 E65.12364
G1 X113.083 Y20.088 E65.14140
G1 X113.083 Y30.731 E65.99284
G1 X116.917 Y30.731 E66.29956
G1 X116.917 Y20.095 E67.15044
G1 X117.139 Y20.093 E67.16820
G1 X117.139 Y30.731 E68.01924
G0 F9000 X117.539 Y30.331
;TYPE:WALL-OUTER
G1 F1920 X118.792 Y30.331 E68.11948
G1 X118.705 Y32.317 E68.27851
G1 X118.652 Y33.743 E68.39267
G1 X118.589 Y35.888 E68.56435
G1 X118.572 Y36.608 E68.62196
G1 X118.545 Y38.096 E68.74102
G1 X117.276 Y38.096 E68.84254
G1 X117.276 Y47.948 E69.63070
G1 X117.123 Y47.949 E69.64294
G1 X116.385 Y47.947 E69.70198
G1 X116.385 Y38.099 E70.48982
G1 X113.600 Y38.099 E70.71262
G1 X113.602 Y47.946 E71.50038
G1 X112.874 Y47.948 E71.55862
G1 X112.724 Y47.948 E71.57062
G1 X112.724 Y38.096 E72.35878
G1 X111.456 Y38.096 E72.46022
G1 X111.418 Y36.368 E72.59850
G1 X111.345 Y33.849 E72.80010
G1 X111.293 Y32.380 E72.91769
G1 X111.252 Y31.430 E72.99377
G1 X111.215 Y30.624 E73.05831
G1 X111.205 Y30.331 E73.08177
G1 X112.461 Y30.331 E73.18225
G1 X112.461 Y19.689 E74.03361
G1 X113.483 Y19.687 E74.11537
G1 X113.483 Y30.331 E74.96689
G1 X116.517 Y30.331 E75.20961
G1 X116.517 Y19.698 E76.06025
G1 X117.539 Y19.690 E76.14201
G1 X117.539 Y30.331 E76.99329
G0 F9000 X117.621 Y30.870
;TYPE:SKIN
G1 F1740 X111.953 Y36.539 E77.63461
G0 F9000 X111.968 Y37.089
G1 F1740 X118.187 Y30.870 E78.33821
G0 F9000 X118.207 Y31.416
G1 F1740 X112.067 Y37.556 E79.03287
G0 F9000 X112.632 Y37.556
G1 F1740 X118.185 Y32.003 E79.66112
G0 F9000 X118.165 Y32.589
G1 F1740 X113.198 Y37.556 E80.22307
G0 F9000 X113.761 Y37.559
G1 F1740 X118.144 Y33.176 E80.71895
G0 F9000 X118.123 Y33.762
G1 F1740 X114.327 Y37.559 E81.14848
G0 F9000 X114.892 Y37.559
G1 F1740 X118.102 Y34.349 E81.51165
G0 F9000 X118.081 Y34.936
G1 F1740 X115.458 Y37.559 E81.80840
G0 F9000 X116.024 Y37.559
G1 F1740 X118.060 Y35.522 E82.03881
G0 F9000 X118.043 Y36.105
G1 F1740 X116.589 Y37.559 E82.20331
G0 F9000 X117.159 Y37.555
G1 F1740 X118.030 Y36.683 E82.30191
G0 F9000 X118.018 Y37.261
G1 F1740 X117.724 Y37.555 E82.33517
G0 F9000 X111.937 Y35.988
G1 F1740 X117.055 Y30.870 E82.91421
G0 F9000 X116.490 Y30.870
G1 F1740 X111.921 Y35.439 E83.43113
G0 F9000 X111.906 Y34.889
G1 F1740 X115.924 Y30.870 E83.88577
G0 F9000 X115.358 Y30.870
G1 F1740 X111.889 Y34.339 E84.27824
G0 F9000 X111.874 Y33.789
G1 F1740 X114.793 Y30.870 E84.60849
G0 F9000 X114.227 Y30.870
G1 F1740 X111.858 Y33.239 E84.87651
G0 F9000 X111.842 Y32.690
G1 F1740 X113.661 Y30.870 E85.08236
G0 F9000 X113.096 Y30.870
G1 F1740 X111.823 Y32.143 E85.22639
G0 F9000 X111.797 Y31.603
G1 F1740 X112.530 Y30.870 E85.30932
G0 F9000 X111.964 Y30.870
G1 F1740 X111.773 Y31.062 E85.33098
;LAYER:2
G0 F9000 X111.358 Y30.845 Z0.700
;TYPE:WALL-INNER
G1 F3300 X111.351 Y30.731 E85.34012
G1 X112.861 Y30.731 E85.46092
G1 X112.861 Y19.619 E86.34988
G1 X113.083 Y19.619 E86.36764
G1 X113.083 Y30.731 E87.25660
G1 X116.917 Y30.731 E87.56332
G1 X116.917 Y19.617 E88.45244
G1 X117.139 Y19.616 E88.47020
G1 X117.139 Y30.731 E89.35940
G1 X118.649 Y30.731 E89.48020
G1 X118.586 Y31.791 E89.56515
G1 X118.541 Y32.566 E89.62726
G1 X118.505 Y33.256 E89.68253
G1 X118.473 Y33.962 E89.73907
G1 X118.442 Y34.667 E89.79552
G1 X118.415 Y35.374 E89.85212
G1 X118.390 Y36.083 E89.90888
G1 X118.369 Y36.795 E89.96586
G1 X118.350 Y37.506 E90.02276
G1 X118.347 Y37.696 E90.03797
G1 X116.876 Y37.696 E90.15565
G1 X116.876 Y48.018 E90.98141
G1 X116.785 Y48.019 E90.98869
G1 X116.785 Y37.699 E91.81429
G1 X113.202 Y37.699 E92.10093
G1 X113.202 Y48.019 E92.92653
G1 X113.124 Y48.019 E92.93277
G1 X113.124 Y37.696 E93.75861
G1 X111.653 Y37.696 E93.87629
G1 X111.637 Y37.055 E93.92758
G1 X111.614 Y36.249 E93.99209
G1 X111.588 Y35.442 E94.05668
G1 X111.558 Y34.636 E94.12121
G1 X111.524 Y33.828 E94.18590
G1 X111.485 Y33.020 E94.25062
G1 X111.443 Y32.210 E94.31551
G1 X111.358 Y30.845 E94.42492
G0 F9000 X112.461 Y30.331
;TYPE:WALL-OUTER
G1 F2100 X112.461 Y19.220 E95.31380
G1 X113.483 Y19.218 E95.39556
G1 X113.483 Y30.331 E96.28460
G1 X116.517 Y30.331 E96.52732
G1 X116.517 Y19.220 E97.41620
G1 X117.251 Y19.215 E97.47492
G1 X117.539 Y19.217 E97.49796
G1 X117.539 Y30.331 E98.38708
G1 X119.074 Y30.331 E98.50988
G1 X118.941 Y32.581 E98.69019
G1 X118.940 Y32.630 E98.69412
G1 X118.904 Y33.276 E98.74588
G1 X118.842 Y34.683 E98.85854
G1 X118.790 Y36.095 E98.97158
G1 X118.750 Y37.514 E99.08515
G1 X118.740 Y38.096 E99.13171
G1 X117.276 Y38.096 E99.24883
G1 X117.276 Y48.417 E100.07451
G1 X116.385 Y48.420 E100.14579
G1 X116.385 Y38.099 E100.97147
G1 X113.602 Y38.099 E101.19411
G1 X113.602 Y48.421 E102.01987
G1 X112.724 Y48.417 E102.09011
G1 X112.724 Y38.096 E102.91579
G1 X111.260 Y38.096 E103.03291
G1 X111.214 Y36.261 E103.17976
G1 X111.158 Y34.652 E103.30856
G1 X111.125 Y33.846 E103.37309
G1 X111.044 Y32.234 E103.50221
G1 X110.927 Y30.331 E103.65474
G1 X112.461 Y30.331 E103.77746
G0 F9000 X112.612 Y30.870
;TYPE:SKIN
G1 F1800 X118.241 Y36.500 E104.41437
G0 F9000 X118.224 Y37.048
G1 F1800 X112.046 Y30.870 E105.11333
G0 F9000 X111.501 Y30.891
G1 F1800 X118.166 Y37.555 E105.86733
G0 F9000 X117.600 Y37.555
G1 F1800 X111.534 Y31.490 E106.55356
G0 F9000 X111.567 Y32.088
G1 F1800 X117.034 Y37.555 E107.17208
G0 F9000 X116.471 Y37.558
G1 F1800 X111.600 Y32.687 E107.72317
G0 F9000 X111.633 Y33.286
G1 F1800 X115.906 Y37.558 E108.20655
G0 F9000 X115.340 Y37.558
G1 F1800 X111.664 Y33.883 E108.62239
G0 F9000 X111.684 Y34.468
G1 F1800 X114.774 Y37.558 E108.97198
G0 F9000 X114.209 Y37.558
G1 F1800 X111.704 Y35.054 E109.25533
G0 F9000 X111.724 Y35.639
G1 F1800 X113.643 Y37.558 E109.47244
G0 F9000 X113.074 Y37.555
G1 F1800 X111.744 Y36.225 E109.62292
G0 F9000 X111.763 Y36.810
G1 F1800 X112.509 Y37.555 E109.70726
G0 F9000 X111.943 Y37.555
G1 F1800 X111.783 Y37.396 E109.72531
G0 F9000 X118.259 Y35.952
G1 F1800 X113.178 Y30.870 E110.30021
G0 F9000 X113.743 Y30.870
G1 F1800 X118.277 Y35.404 E110.81317
G0 F9000 X118.295 Y34.856
G1 F1800 X114.309 Y30.870 E111.26414
G0 F9000 X114.875 Y30.870
G1 F1800 X118.319 Y34.315 E111.65384
G0 F9000 X118.347 Y33.777
G1 F1800 X115.440 Y30.870 E111.98273
G0 F9000 X116.006 Y30.870
G1 F1800 X118.376 Y33.240 E112.25086
G0 F9000 X118.404 Y32.702
G1 F1800 X116.572 Y30.870 E112.45813
G0 F9000 X117.137 Y30.870
G1 F1800 X118.432 Y32.165 E112.60464
G0 F9000 X118.460 Y31.627
G1 F1800 X117.703 Y30.870 E112.69029
G0 F9000 X118.269 Y30.870
G1 F1800 X118.488 Y31.090 E112.71512
;LAYER:3
G0 F9000 X118.519 Y30.870 Z0.900
;TYPE:FILL
G1 F4920 X115.890 Y33.499 E113.01256
G0 F9000 X115.891 Y31.884
G1 F4920 X116.789 Y30.985 E113.11421
G0 F9000 X118.610 Y32.394
G1 F4920 X115.889 Y35.115 E113.42206
G0 F9000 X115.889 Y36.731
G1 F4920 X118.509 Y34.110 E113.71854
G0 F9000 X118.427 Y35.807
G1 F4920 X116.666 Y37.568 E113.91777
G0 F9000 X118.294 Y37.555
G1 F4920 X118.369 Y37.480 E113.92626
G0 F9000 X114.105 Y36.900
G1 F4920 X113.439 Y37.566 E114.00160
G0 F9000 X111.834 Y37.555
G1 F4920 X114.105 Y35.285 E114.25848
G0 F9000 X114.105 Y33.669
G1 F4920 X111.577 Y36.197 E114.54449
G0 F9000 X111.519 Y34.640
G1 F4920 X114.106 Y32.053 E114.83718
G0 F9000 X113.674 Y30.870
G1 F4920 X111.434 Y33.110 E115.09061
G0 F9000 X111.336 Y31.593
G1 F4920 X112.059 Y30.870 E115.17240
G0 F9000 X112.861 Y30.731
;TYPE:WALL-INNER
G1 F4020 X112.861 Y19.235 E116.09208
G1 X113.083 Y19.235 E116.10984
G1 X113.083 Y30.731 E117.02952
G1 X114.180 Y30.731 E117.11728
G1 X114.732 Y30.765 E117.16153
G1 X115.006 Y30.775 E117.18346
G1 X115.667 Y30.739 E117.23642
G1 X116.917 Y30.724 E117.33643
G1 X116.917 Y19.228 E118.25611
G1 X117.139 Y19.229 E118.27387
G1 X117.139 Y30.731 E119.19403
G1 X118.870 Y30.731 E119.33251
G1 X118.787 Y31.834 E119.42100
G1 X118.737 Y32.532 E119.47698
G1 X118.693 Y33.239 E119.53365
G1 X118.654 Y33.942 E119.58998
G1 X118.617 Y34.648 E119.64653
G1 X118.586 Y35.357 E119.70331
G1 X118.556 Y36.067 E119.76016
G1 X118.531 Y36.780 E119.81723
G1 X118.510 Y37.494 E119.87438
G1 X118.506 Y37.696 E119.89054
G1 X116.876 Y37.696 E120.02094
G1 X116.876 Y48.402 E120.87742
G1 X116.785 Y48.403 E120.88470
G1 X116.785 Y37.711 E121.74006
G1 X115.541 Y37.685 E121.83960
G1 X115.001 Y37.653 E121.88288
G1 X114.458 Y37.684 E121.92639
G1 X113.203 Y37.712 E122.02681
G1 X113.204 Y48.403 E122.88210
G1 X113.124 Y48.403 E122.88850
G1 X113.124 Y37.696 E123.74506
G1 X111.492 Y37.696 E123.87562
G1 X111.474 Y37.053 E123.92708
G1 X111.447 Y36.245 E123.99175
G1 X111.415 Y35.438 E124.05636
G1 X111.380 Y34.631 E124.12098
G1 X111.339 Y33.823 E124.18571
G1 X111.293 Y33.014 E124.25053
G1 X111.243 Y32.205 E124.31537
G1 X111.184 Y31.393 E124.38051
G1 X111.139 Y30.838 E124.42505
G1 X111.131 Y30.731 E124.43363
G1 X112.861 Y30.731 E124.57203
G0 F9000 X112.461 Y30.331
;TYPE:WALL-OUTER
G1 F2220 X112.461 Y18.835 E125.49171
G1 X113.483 Y18.834 E125.57347
G1 X113.483 Y30.331 E126.49323
G1 X114.189 Y30.331 E126.54971
G1 X114.751 Y30.366 E126.59476
G1 X115.002 Y30.374 E126.61485
G1 X115.662 Y30.339 E126.66773
G1 X116.517 Y30.329 E126.73613
G1 X116.517 Y18.824 E127.65653
