;FLAVOR:UltiGCode
;TIME:9500
;MATERIAL:19876
;MATERIAL2:0

;Layer count: 27
;LAYER:0
M107
G0 F9000 X53.541 Y70.480 Z0.300
;TYPE:SKIRT
G1 F1200 X54.356 Y70.020 E0.11230
G1 X55.241 Y69.687 E0.22577
G1 X55.271 Y69.683 E0.22940
G1 X55.270 Y69.536 E0.24704
G1 X61.647 Y69.536 E1.01228
G1 X61.647 Y69.702 E1.03220
G1 X61.998 Y69.772 E1.07515
G1 X62.832 Y70.144 E1.18474
G1 X63.504 Y70.556 E1.27933
G1 X64.247 Y71.257 E1.40191
G1 X64.918 Y72.302 E1.55093
G1 X65.260 Y73.584 E1.71015
G1 X65.256 Y74.300 E1.79607
G1 X65.257 Y75.662 E1.95951
G1 X65.168 Y76.383 E2.04669
G1 X64.838 Y77.363 E2.17078
G1 X64.483 Y77.898 E2.24783
G1 X64.483 Y79.876 E2.48519
G1 X64.482 Y82.809 E2.83715
G1 X64.483 Y83.444 E2.91335
G1 X65.711 Y83.444 E3.06071
G1 X65.711 Y88.160 E3.62663
G1 X65.716 Y93.080 E4.21703
G1 X50.929 Y93.080 E5.99147
G1 X50.934 Y83.444 E7.14779
G1 X52.468 Y83.444 E7.33187
G1 X52.469 Y82.803 E7.40879
G1 X52.468 Y78.832 E7.88531
G1 X52.469 Y78.166 E7.96523
G1 X52.469 Y77.896 E7.99763
G1 X52.038 Y77.202 E8.09566
G1 X51.694 Y75.998 E8.24592
G1 X51.698 Y75.241 E8.33676
G1 X51.697 Y73.870 E8.50128
G1 X51.777 Y73.202 E8.58202
G1 X52.086 Y72.225 E8.70498
G1 X52.718 Y71.240 E8.84542
G1 X53.541 Y70.480 E8.97985
G0 F9000 X53.778 Y70.806
G1 F1200 X54.525 Y70.384 E9.08280
G1 X55.339 Y70.078 E9.18716
G1 X55.672 Y70.034 E9.22746
G1 X55.672 Y69.936 E9.23922
G1 X61.248 Y69.936 E9.90834
G1 X61.248 Y70.031 E9.91974
G1 X61.876 Y70.156 E9.99658
G1 X62.645 Y70.498 E10.09758
G1 X63.259 Y70.876 E10.18410
G1 X63.937 Y71.515 E10.29590
G1 X64.547 Y72.466 E10.43148
G1 X64.860 Y73.635 E10.57670
G1 X64.856 Y74.298 E10.65626
G1 X64.857 Y75.638 E10.81706
G1 X64.776 Y76.294 E10.89638
G1 X64.476 Y77.186 E11.00931
G1 X64.084 Y77.777 E11.09441
G1 X64.083 Y78.177 E11.14241
G1 X64.083 Y79.876 E11.34629
G1 X64.082 Y82.809 E11.69825
G1 X64.084 Y83.844 E11.82245
G1 X65.311 Y83.844 E11.96969
G1 X65.311 Y88.160 E12.48761
G1 X65.316 Y92.680 E13.03001
G1 X51.329 Y92.680 E14.70845
G1 X51.334 Y83.844 E15.76877
G1 X52.868 Y83.844 E15.95285
G1 X52.868 Y83.624 E15.97925
G1 X52.869 Y82.804 E16.07765
G1 X52.868 Y78.833 E16.55417
G1 X52.869 Y78.167 E16.63409
G1 X52.869 Y77.782 E16.68029
G1 X52.407 Y77.038 E16.78539
G1 X52.094 Y75.943 E16.92205
G1 X52.098 Y75.244 E17.00593
G1 X52.097 Y73.894 E17.16793
G1 X52.170 Y73.287 E17.24130
G1 X52.451 Y72.396 E17.35341
G1 X53.027 Y71.499 E17.48133
G1 X53.778 Y70.806 E17.60395
G0 F9000 X54.015 Y71.131
G1 F1200 X54.695 Y70.748 E17.69761
G1 X55.437 Y70.469 E17.79273
G1 X56.073 Y70.385 E17.86972
G1 X56.073 Y70.336 E17.87560
G1 X60.848 Y70.336 E18.44860
G1 X60.848 Y70.359 E18.45136
G1 X61.754 Y70.539 E18.56220
G1 X62.459 Y70.853 E18.65481
G1 X63.015 Y71.195 E18.73315
G1 X63.627 Y71.772 E18.83408
G1 X64.177 Y72.629 E18.95628
G1 X64.459 Y73.687 E19.08767
G1 X64.456 Y74.296 E19.16075
G1 X64.457 Y75.613 E19.31879
G1 X64.384 Y76.205 E19.39037
G1 X64.114 Y77.008 E19.49203
G1 X63.684 Y77.656 E19.58535
G1 X63.683 Y78.176 E19.64775
G1 X63.683 Y79.876 E19.85175
G1 X63.682 Y82.809 E20.20371
G1 X63.684 Y84.244 E20.37591
G1 X64.911 Y84.244 E20.52315
G1 X64.911 Y88.160 E20.99307
G1 X64.915 Y92.280 E21.48747
G1 X51.729 Y92.280 E23.06979
G1 X51.734 Y84.244 E24.03411
G1 X53.268 Y84.244 E24.21819
G1 X53.268 Y83.624 E24.29259
G1 X53.269 Y82.804 E24.39099
G1 X53.268 Y78.833 E24.86751
G1 X53.269 Y78.167 E24.94743
G1 X53.269 Y77.668 E25.00731
G1 X52.777 Y76.875 E25.11930
G1 X52.495 Y75.888 E25.24248
G1 X52.498 Y75.246 E25.31952
G1 X52.497 Y73.918 E25.47888
G1 X52.563 Y73.372 E25.54488
G1 X52.817 Y72.567 E25.64617
G1 X53.336 Y71.758 E25.76151
G1 X54.015 Y71.131 E25.87242
G10
G0 F9000 X56.437 Y75.009
;TYPE:FILL
G11
G1 F1200 X56.696 Y75.269 E25.91646
G0 F9000 X57.049 Y75.234
G0 X57.106 Y82.258
G0 X59.825 Y82.258
G0 X59.784 Y74.969
G0 X59.625 Y74.968
G1 F1200 X59.975 Y75.318 E25.97585
G0 F9000 X59.887 Y75.479
;TYPE:WALL-INNER
G1 F1200 X59.884 Y79.367 E26.44241
G1 X59.885 Y74.136 E27.07013
G1 X60.414 Y74.148 E27.13363
G1 X60.599 Y74.184 E27.15625
G1 X60.656 Y74.210 E27.16376
G1 X60.657 Y75.321 E27.29708
G1 X60.579 Y75.350 E27.30707
G1 X59.887 Y75.479 E27.39154
G0 F9000 X59.825 Y82.258
G0 X57.106 Y82.258
G0 X57.063 Y74.292
G0 X56.693 Y74.137
G1 F1200 X57.048 Y74.136 E27.43414
G1 X57.048 Y75.479 E27.59530
G1 X56.389 Y75.354 E27.67579
G1 X56.298 Y75.318 E27.68753
G1 X56.297 Y74.207 E27.82085
G1 X56.364 Y74.180 E27.82952
G1 X56.693 Y74.137 E27.86934
G0 F9000 X57.021 Y75.521
G0 X57.068 Y82.317
G1 F1200 X59.882 Y82.317 E28.20702
G1 X59.886 Y85.331 E28.56870
G1 X59.882 Y88.044 E28.89426
G1 X61.111 Y88.044 E29.04174
G1 X61.112 Y88.480 E29.09406
G1 X55.531 Y88.480 E29.76378
G1 X55.532 Y88.044 E29.81610
G1 X57.070 Y88.044 E30.00066
G1 X57.068 Y83.626 E30.53082
G1 X57.068 Y82.317 E30.68790
G0 F9000 X57.448 Y81.917
;TYPE:WALL-OUTER
G1 F1200 X59.484 Y81.917 E30.93222
G1 X59.484 Y73.736 E31.91394
G1 X60.461 Y73.749 E32.03119
G1 X60.717 Y73.799 E32.06249
G1 X60.872 Y73.868 E32.08285
G1 X60.935 Y73.907 E32.09174
G1 X60.992 Y73.961 E32.10116
G1 X61.029 Y74.018 E32.10932
G1 X61.057 Y74.123 E32.12236
G1 X61.056 Y74.278 E32.14096
G1 X61.057 Y75.410 E32.27680
G1 X61.053 Y75.441 E32.28055
G1 X61.033 Y75.500 E32.28803
G1 X60.990 Y75.565 E32.29738
G1 X60.919 Y75.630 E32.30893
G1 X60.820 Y75.689 E32.32276
G1 X60.686 Y75.737 E32.33984
G1 X60.286 Y75.812 E32.38868
G1 X60.283 Y87.644 E33.80852
G1 X61.511 Y87.644 E33.95588
G1 X61.512 Y88.880 E34.10420
G1 X55.131 Y88.880 E34.86992
G1 X55.132 Y87.644 E35.01824
G1 X56.670 Y87.644 E35.20280
G1 X56.667 Y75.814 E36.62240
G1 X56.278 Y75.740 E36.66991
G1 X56.102 Y75.670 E36.69264
G1 X56.035 Y75.631 E36.70194
G1 X55.966 Y75.566 E36.71332
G1 X55.915 Y75.485 E36.72481
G1 X55.897 Y75.422 E36.73267
G1 X55.898 Y75.263 E36.75175
G1 X55.897 Y74.125 E36.88831
G1 X55.901 Y74.092 E36.89230
G1 X55.923 Y74.021 E36.90122
G1 X55.961 Y73.962 E36.90964
G1 X56.033 Y73.896 E36.92136
G1 X56.137 Y73.837 E36.93571
G1 X56.266 Y73.789 E36.95223
G1 X56.664 Y73.737 E37.00039
G1 X57.448 Y73.736 E37.09447
G1 X57.448 Y81.917 E38.07619
G0 F9000 X57.248 Y81.855
;TYPE:SKIN
G1 F900 X57.058 Y81.382 E38.14072
G1 X57.058 Y80.816 E38.20508
G1 X57.058 Y80.251 E38.26949
G1 X57.057 Y79.684 E38.33396
G1 X57.057 Y79.119 E38.39837
G1 X57.057 Y78.553 E38.46289
G1 X57.057 Y77.987 E38.52741
G1 X57.057 Y77.421 E38.59194
G1 X57.057 Y76.856 E38.65652
G1 X57.057 Y76.290 E38.72104
G1 X56.866 Y75.817 E38.78225
G0 F9000 X56.968 Y75.817
G0 X57.106 Y82.258
G0 X59.825 Y82.258
G0 X59.784 Y75.806
G0 X59.684 Y75.806
G1 F900 X59.885 Y76.289 E38.85037
G1 X59.885 Y76.855 E38.91863
G1 X59.885 Y77.421 E38.98672
G1 X59.884 Y77.986 E39.05469
G1 X59.884 Y78.552 E39.12261
G1 X59.884 Y79.118 E39.19053
G1 X60.085 Y79.601 E39.25331
G0 F9000 X59.984 Y79.601
G0 X59.933 Y75.519
G0 X60.273 Y75.263
G1 F900 X59.624 Y74.615 E39.36336
G0 F9000 X59.684 Y74.109
G1 F900 X60.517 Y74.942 E39.50473
G0 F9000 X60.517 Y74.376
G1 F900 X60.435 Y74.294 E39.51864
G0 F9000 X59.626 Y75.182
G1 F900 X59.981 Y75.538 E39.57897
G0 F9000 X59.784 Y79.765
G0 X59.684 Y79.765
G1 F900 X59.884 Y80.248 E39.64688
G1 X59.884 Y80.814 E39.71480
G1 X59.884 Y81.380 E39.78272
G1 X60.084 Y81.863 E39.84545
G0 F9000 X59.983 Y81.863
G0 X59.941 Y87.985
G0 X60.181 Y88.183
G1 F900 X60.542 Y88.260 E39.87170
G1 X60.903 Y88.338 E39.91602
G0 F9000 X59.771 Y88.338
G1 F900 X57.209 Y85.776 E40.35080
G0 F9000 X57.209 Y86.342
G1 F900 X59.206 Y88.338 E40.68962
G0 F9000 X58.640 Y88.338
G1 F900 X57.209 Y86.908 E40.93238
G0 F9000 X57.209 Y87.474
G1 F900 X58.074 Y88.338 E41.07909
G0 F9000 X57.508 Y88.338
G1 F900 X57.076 Y88.188 E41.12972
G1 X56.582 Y88.260 E41.15593
G1 X56.016 Y88.260 E41.18208
G1 X55.672 Y88.199 E41.22400
G0 F9000 X57.011 Y87.985
G0 X57.209 Y85.210
G1 F900 X59.742 Y87.743 E41.65386
G0 F9000 X59.742 Y87.177
G1 F900 X57.209 Y84.644 E42.08373
G0 F9000 X57.208 Y84.078
G1 F900 X59.742 Y86.612 E42.51376
G0 F9000 X59.742 Y86.046
G1 F900 X57.208 Y83.512 E42.94380
G0 F9000 X57.208 Y82.947
G1 F900 X59.742 Y85.480 E43.37375
G0 F9000 X59.742 Y84.915
G1 F900 X57.283 Y82.456 E43.79105
G0 F9000 X56.963 Y82.136
G1 F900 X56.868 Y82.041 E43.80717
G0 F9000 X57.849 Y82.456
G1 F900 X59.742 Y84.349 E44.12843
G0 F9000 X59.742 Y83.783
G1 F900 X58.414 Y82.456 E44.35371
G0 F9000 X58.980 Y82.456
G1 F900 X59.742 Y83.217 E44.48294
G0 F9000 X59.742 Y82.652
G1 F900 X59.668 Y82.296 E44.51621
G1 X59.684 Y82.028 E44.54843
;LAYER:1
M106 S255
G0 F9000 X59.784 Y82.028 Z0.500
G0 X60.025 Y74.829
;TYPE:FILL
G1 F2100 X60.577 Y74.278 E44.61082
G0 F9000 X59.881 Y74.361
G0 X59.825 Y82.258
G0 X57.107 Y82.258
G0 X56.907 Y74.717
G1 F2100 X56.367 Y75.258 E44.67197
G0 F9000 X56.834 Y75.490
;TYPE:WALL-INNER
G1 F1800 X56.134 Y75.355 E44.72901
G1 X56.103 Y75.342 E44.73170
G1 X56.091 Y75.333 E44.73290
G1 X56.090 Y74.192 E44.82418
G1 X56.202 Y74.152 E44.83369
G1 X56.778 Y74.136 E44.87979
G1 X57.048 Y74.136 E44.90139
G1 X57.049 Y81.129 E45.46083
G1 X57.047 Y82.317 E45.55587
G1 X59.884 Y82.317 E45.78283
G1 X59.885 Y74.136 E46.43731
G1 X60.557 Y74.136 E46.49107
G1 X60.798 Y74.163 E46.51047
G1 X60.864 Y74.193 E46.51627
G1 X60.863 Y74.308 E46.52547
G1 X60.864 Y75.335 E46.60763
G1 X60.812 Y75.359 E46.61221
G1 X60.121 Y75.455 E46.66802
G1 X60.117 Y82.808 E47.25626
G1 X60.119 Y84.388 E47.38266
G1 X60.115 Y88.044 E47.67514
G1 X61.400 Y88.044 E47.77794
G1 X61.401 Y88.480 E47.81282
G1 X55.343 Y88.480 E48.29746
G1 X55.343 Y88.044 E48.33234
G1 X56.837 Y88.044 E48.45186
G1 X56.837 Y78.171 E49.24170
G1 X56.834 Y76.675 E49.36138
G1 X56.834 Y75.490 E49.45618
G0 F9000 X56.434 Y75.820
;TYPE:WALL-OUTER
G1 F1320 X56.018 Y75.740 E49.49007
G1 X55.906 Y75.695 E49.49973
G1 X55.788 Y75.606 E49.51155
G1 X55.704 Y75.484 E49.52340
G1 X55.690 Y75.429 E49.52794
G1 X55.691 Y75.231 E49.54378
G1 X55.690 Y74.131 E49.63178
G1 X55.717 Y74.013 E49.64147
G1 X55.751 Y73.955 E49.64684
G1 X55.823 Y73.884 E49.65493
G1 X55.901 Y73.836 E49.66226
G1 X56.064 Y73.774 E49.67621
G1 X56.153 Y73.753 E49.68353
G1 X56.767 Y73.736 E49.73267
G1 X57.448 Y73.736 E49.78715
G1 X57.448 Y81.917 E50.44163
G1 X59.484 Y81.917 E50.60451
G1 X59.484 Y73.736 E51.25899
G1 X60.573 Y73.736 E51.34611
G1 X60.837 Y73.761 E51.36732
G1 X60.927 Y73.783 E51.37473
G1 X61.082 Y73.854 E51.38837
G1 X61.201 Y73.951 E51.40065
G1 X61.239 Y74.015 E51.40661
G1 X61.264 Y74.119 E51.41517
G1 X61.263 Y74.309 E51.43037
G1 X61.264 Y75.418 E51.51909
G1 X61.261 Y75.449 E51.52158
G1 X61.244 Y75.505 E51.52626
G1 X61.204 Y75.571 E51.53243
G1 X61.142 Y75.633 E51.53945
G1 X61.027 Y75.704 E51.55026
G1 X60.940 Y75.739 E51.55776
G1 X60.783 Y75.776 E51.57067
G1 X60.520 Y75.808 E51.59186
G1 X60.516 Y87.644 E52.53874
G1 X61.800 Y87.644 E52.64146
G1 X61.801 Y88.880 E52.74034
G1 X54.943 Y88.880 E53.28898
G1 X54.944 Y87.644 E53.38786
G1 X56.437 Y87.644 E53.50730
G1 X56.434 Y75.820 E54.45322
G0 F9000 X56.755 Y75.332
;TYPE:SKIN
G1 F900 X56.907 Y75.179 E54.47048
G0 F9000 X56.907 Y74.613
G1 F900 X56.280 Y75.241 E54.54147
G0 F9000 X56.230 Y74.725
G1 F900 X56.678 Y74.278 E54.59210
G0 F9000 X57.107 Y82.258
G0 X59.825 Y82.258
G0 X60.025 Y74.890
G1 F900 X60.632 Y74.283 E54.66077
G0 F9000 X60.723 Y74.758
G1 F900 X60.175 Y75.306 E54.72277
G0 F9000 X59.813 Y82.456
G1 F900 X56.977 Y85.292 E55.04363
G0 F9000 X56.977 Y85.858
G1 F900 X59.976 Y82.858 E55.38298
G0 F9000 X59.976 Y83.424
G1 F900 X56.977 Y86.424 E55.72234
G0 F9000 X56.977 Y86.989
G1 F900 X59.976 Y83.990 E56.06164
G0 F9000 X59.976 Y84.556
G1 F900 X56.977 Y87.555 E56.40093
G0 F9000 X56.977 Y88.121
G1 F900 X59.976 Y85.122 E56.74023
G0 F9000 X59.976 Y85.687
G1 F900 X57.324 Y88.339 E57.04027
G0 F9000 X56.915 Y88.183
G1 F900 X56.553 Y88.261 E57.05790
G1 X55.988 Y88.261 E57.07541
G1 X55.627 Y88.339 E57.10496
G0 F9000 X57.890 Y88.339
G1 F900 X59.976 Y86.253 E57.34096
G0 F9000 X59.975 Y86.819
G1 F900 X58.455 Y88.339 E57.51293
G0 F9000 X59.021 Y88.339
G1 F900 X59.975 Y87.385 E57.62086
G0 F9000 X59.975 Y87.951
G1 F900 X59.587 Y88.339 E57.66476
G0 F9000 X56.977 Y84.726
G1 F900 X59.247 Y82.456 E57.92158
G0 F9000 X58.682 Y82.456
G1 F900 X56.977 Y84.161 E58.11448
G0 F9000 X56.977 Y83.595
G1 F900 X58.116 Y82.456 E58.24334
G0 F9000 X57.550 Y82.456
G1 F900 X56.977 Y83.029 E58.30817
G0 F9000 X60.309 Y88.183
G1 F900 X60.435 Y88.339 E58.32590
G1 X60.874 Y88.183 E58.36317
;LAYER:2
G0 F9000 X60.311 Y88.044 Z0.700
;TYPE:WALL-INNER
G1 F2400 X61.596 Y88.044 E58.46597
G1 X61.596 Y88.480 E58.50085
G1 X55.207 Y88.480 E59.01197
G1 X55.208 Y88.044 E59.04685
G1 X56.642 Y88.044 E59.16157
G1 X56.640 Y84.533 E59.44245
G1 X56.642 Y78.172 E59.95133
G1 X56.638 Y75.457 E60.16853
G1 X56.014 Y75.381 E60.21882
G1 X55.914 Y75.350 E60.22720
G1 X55.913 Y74.177 E60.32104
G1 X55.982 Y74.152 E60.32691
G1 X56.551 Y74.136 E60.37244
G1 X57.048 Y74.136 E60.41220
G1 X57.048 Y82.317 E61.06668
G1 X59.884 Y82.317 E61.29356
G1 X59.884 Y74.136 E61.94804
G1 X60.396 Y74.136 E61.98900
G1 X60.898 Y74.143 E62.02917
G1 X61.012 Y74.166 E62.03847
G1 X61.040 Y74.180 E62.04098
G1 X61.041 Y75.350 E62.13458
G1 X61.012 Y75.364 E62.13715
G1 X60.946 Y75.381 E62.14261
G1 X60.314 Y75.457 E62.19353
G1 X60.311 Y88.044 E63.20049
G0 F9000 X60.711 Y87.644
;TYPE:WALL-OUTER
G1 F1500 X61.996 Y87.644 E63.30329
G1 X61.996 Y88.880 E63.40217
G1 X54.807 Y88.880 E63.97729
G1 X54.808 Y87.644 E64.07617
G1 X56.242 Y87.644 E64.19089
G1 X56.239 Y75.812 E65.13745
G1 X55.938 Y75.775 E65.16171
G1 X55.792 Y75.734 E65.17384
G1 X55.707 Y75.695 E65.18132
G1 X55.628 Y75.639 E65.18907
G1 X55.574 Y75.580 E65.19547
G1 X55.536 Y75.512 E65.20170
G1 X55.513 Y75.418 E65.20944
G1 X55.514 Y75.297 E65.21912
G1 X55.513 Y74.132 E65.31232
G1 X55.540 Y74.005 E65.32271
G1 X55.571 Y73.948 E65.32790
G1 X55.633 Y73.882 E65.33515
G1 X55.708 Y73.831 E65.34240
G1 X55.815 Y73.782 E65.35182
G1 X55.923 Y73.753 E65.36076
G1 X56.540 Y73.736 E65.41014
G1 X57.448 Y73.736 E65.48278
G1 X57.448 Y81.917 E66.13726
G1 X59.484 Y81.917 E66.30014
G1 X59.484 Y73.736 E66.95462
G1 X60.402 Y73.736 E67.02806
G1 X60.940 Y73.744 E67.07111
G1 X61.144 Y73.785 E67.08775
G1 X61.274 Y73.849 E67.09934
G1 X61.332 Y73.890 E67.10503
G1 X61.382 Y73.947 E67.11109
G1 X61.417 Y74.011 E67.11693
G1 X61.441 Y74.115 E67.12547
G1 X61.440 Y74.243 E67.13571
G1 X61.441 Y75.398 E67.22811
G1 X61.417 Y75.517 E67.23782
G1 X61.383 Y75.577 E67.24334
G1 X61.323 Y75.641 E67.25035
G1 X61.245 Y75.696 E67.25799
G1 X61.145 Y75.742 E67.26679
G1 X61.019 Y75.775 E67.27721
G1 X60.714 Y75.812 E67.30179
G1 X60.711 Y87.644 E68.24835
G0 F9000 X60.747 Y88.183
;TYPE:SKIN
G1 F900 X61.108 Y88.260 E68.26585
G1 X61.456 Y88.326 E68.29419
G0 F9000 X60.337 Y88.338
G1 F900 X60.181 Y88.183 E68.31178
G0 F9000 X60.171 Y88.172
G1 F900 X56.780 Y84.782 E68.69537
G0 F9000 X56.780 Y85.347
G1 F900 X59.771 Y88.338 E69.03376
G0 F9000 X59.206 Y88.338
G1 F900 X56.780 Y85.913 E69.30818
G0 F9000 X56.781 Y86.479
G1 F900 X58.640 Y88.338 E69.51850
G0 F9000 X58.074 Y88.338
G1 F900 X56.781 Y87.045 E69.66479
G0 F9000 X56.781 Y87.611
G1 F900 X57.508 Y88.338 E69.74704
G0 F9000 X56.943 Y88.338
G1 F900 X56.579 Y88.257 E69.76538
G1 X56.016 Y88.260 E69.78284
G1 X55.656 Y88.183 E69.81229
G0 F9000 X56.583 Y87.985
G0 X56.780 Y84.216
G1 F900 X60.171 Y87.606 E70.19588
G0 F9000 X60.171 Y87.041
G1 F900 X56.779 Y83.650 E70.57958
G0 F9000 X56.779 Y83.084
G1 F900 X60.171 Y86.475 E70.96329
G0 F9000 X60.171 Y85.909
G1 F900 X56.779 Y82.518 E71.34699
G0 F9000 X56.907 Y82.080
G1 F900 X56.843 Y81.733 E71.36146
G1 X56.843 Y81.167 E71.37584
G1 X56.843 Y80.601 E71.39021
G1 X56.779 Y80.255 E71.41836
G0 F9000 X57.283 Y82.456
G1 F900 X60.171 Y85.344 E71.74510
G0 F9000 X60.171 Y84.779
G1 F900 X57.849 Y82.456 E72.00786
G0 F9000 X58.414 Y82.456
G1 F900 X60.171 Y84.213 E72.20664
G0 F9000 X60.171 Y83.647
G1 F900 X58.980 Y82.456 E72.34139
G0 F9000 X59.546 Y82.456
G1 F900 X60.171 Y83.082 E72.41216
G0 F9000 X60.172 Y82.517
G1 F900 X60.098 Y82.159 E72.42897
G1 X60.098 Y81.594 E72.44558
G1 X60.098 Y81.028 E72.46223
G1 X60.098 Y80.463 E72.47895
G1 X60.098 Y79.897 E72.49570
G1 X60.098 Y79.331 E72.51246
G1 X60.098 Y78.766 E72.52918
G1 X60.098 Y78.200 E72.54605
G1 X60.099 Y77.635 E72.56277
G1 X60.099 Y77.069 E72.57964
G1 X60.099 Y76.503 E72.59650
G1 X60.099 Y75.938 E72.61345
G1 X60.173 Y75.447 E72.63034
