;FLAVOR:UltiGCode
;TIME:2867
;MATERIAL:4591
;MATERIAL2:0

;Layer count: 10
;LAYER:0
M107
G0 F9000 X97.970 Y11.328 Z0.300
;TYPE:SKIRT
G1 F1200 X98.068 Y10.758 E0.06940
G1 X98.229 Y10.194 E0.13979
G1 X98.452 Y9.644 E0.21101
G1 X98.773 Y9.053 E0.29171
G1 X99.385 Y8.255 E0.41239
G1 X99.882 Y7.795 E0.49366
G1 X100.414 Y7.395 E0.57353
G1 X101.300 Y6.930 E0.69360
G1 X102.024 Y6.690 E0.78513
G1 X103.100 Y6.518 E0.91589
G1 X104.188 Y6.582 E1.04667
G1 X104.931 Y6.749 E1.13806
G1 X105.938 Y7.154 E1.26831
G1 X106.844 Y7.769 E1.39971
G1 X107.393 Y8.296 E1.49103
G1 X107.994 Y9.086 E1.61014
G1 X108.343 Y9.745 E1.69963
G1 X108.607 Y10.502 E1.79583
G1 X108.690 Y10.832 E1.83667
G1 X108.794 Y11.453 E1.91223
G1 X108.808 Y18.200 E2.72187
G1 X108.808 Y34.040 E4.62267
G1 X110.884 Y34.047 E4.87179
G1 X117.963 Y34.047 E5.72127
G1 X117.971 Y30.925 E6.09591
G1 X117.971 Y20.001 E7.40679
G1 X118.006 Y19.390 E7.48023
G1 X118.197 Y18.435 E7.59710
G1 X118.476 Y17.661 E7.69583
G1 X118.809 Y17.008 E7.78379
G1 X119.304 Y16.312 E7.88628
G1 X119.527 Y16.039 E7.92858
G1 X119.971 Y15.595 E8.00393
G1 X120.514 Y15.158 E8.08757
G1 X121.355 Y14.657 E8.20504
G1 X122.117 Y14.348 E8.30371
G1 X122.762 Y14.175 E8.38385
G1 X123.440 Y14.069 E8.46620
G1 X124.527 Y14.047 E8.59666
G1 X126.109 Y14.047 E8.78650
G1 X126.720 Y14.082 E8.85994
G1 X127.675 Y14.273 E8.97681
G1 X128.449 Y14.552 E9.07554
G1 X129.102 Y14.885 E9.16350
G1 X129.798 Y15.380 E9.26599
G1 X130.071 Y15.603 E9.30829
G1 X130.515 Y16.047 E9.38364
G1 X130.952 Y16.590 E9.46728
G1 X131.453 Y17.433 E9.58496
G1 X131.763 Y18.195 E9.68368
G1 X131.935 Y18.839 E9.76366
G1 X132.038 Y19.497 E9.84359
G1 X132.063 Y20.265 E9.93580
G1 X132.063 Y21.063 E10.03156
G1 X132.008 Y21.675 E10.10529
G1 X131.811 Y22.420 E10.19776
G1 X131.477 Y23.120 E10.29084
G1 X131.046 Y23.726 E10.38007
G1 X130.518 Y24.255 E10.46976
G1 X129.893 Y24.693 E10.56135
G1 X129.198 Y25.016 E10.65331
G1 X128.448 Y25.214 E10.74640
G1 X127.693 Y25.271 E10.83725
G1 X126.974 Y25.206 E10.92389
G1 X125.936 Y24.949 E11.05221
G1 X125.936 Y35.054 E12.26481
G1 X125.900 Y35.706 E12.34317
G1 X125.785 Y36.431 E12.43125
G1 X125.577 Y37.209 E12.52789
G1 X125.116 Y38.274 E12.66715
G1 X124.615 Y39.084 E12.78144
G1 X124.127 Y39.684 E12.87425
G1 X123.608 Y40.203 E12.96233
G1 X123.034 Y40.670 E13.05112
G1 X122.410 Y41.074 E13.14033
G1 X121.756 Y41.405 E13.22829
G1 X121.070 Y41.670 E13.31654
G1 X120.355 Y41.861 E13.40534
G1 X119.553 Y41.988 E13.50278
G1 X115.917 Y42.012 E13.93911
G1 X107.803 Y42.012 E14.91279
G1 X107.150 Y41.976 E14.99127
G1 X106.424 Y41.861 E15.07948
G1 X105.645 Y41.653 E15.17623
G1 X104.583 Y41.192 E15.31516
G1 X103.773 Y40.692 E15.42939
G1 X103.171 Y40.203 E15.52246
G1 X102.650 Y39.682 E15.61088
G1 X102.187 Y39.110 E15.69918
G1 X101.783 Y38.489 E15.78809
G1 X101.448 Y37.828 E15.87701
G1 X101.185 Y37.142 E15.96517
G1 X100.996 Y36.435 E16.05299
G1 X100.866 Y35.628 E16.15108
G1 X100.842 Y28.158 E17.04749
G1 X100.837 Y24.467 E17.49041
G1 X100.834 Y16.785 E18.41225
G1 X100.762 Y16.755 E18.42161
G1 X99.866 Y16.133 E18.55249
G1 X99.384 Y15.664 E18.63320
G1 X99.010 Y15.216 E18.70323
G1 X98.635 Y14.652 E18.78450
G1 X98.226 Y13.740 E18.90444
G1 X98.050 Y13.093 E18.98491
G1 X97.960 Y12.514 E19.05522
G1 X97.931 Y11.922 E19.12634
G1 X97.970 Y11.328 E19.19778
G10
G0 F9000 X101.737 Y11.958
;TYPE:WALL-INNER
G11
G1 F1200 X101.749 Y11.772 E19.22014
G1 X101.826 Y11.435 E19.26163
G1 X101.969 Y11.130 E19.30205
G1 X102.203 Y10.825 E19.34818
G1 X102.322 Y10.715 E19.36763
G1 X102.451 Y10.617 E19.38707
G1 X102.793 Y10.438 E19.43339
G1 X102.928 Y10.393 E19.45047
G1 X103.289 Y10.336 E19.49432
G1 X103.661 Y10.357 E19.53903
G1 X103.793 Y10.387 E19.55528
G1 X104.143 Y10.528 E19.60056
G1 X104.444 Y10.732 E19.64419
G1 X104.546 Y10.830 E19.66116
G1 X104.783 Y11.142 E19.70818
G1 X104.848 Y11.266 E19.72498
G1 X104.966 Y11.605 E19.76806
G1 X104.995 Y11.777 E19.78899
G1 X105.008 Y18.203 E20.56011
G1 X105.008 Y34.981 E22.57347
G1 X105.022 Y35.267 E22.60783
G1 X105.069 Y35.564 E22.64391
G1 X105.147 Y35.857 E22.68030
G1 X105.400 Y36.422 E22.75459
G1 X105.736 Y36.884 E22.82314
G1 X105.962 Y37.109 E22.86141
G1 X106.207 Y37.308 E22.89928
G1 X106.702 Y37.594 E22.96788
G1 X106.999 Y37.708 E23.00606
G1 X107.289 Y37.785 E23.04206
G1 X107.602 Y37.836 E23.08012
G1 X110.872 Y37.847 E23.47252
G1 X118.904 Y37.847 E24.43636
G1 X119.191 Y37.834 E24.47084
G1 X119.490 Y37.785 E24.50720
G1 X119.781 Y37.708 E24.54332
G1 X120.077 Y37.594 E24.58138
G1 X120.586 Y37.300 E24.65192
G1 X121.034 Y36.897 E24.72423
G1 X121.379 Y36.422 E24.79468
G1 X121.632 Y35.857 E24.86896
G1 X121.710 Y35.564 E24.90535
G1 X121.760 Y35.260 E24.94232
G1 X121.771 Y30.934 E25.46144
G1 X121.771 Y20.110 E26.76032
G1 X121.785 Y19.870 E26.78917
G1 X121.867 Y19.459 E26.83946
G1 X121.968 Y19.178 E26.87529
G1 X122.068 Y18.983 E26.90159
G1 X122.349 Y18.591 E26.95947
G1 X122.511 Y18.429 E26.98696
G1 X122.687 Y18.287 E27.01410
G1 X123.053 Y18.069 E27.06522
G1 X123.328 Y17.958 E27.10080
G1 X123.772 Y17.863 E27.15529
G1 X124.571 Y17.847 E27.25119
G1 X126.000 Y17.847 E27.42267
G1 X126.240 Y17.861 E27.45152
G1 X126.651 Y17.943 E27.50181
G1 X126.932 Y18.044 E27.53764
G1 X127.127 Y18.144 E27.56394
G1 X127.519 Y18.425 E27.62182
G1 X127.681 Y18.587 E27.64931
G1 X127.822 Y18.762 E27.67628
G1 X128.041 Y19.129 E27.72756
G1 X128.152 Y19.405 E27.76326
G1 X128.247 Y19.849 E27.81775
G1 X128.263 Y20.887 E27.94232
G1 X128.251 Y21.018 E27.95811
G1 X128.228 Y21.104 E27.96879
G1 X128.189 Y21.188 E27.97990
G1 X128.133 Y21.266 E27.99143
G1 X128.064 Y21.335 E28.00314
G1 X127.989 Y21.387 E28.01409
G1 X127.891 Y21.431 E28.02698
G1 X127.898 Y20.077 E28.18946
G1 X127.884 Y19.849 E28.21687
G1 X127.832 Y19.586 E28.24904
G1 X127.659 Y19.168 E28.30333
G1 X127.512 Y18.948 E28.33508
G1 X127.349 Y18.761 E28.36485
G1 X127.162 Y18.598 E28.39462
G1 X126.958 Y18.462 E28.42404
G1 X126.737 Y18.354 E28.45356
G1 X126.506 Y18.274 E28.48289
G1 X126.248 Y18.223 E28.51445
G1 X125.479 Y18.212 E28.60674
G1 X123.999 Y18.212 E28.78434
G1 X123.772 Y18.226 E28.81163
G1 X123.509 Y18.278 E28.84380
G1 X123.091 Y18.451 E28.89809
G1 X122.871 Y18.598 E28.92984
G1 X122.683 Y18.762 E28.95978
G1 X122.521 Y18.949 E28.98947
G1 X122.386 Y19.152 E29.01872
G1 X122.278 Y19.373 E29.04824
G1 X122.198 Y19.604 E29.07757
G1 X122.146 Y19.866 E29.10963
G1 X122.136 Y24.125 E29.62071
G1 X122.136 Y34.951 E30.91983
G1 X122.117 Y35.299 E30.96165
G1 X122.063 Y35.640 E31.00308
G1 X121.978 Y35.956 E31.04235
G1 X121.738 Y36.511 E31.11491
G1 X121.511 Y36.877 E31.16659
G1 X121.298 Y37.140 E31.20720
G1 X121.064 Y37.374 E31.24691
G1 X120.798 Y37.590 E31.28803
G1 X120.508 Y37.778 E31.32951
G1 X120.213 Y37.927 E31.36917
G1 X119.892 Y38.051 E31.41046
G1 X119.564 Y38.139 E31.45121
G1 X119.239 Y38.190 E31.49069
G1 X115.903 Y38.212 E31.89102
G1 X107.905 Y38.212 E32.85078
G1 X107.556 Y38.193 E32.89272
G1 X107.215 Y38.139 E32.93415
G1 X106.896 Y38.053 E32.97380
G1 X106.350 Y37.817 E33.04517
G1 X105.976 Y37.585 E33.09799
G1 X105.715 Y37.374 E33.13826
G1 X105.482 Y37.141 E33.17780
G1 X105.264 Y36.871 E33.21945
G1 X105.078 Y36.586 E33.26029
G1 X104.927 Y36.287 E33.30048
G1 X104.806 Y35.972 E33.34097
G1 X104.665 Y35.321 E33.42091
G1 X104.642 Y28.149 E34.28155
G1 X104.632 Y13.362 E36.05599
G1 X103.864 Y13.535 E36.15046
G1 X103.841 Y13.537 E36.15323
G1 X103.442 Y13.599 E36.20168
G1 X103.268 Y13.597 E36.22257
G1 X103.087 Y13.575 E36.24445
G1 X102.933 Y13.539 E36.26342
G1 X102.590 Y13.398 E36.30793
G1 X102.288 Y13.188 E36.35207
G1 X102.062 Y12.942 E36.39215
G1 X101.972 Y12.807 E36.41162
G1 X101.815 Y12.457 E36.45766
G1 X101.773 Y12.304 E36.47669
G1 X101.745 Y12.124 E36.49855
G1 X101.737 Y11.958 E36.51850
G0 F9000 X101.337 Y11.951
;TYPE:WALL-OUTER
G1 F1200 X101.352 Y11.724 E36.54580
G1 X101.389 Y11.512 E36.57162
G1 X101.448 Y11.301 E36.59791
G1 X101.529 Y11.102 E36.62369
G1 X101.632 Y10.913 E36.64952
G1 X101.908 Y10.553 E36.70396
G1 X102.236 Y10.278 E36.75532
G1 X102.633 Y10.070 E36.80911
G1 X102.836 Y10.003 E36.83476
G1 X103.267 Y9.934 E36.88714
G1 X103.716 Y9.960 E36.94111
G1 X103.913 Y10.005 E36.96536
G1 X104.334 Y10.174 E37.01979
G1 X104.697 Y10.420 E37.07241
G1 X104.846 Y10.564 E37.09728
G1 X105.118 Y10.921 E37.15114
G1 X105.218 Y11.111 E37.17690
G1 X105.361 Y11.536 E37.23071
G1 X105.395 Y11.739 E37.25541
G1 X105.408 Y34.971 E40.04325
G1 X105.421 Y35.226 E40.07389
G1 X105.461 Y35.481 E40.10487
G1 X105.528 Y35.734 E40.13627
G1 X105.621 Y35.976 E40.16738
G1 X105.742 Y36.212 E40.19921
G1 X106.041 Y36.623 E40.26020
G1 X106.434 Y36.977 E40.32367
G1 X106.875 Y37.232 E40.38480
G1 X107.122 Y37.327 E40.41656
G1 X107.373 Y37.394 E40.44773
G1 X107.635 Y37.436 E40.47957
G1 X118.894 Y37.447 E41.83065
G1 X119.150 Y37.435 E41.86141
G1 X119.406 Y37.394 E41.89252
G1 X119.658 Y37.327 E41.92381
G1 X119.904 Y37.232 E41.95545
G1 X120.349 Y36.975 E42.01712
G1 X120.735 Y36.628 E42.07940
G1 X121.037 Y36.212 E42.14109
G1 X121.158 Y35.976 E42.17292
G1 X121.251 Y35.734 E42.20403
G1 X121.318 Y35.481 E42.23543
G1 X121.360 Y35.223 E42.26680
G1 X121.371 Y20.104 E44.08108
G1 X121.387 Y19.819 E44.11534
G1 X121.481 Y19.350 E44.17274
G1 X121.602 Y19.016 E44.21537
G1 X121.724 Y18.776 E44.24767
G1 X122.058 Y18.316 E44.31589
G1 X122.239 Y18.135 E44.34661
G1 X122.463 Y17.955 E44.38109
G1 X122.875 Y17.709 E44.43867
G1 X123.200 Y17.577 E44.48077
G1 X123.462 Y17.507 E44.51331
G1 X123.740 Y17.464 E44.54706
G1 X124.563 Y17.447 E44.64585
G1 X126.006 Y17.447 E44.81901
G1 X126.291 Y17.463 E44.85326
G1 X126.760 Y17.557 E44.91066
G1 X127.094 Y17.678 E44.95329
G1 X127.334 Y17.800 E44.98560
G1 X127.794 Y18.134 E45.05381
G1 X127.975 Y18.315 E45.08453
G1 X128.155 Y18.539 E45.11901
G1 X128.401 Y18.951 E45.17659
G1 X128.533 Y19.277 E45.21880
G1 X128.603 Y19.539 E45.25134
G1 X128.646 Y19.818 E45.28522
G1 X128.663 Y20.912 E45.41651
G1 X128.647 Y21.085 E45.43736
G1 X128.606 Y21.244 E45.45707
G1 X128.537 Y21.387 E45.47612
G1 X128.437 Y21.528 E45.49686
G1 X128.327 Y21.638 E45.51553
G1 X128.184 Y21.738 E45.53647
G1 X128.039 Y21.805 E45.55564
G1 X127.880 Y21.847 E45.57537
G1 X127.719 Y21.860 E45.59475
G1 X127.489 Y21.831 E45.62257
G1 X127.498 Y20.088 E45.83174
G1 X127.487 Y19.900 E45.85433
G1 X127.447 Y19.703 E45.87846
G1 X127.304 Y19.357 E45.92338
G1 X127.193 Y19.191 E45.94735
G1 X127.066 Y19.044 E45.97066
G1 X126.919 Y18.917 E45.99397
G1 X126.758 Y18.809 E46.01723
G1 X126.584 Y18.724 E46.04047
G1 X126.401 Y18.661 E46.06370
G1 X126.205 Y18.622 E46.08768
G1 X125.476 Y18.612 E46.17517
G1 X124.011 Y18.612 E46.35097
G1 X123.823 Y18.623 E46.37356
G1 X123.626 Y18.663 E46.39769
G1 X123.280 Y18.806 E46.44261
G1 X122.967 Y19.045 E46.48987
G1 X122.840 Y19.192 E46.51318
G1 X122.733 Y19.352 E46.53628
G1 X122.648 Y19.526 E46.55952
G1 X122.585 Y19.709 E46.58274
G1 X122.546 Y19.906 E46.60684
G1 X122.536 Y34.955 E48.41272
G1 X122.515 Y35.345 E48.45959
G1 X122.454 Y35.728 E48.50613
G1 X122.358 Y36.085 E48.55049
G1 X122.093 Y36.698 E48.63063
G1 X121.838 Y37.110 E48.68877
G1 X121.596 Y37.408 E48.73484
G1 X121.332 Y37.672 E48.77964
G1 X121.036 Y37.912 E48.82537
G1 X120.706 Y38.126 E48.87257
G1 X120.381 Y38.291 E48.91631
G1 X120.010 Y38.434 E48.96402
G1 X119.652 Y38.530 E49.00850
G1 X119.272 Y38.590 E49.05466
G1 X115.906 Y38.612 E49.45859
G1 X107.901 Y38.612 E50.41919
G1 X107.510 Y38.591 E50.46618
G1 X107.127 Y38.530 E50.51272
G1 X106.767 Y38.433 E50.55746
G1 X106.161 Y38.171 E50.63668
G1 X105.745 Y37.913 E50.69543
G1 X105.447 Y37.672 E50.74142
G1 X105.188 Y37.413 E50.78537
G1 X104.940 Y37.106 E50.83273
G1 X104.727 Y36.779 E50.87956
G1 X104.564 Y36.456 E50.92298
G1 X104.422 Y36.087 E50.97042
G1 X104.324 Y35.720 E51.01600
G1 X104.265 Y35.354 E51.06049
G1 X104.232 Y13.862 E53.63953
G1 X103.921 Y13.932 E53.67779
G1 X103.898 Y13.934 E53.68056
G1 X103.747 Y13.966 E53.69908
G1 X103.731 Y13.967 E53.70100
G1 X103.677 Y13.978 E53.70762
G1 X103.458 Y14.000 E53.73403
G1 X103.242 Y13.996 E53.75995
G1 X103.016 Y13.969 E53.78727
G1 X102.809 Y13.921 E53.81277
G1 X102.398 Y13.752 E53.86609
G1 X102.033 Y13.498 E53.91945
G1 X101.886 Y13.356 E53.94398
G1 X101.741 Y13.182 E53.97116
G1 X101.619 Y12.998 E53.99765
G1 X101.437 Y12.593 E54.05093
G1 X101.382 Y12.390 E54.07617
G1 X101.347 Y12.166 E54.10338
G1 X101.337 Y11.951 E54.12921
G0 F9000 X101.911 Y11.684
;TYPE:SKIN
G1 F900 X103.651 Y13.424 E54.42449
G0 F9000 X104.125 Y13.332
G1 F900 X102.058 Y11.266 E54.77519
G0 F9000 X102.293 Y10.935
G1 F900 X104.586 Y13.227 E55.16424
G0 F9000 X104.855 Y12.931
G1 F900 X102.613 Y10.690 E55.54464
G0 F9000 X103.012 Y10.522
G1 F900 X104.855 Y12.365 E55.85740
G0 F9000 X104.855 Y11.800
G1 F900 X103.546 Y10.491 E56.07955
G0 F9000 X101.904 Y12.243
G1 F900 X103.093 Y13.432 E56.28133
;LAYER:1
M106 S255
G0 F9000 X102.888 Y13.700 Z0.500
;TYPE:WALL-INNER
G1 F1800 X102.504 Y13.542 E56.31455
G1 X102.190 Y13.325 E56.34508
G1 X101.922 Y13.034 E56.37673
G1 X101.831 Y12.896 E56.38996
G1 X101.660 Y12.517 E56.42322
G1 X101.579 Y12.142 E56.45391
G1 X101.571 Y11.954 E56.46896
G1 X101.583 Y11.762 E56.48435
G1 X101.665 Y11.396 E56.51436
G1 X101.841 Y11.021 E56.54750
G1 X101.996 Y10.809 E56.56851
G1 X102.113 Y10.682 E56.58232
G1 X102.379 Y10.464 E56.60984
G1 X102.531 Y10.373 E56.62401
G1 X102.702 Y10.295 E56.63905
G1 X103.103 Y10.186 E56.67229
G1 X103.267 Y10.169 E56.68548
G1 X103.672 Y10.192 E56.71793
G1 X104.040 Y10.296 E56.74853
G1 X104.386 Y10.481 E56.77991
G1 X104.695 Y10.744 E56.81238
G1 X104.803 Y10.872 E56.82577
G1 X104.998 Y11.192 E56.85575
G1 X105.134 Y11.598 E56.89001
G1 X105.161 Y11.766 E56.90362
G1 X105.174 Y34.979 E58.76066
G1 X105.187 Y35.265 E58.78356
G1 X105.302 Y35.807 E58.82789
G1 X105.534 Y36.326 E58.87337
G1 X105.868 Y36.786 E58.91884
G1 X106.290 Y37.166 E58.96427
G1 X106.769 Y37.443 E59.00854
G1 X107.064 Y37.556 E59.03381
G1 X107.603 Y37.672 E59.07792
G1 X111.391 Y37.683 E59.38096
G1 X118.904 Y37.682 E59.98200
G1 X119.189 Y37.669 E60.00482
G1 X119.715 Y37.556 E60.04786
G1 X119.996 Y37.449 E60.07192
G1 X120.249 Y37.319 E60.09468
G1 X120.487 Y37.164 E60.11740
G1 X120.720 Y36.976 E60.14135
G1 X121.090 Y36.565 E60.18559
G1 X121.367 Y36.086 E60.22986
G1 X121.480 Y35.791 E60.25513
G1 X121.596 Y35.253 E60.29916
G1 X121.607 Y30.232 E60.70084
G1 X121.606 Y20.110 E61.51060
G1 X121.620 Y19.858 E61.53079
G1 X121.707 Y19.421 E61.56643
G1 X121.819 Y19.108 E61.59303
G1 X121.929 Y18.891 E61.61249
G1 X122.230 Y18.477 E61.65344
G1 X122.599 Y18.146 E61.69310
G1 X122.815 Y18.005 E61.71373
G1 X123.037 Y17.892 E61.73366
G1 X123.264 Y17.805 E61.75311
G1 X123.689 Y17.709 E61.78797
G1 X126.001 Y17.682 E61.97294
G1 X126.252 Y17.696 E61.99305
G1 X126.689 Y17.783 E62.02870
G1 X127.002 Y17.895 E62.05529
G1 X127.219 Y18.005 E62.07475
G1 X127.633 Y18.306 E62.11570
G1 X127.964 Y18.675 E62.15536
G1 X128.105 Y18.891 E62.17599
G1 X128.214 Y19.106 E62.19528
G1 X128.352 Y19.513 E62.22966
G1 X128.411 Y19.843 E62.25648
G1 X128.427 Y20.373 E62.29890
G1 X128.428 Y20.889 E62.34018
G1 X128.415 Y21.042 E62.35246
G1 X128.383 Y21.162 E62.36240
G1 X128.330 Y21.275 E62.37238
G1 X128.262 Y21.372 E62.38186
G1 X128.169 Y21.464 E62.39232
G1 X128.075 Y21.530 E62.40151
G1 X127.959 Y21.584 E62.41175
G1 X127.842 Y21.614 E62.42141
G1 X127.727 Y21.624 E62.43065
G1 X127.733 Y20.076 E62.55449
G1 X127.719 Y19.850 E62.57260
G1 X127.608 Y19.435 E62.60697
G1 X127.393 Y19.063 E62.64134
G1 X127.232 Y18.878 E62.66096
G1 X127.062 Y18.729 E62.67905
G1 X126.875 Y18.605 E62.69700
G1 X126.657 Y18.497 E62.71646
G1 X126.245 Y18.387 E62.75057
G1 X125.385 Y18.376 E62.81938
G1 X123.998 Y18.377 E62.93034
G1 X123.773 Y18.391 E62.94837
G1 X123.358 Y18.502 E62.98274
G1 X122.986 Y18.717 E63.01711
G1 X122.801 Y18.878 E63.03673
G1 X122.639 Y19.063 E63.05641
G1 X122.425 Y19.436 E63.09081
G1 X122.310 Y19.868 E63.12657
G1 X122.300 Y24.827 E63.52329
G1 X122.301 Y34.951 E64.33321
G1 X122.281 Y35.318 E64.36262
G1 X122.224 Y35.680 E64.39193
G1 X122.133 Y36.017 E64.41986
G1 X122.010 Y36.340 E64.44751
G1 X121.698 Y36.896 E64.49851
G1 X121.421 Y37.250 E64.53447
G1 X121.174 Y37.497 E64.56242
G1 X120.893 Y37.725 E64.59137
G1 X120.596 Y37.918 E64.61970
G1 X120.273 Y38.082 E64.64868
G1 X119.941 Y38.209 E64.67712
