;FLAVOR:UltiGCode
;TIME:4555
;MATERIAL:9118
;MATERIAL2:0

;Layer count: 72
;LAYER:0
M107
G0 F9000 X50.315 Y20.446 Z0.300
;TYPE:SKIRT
G1 F1800 X55.100 Y20.450 E0.57420
G1 X58.823 Y20.368 E1.02107
G1 X58.823 Y20.447 E1.03055
G1 X62.553 Y20.478 E1.47816
G1 X62.553 Y29.707 E2.58564
G1 X63.331 Y29.707 E2.67900
G1 X63.406 Y33.526 E3.13737
G1 X63.384 Y34.340 E3.23509
G1 X63.366 Y35.022 E3.31696
G1 X63.350 Y35.700 E3.39834
G1 X63.335 Y36.381 E3.48008
G1 X63.321 Y37.061 E3.56170
G1 X63.308 Y37.746 E3.64391
G1 X63.297 Y38.289 E3.70908
G1 X63.298 Y38.321 E3.71293
G1 X63.283 Y38.996 E3.79395
G1 X63.284 Y39.042 E3.79947
G1 X63.271 Y39.658 E3.87340
G1 X63.272 Y39.738 E3.88300
G1 X63.259 Y40.333 E3.95442
G1 X63.260 Y40.394 E3.96174
G1 X63.260 Y40.496 E3.97398
G1 X63.214 Y44.415 E4.44430
G1 X62.310 Y44.415 E4.55278
G1 X62.310 Y52.931 E5.57470
G1 X59.307 Y52.944 E5.93506
G1 X59.310 Y52.973 E5.93856
G1 X57.251 Y52.963 E6.18564
G1 X53.924 Y53.064 E6.58506
G1 X53.924 Y52.946 E6.59922
G1 X50.558 Y52.929 E7.00315
G1 X50.558 Y44.415 E8.02483
G1 X49.665 Y44.415 E8.13199
G1 X49.596 Y39.785 E8.68765
G1 X49.597 Y39.785 E8.68777
G1 X49.583 Y39.020 E8.77959
G1 X49.571 Y38.269 E8.86972
G1 X49.572 Y38.269 E8.86984
G1 X49.556 Y37.544 E8.95686
G1 X49.542 Y36.799 E9.04627
G1 X49.526 Y36.067 E9.13414
G1 X49.514 Y35.483 E9.20423
G1 X49.491 Y34.604 E9.30975
G1 X49.469 Y33.832 E9.40242
G1 X49.443 Y29.707 E9.89743
G1 X50.315 Y29.707 E10.00207
G1 X50.315 Y20.446 E11.11339
G0 F9000 X50.715 Y20.846
G1 F1800 X55.109 Y20.850 E11.64067
G1 X58.423 Y20.777 E12.03845
G1 X58.423 Y20.844 E12.04649
G1 X58.482 Y20.844 E12.05357
G1 X62.153 Y20.875 E12.49411
G1 X62.153 Y30.107 E13.60195
G1 X62.939 Y30.107 E13.69627
G1 X63.006 Y33.525 E14.10651
G1 X62.984 Y34.329 E14.20302
G1 X62.966 Y35.012 E14.28501
G1 X62.950 Y35.690 E14.36639
G1 X62.935 Y36.372 E14.44825
G1 X62.921 Y37.053 E14.52999
G1 X62.908 Y37.738 E14.61220
G1 X62.896 Y38.291 E14.67858
G1 X62.898 Y38.325 E14.68267
G1 X62.883 Y38.994 E14.76297
G1 X62.884 Y39.042 E14.76873
G1 X62.870 Y39.665 E14.84351
G1 X62.871 Y39.737 E14.85215
G1 X62.859 Y40.326 E14.92284
G1 X62.860 Y40.396 E14.93124
G1 X62.860 Y40.494 E14.94300
G1 X62.819 Y44.015 E15.36555
G1 X61.910 Y44.015 E15.47463
G1 X61.910 Y52.533 E16.49679
G1 X58.866 Y52.546 E16.86208
G1 X58.868 Y52.571 E16.86509
G1 X57.259 Y52.563 E17.05817
G1 X54.324 Y52.651 E17.41053
G1 X54.324 Y52.548 E17.42289
G1 X50.958 Y52.531 E17.82681
G1 X50.958 Y44.015 E18.84873
G1 X50.059 Y44.015 E18.95661
G1 X49.996 Y39.779 E19.46499
G1 X49.983 Y39.014 E19.55680
G1 X49.971 Y38.262 E19.64705
G1 X49.972 Y38.262 E19.64717
G1 X49.956 Y37.536 E19.73431
G1 X49.942 Y36.792 E19.82361
G1 X49.926 Y36.058 E19.91171
G1 X49.914 Y35.473 E19.98192
G1 X49.891 Y34.594 E20.08744
G1 X49.869 Y33.825 E20.17976
G1 X49.845 Y30.107 E20.62593
G1 X50.715 Y30.107 E20.73033
G1 X50.715 Y20.846 E21.84165
G10
G0 F9000 X54.515 Y24.649
;TYPE:WALL-INNER
G11
G1 F1800 X54.623 Y24.650 E21.85461
G1 X54.623 Y33.907 E22.96545
G1 X58.245 Y33.907 E23.40009
G1 X58.245 Y24.646 E24.51141
G1 X58.353 Y24.645 E24.52437
G1 X58.353 Y33.907 E25.63581
G1 X59.194 Y33.907 E25.73673
G1 X59.167 Y34.913 E25.85749
G1 X59.136 Y36.289 E26.02265
G1 X59.095 Y38.344 E26.26930
G1 X59.096 Y38.359 E26.27111
G1 X59.082 Y39.001 E26.34817
G1 X59.083 Y39.032 E26.35189
G1 X59.070 Y39.663 E26.42762
G1 X59.071 Y39.718 E26.43422
G1 X59.061 Y40.215 E26.49388
G1 X58.110 Y40.215 E26.60800
G1 X57.178 Y40.219 E26.71984
G1 X55.771 Y40.218 E26.88868
G1 X54.758 Y40.220 E27.01024
G1 X53.803 Y40.215 E27.12484
G1 X53.771 Y38.199 E27.36679
G1 X53.755 Y37.458 E27.45573
G1 X53.741 Y36.719 E27.54443
G1 X53.725 Y35.979 E27.63325
G1 X53.713 Y35.375 E27.70574
G1 X53.690 Y34.494 E27.81150
G1 X53.673 Y33.907 E27.88197
G1 X54.515 Y33.907 E27.98301
G1 X54.515 Y24.649 E29.09397
G0 F9000 X54.115 Y24.249
;TYPE:WALL-OUTER
G1 F1800 X55.023 Y24.250 E29.20293
G1 X55.023 Y33.507 E30.31377
G1 X57.845 Y33.507 E30.65241
G1 X57.845 Y24.249 E31.76337
G1 X58.482 Y24.244 E31.83981
G1 X58.753 Y24.246 E31.87233
G1 X58.753 Y33.507 E32.98365
G1 X59.605 Y33.507 E33.08589
G1 X59.551 Y35.611 E33.33845
G1 X59.495 Y38.339 E33.66588
G1 X59.496 Y38.356 E33.66793
G1 X59.482 Y39.001 E33.74534
G1 X59.483 Y39.041 E33.75015
G1 X59.470 Y39.664 E33.82492
G1 X59.471 Y39.726 E33.83236
G1 X59.459 Y40.328 E33.90462
G1 X59.460 Y40.473 E33.92202
G1 X59.458 Y40.615 E33.93906
G1 X58.510 Y40.615 E34.05282
G1 X58.510 Y49.148 E35.07678
G1 X57.724 Y49.151 E35.17110
G1 X57.724 Y40.617 E36.19518
G1 X55.130 Y40.620 E36.50646
G1 X55.129 Y49.152 E37.53030
G1 X54.358 Y49.148 E37.62282
G1 X54.358 Y40.615 E38.64678
G1 X53.409 Y40.615 E38.76066
G1 X53.371 Y38.207 E39.04966
G1 X53.290 Y34.505 E39.49400
G1 X53.269 Y33.763 E39.58308
G1 X53.267 Y33.507 E39.61380
G1 X54.115 Y33.507 E39.71556
G1 X54.115 Y24.249 E40.82652
G0 F9000 X54.415 Y24.459
G0 X54.456 Y33.848
G0 X54.129 Y34.047
;TYPE:SKIN
G1 F1800 X58.945 Y38.863 E41.64382
G0 F9000 X58.955 Y38.308
G1 F1800 X54.694 Y34.047 E42.36694
G0 F9000 X55.260 Y34.047
G1 F1800 X58.967 Y37.754 E42.99604
G0 F9000 X58.979 Y37.200
G1 F1800 X55.826 Y34.047 E43.53112
G0 F9000 X56.391 Y34.047
G1 F1800 X58.992 Y36.647 E43.97244
G0 F9000 X59.004 Y36.094
G1 F1800 X56.957 Y34.047 E44.31983
G0 F9000 X57.523 Y34.047
G1 F1800 X59.016 Y35.540 E44.57320
G0 F9000 X59.028 Y34.986
G1 F1800 X58.088 Y34.047 E44.73264
G0 F9000 X58.654 Y34.047
G1 F1800 X59.040 Y34.433 E44.79814
G0 F9000 X58.934 Y39.418
G1 F1800 X53.822 Y34.305 E45.66576
G0 F9000 X53.834 Y34.883
G1 F1800 X58.925 Y39.974 E46.52973
G0 F9000 X58.459 Y40.074
G1 F1800 X53.846 Y35.461 E47.31259
G0 F9000 X53.857 Y36.038
G1 F1800 X57.893 Y40.074 E47.99752
G0 F9000 X58.214 Y40.395
G1 F1800 X58.116 Y40.579 E48.01359
G1 X58.116 Y41.145 E48.07896
G1 X58.116 Y41.711 E48.14434
G1 X58.116 Y42.277 E48.20971
G1 X58.116 Y42.842 E48.27497
G1 X58.116 Y43.408 E48.34034
G1 X58.116 Y43.974 E48.40571
G1 X58.116 Y44.539 E48.47097
G1 X58.116 Y45.105 E48.53634
G1 X58.116 Y45.671 E48.60172
G1 X58.116 Y46.236 E48.66697
G1 X58.116 Y46.802 E48.73235
G1 X58.116 Y47.368 E48.79772
G1 X58.116 Y47.933 E48.86298
G1 X58.116 Y48.499 E48.92835
G1 X58.282 Y48.948 E48.98579
G0 F9000 X58.065 Y40.276
G0 X54.789 Y40.279
G0 X54.889 Y48.851
G0 X54.889 Y48.950
G1 F1800 X54.742 Y48.520 E49.04224
G1 X54.742 Y47.954 E49.10540
G1 X54.742 Y47.388 E49.16857
G1 X54.742 Y46.823 E49.23162
G1 X54.742 Y46.257 E49.29479
G1 X54.742 Y45.691 E49.35795
G1 X54.742 Y45.126 E49.42101
G1 X54.742 Y44.560 E49.48400
G1 X54.742 Y43.994 E49.54717
G1 X54.742 Y43.428 E49.61033
G1 X54.742 Y42.863 E49.67339
G1 X54.742 Y42.297 E49.73655
G1 X54.742 Y41.731 E49.79972
G1 X54.742 Y41.166 E49.86277
G1 X54.690 Y40.548 E49.92603
G1 X54.929 Y40.504 E49.95519
G0 F9000 X55.065 Y40.075
G1 F1800 X53.916 Y38.926 E50.15018
G0 F9000 X53.928 Y39.503
G1 F1800 X54.500 Y40.075 E50.24726
G0 F9000 X55.631 Y40.075
G1 F1800 X53.904 Y38.348 E50.54034
G0 F9000 X53.893 Y37.771
G1 F1800 X56.197 Y40.075 E50.93134
G0 F9000 X56.762 Y40.074
G1 F1800 X53.881 Y37.193 E51.42026
G0 F9000 X53.869 Y36.616
G1 F1800 X57.327 Y40.074 E52.00710
;LAYER:1
M106 S255
G0 F9000 X56.835 Y40.219 Z0.500
;TYPE:WALL-INNER
G1 F2040 X56.213 Y40.218 E52.05686
G1 X54.758 Y40.220 E52.17326
G1 X53.546 Y40.215 E52.27022
G1 X53.535 Y39.676 E52.31335
G1 X53.517 Y38.935 E52.37265
G1 X53.497 Y38.194 E52.43195
G1 X53.475 Y37.452 E52.49134
G1 X53.450 Y36.710 E52.55073
G1 X53.422 Y35.969 E52.61005
G1 X53.391 Y35.225 E52.66963
G1 X53.357 Y34.481 E52.72921
G1 X53.328 Y33.907 E52.77519
G1 X54.515 Y33.907 E52.87015
G1 X54.515 Y24.043 E53.65927
G1 X54.623 Y24.043 E53.66791
G1 X54.623 Y33.907 E54.45703
G1 X58.245 Y33.907 E54.74679
G1 X58.245 Y24.044 E55.53583
G1 X58.353 Y24.043 E55.54447
G1 X58.353 Y33.907 E56.33359
G1 X59.540 Y33.907 E56.42855
G1 X59.494 Y34.817 E56.50144
G1 X59.464 Y35.468 E56.55358
G1 X59.411 Y36.776 E56.65830
G1 X59.370 Y38.093 E56.76371
G1 X59.352 Y38.750 E56.81629
G1 X59.335 Y39.411 E56.86919
G1 X59.320 Y40.071 E56.92200
G1 X59.318 Y40.215 E56.93352
G1 X58.110 Y40.215 E57.03016
G1 X56.835 Y40.219 E57.13216
G0 F9000 X57.724 Y40.618
;TYPE:WALL-OUTER
G1 F1920 X55.131 Y40.619 E57.33960
G1 X55.132 Y49.752 E58.07024
G1 X54.358 Y49.754 E58.13216
G1 X54.358 Y40.615 E58.86328
G1 X53.154 Y40.615 E58.95960
G1 X53.117 Y38.945 E59.09324
G1 X53.075 Y37.465 E59.21169
G1 X53.022 Y35.985 E59.33016
G1 X52.992 Y35.242 E59.38965
G1 X52.921 Y33.760 E59.50835
G1 X52.911 Y33.507 E59.52860
G1 X54.115 Y33.507 E59.62492
G1 X54.115 Y23.643 E60.41404
G1 X55.023 Y23.643 E60.48668
G1 X55.023 Y33.507 E61.27580
G1 X57.845 Y33.507 E61.50156
G1 X57.845 Y23.647 E62.29036
G1 X58.664 Y23.640 E62.35588
G1 X58.753 Y23.641 E62.36300
G1 X58.753 Y33.507 E63.15228
G1 X59.961 Y33.507 E63.24892
G1 X59.893 Y34.836 E63.35538
G1 X59.863 Y35.485 E63.40736
G1 X59.811 Y36.791 E63.51192
G1 X59.752 Y38.760 E63.66951
G1 X59.720 Y40.078 E63.77498
G1 X59.713 Y40.615 E63.81795
G1 X58.510 Y40.615 E63.91419
G1 X58.510 Y49.753 E64.64523
G1 X57.724 Y49.751 E64.70811
G1 X57.724 Y40.618 E65.43875
G0 F9000 X57.923 Y40.788
;TYPE:SKIN
G1 F1740 X58.308 Y40.403 E65.48230
G0 F9000 X58.071 Y40.075
G1 F1740 X59.209 Y38.936 E65.61111
G0 F9000 X59.225 Y38.354
G1 F1740 X57.505 Y40.075 E65.80576
G0 F9000 X56.939 Y40.075
G1 F1740 X59.242 Y37.772 E66.06632
G0 F9000 X59.258 Y37.190
G1 F1740 X56.374 Y40.075 E66.39266
G0 F9000 X55.808 Y40.075
G1 F1740 X59.277 Y36.606 E66.78514
G0 F9000 X59.304 Y36.013
G1 F1740 X55.242 Y40.075 E67.24470
G0 F9000 X54.923 Y40.394
G1 F1740 X54.743 Y40.856 E67.28605
G1 X54.743 Y41.422 E67.32816
G1 X54.743 Y41.987 E67.37020
G1 X54.743 Y42.553 E67.41231
G1 X54.743 Y43.119 E67.45442
G1 X54.743 Y43.684 E67.49645
G1 X54.743 Y44.250 E67.53856
G1 X54.743 Y44.816 E67.58067
G1 X54.743 Y45.381 E67.62271
G1 X54.743 Y45.947 E67.66482
G1 X54.743 Y46.513 E67.70704
G1 X54.743 Y47.079 E67.74927
G1 X54.743 Y47.644 E67.79142
G1 X54.743 Y48.210 E67.83353
G1 X54.743 Y48.776 E67.87575
G1 X54.686 Y49.399 E67.91792
G1 X54.930 Y49.438 E67.93768
G0 F9000 X54.790 Y40.279
G0 X58.065 Y40.276
G0 X58.024 Y49.274
G0 X57.923 Y49.274
G1 F1740 X58.115 Y48.798 E67.98121
G1 X58.115 Y48.232 E68.02479
G1 X58.115 Y47.666 E68.06826
G1 X58.115 Y47.101 E68.11176
G1 X58.115 Y46.535 E68.15535
G1 X58.115 Y45.969 E68.19882
G1 X58.115 Y45.404 E68.24232
G1 X58.115 Y44.838 E68.28590
G1 X58.115 Y44.272 E68.32937
G1 X58.115 Y43.707 E68.37288
G1 X58.115 Y43.141 E68.41646
G1 X58.115 Y42.575 E68.45993
G1 X58.115 Y42.010 E68.50343
G1 X58.115 Y41.444 E68.54701
G1 X58.308 Y40.969 E68.58803
G0 F9000 X58.636 Y40.075
G1 F1740 X59.193 Y39.518 E68.65105
G0 F9000 X59.330 Y35.421
G1 F1740 X54.677 Y40.075 E69.17753
G0 F9000 X54.111 Y40.075
G1 F1740 X59.357 Y34.829 E69.77105
G0 F9000 X59.383 Y34.237
G1 F1740 X53.678 Y39.942 E70.41650
G0 F9000 X53.662 Y39.392
G1 F1740 X59.008 Y34.047 E71.02127
G0 F9000 X58.442 Y34.047
G1 F1740 X53.646 Y38.842 E71.56382
G0 F9000 X53.630 Y38.293
G1 F1740 X57.876 Y34.047 E72.04420
G0 F9000 X57.311 Y34.047
G1 F1740 X53.614 Y37.743 E72.46241
G0 F9000 X53.597 Y37.194
G1 F1740 X56.745 Y34.047 E72.81851
G0 F9000 X56.179 Y34.047
G1 F1740 X53.582 Y36.644 E73.11233
G0 F9000 X53.566 Y36.094
G1 F1740 X55.613 Y34.047 E73.34392
G0 F9000 X55.048 Y34.047
G1 F1740 X53.543 Y35.551 E73.51413
G0 F9000 X53.519 Y35.010
G1 F1740 X54.482 Y34.047 E73.62308
G0 F9000 X53.916 Y34.047
G1 F1740 X53.494 Y34.469 E73.67083
G0 F9000 X58.065 Y40.276
G0 X58.308 Y49.454
G1 F1740 X58.210 Y49.552 E73.68191
;LAYER:2
G0 F9000 X58.110 Y40.215 Z0.700
;TYPE:WALL-INNER
G1 F2400 X56.839 Y40.219 E73.78360
G1 X56.344 Y40.212 E73.82320
G1 X55.708 Y40.219 E73.87408
G1 X54.758 Y40.219 E73.95008
G1 X53.362 Y40.215 E74.06176
G1 X53.336 Y39.257 E74.13843
G1 X53.310 Y38.476 E74.20095
G1 X53.279 Y37.694 E74.26355
G1 X53.245 Y36.912 E74.32617
G1 X53.207 Y36.124 E74.38929
G1 X53.158 Y35.215 E74.46211
G1 X53.072 Y33.907 E74.56698
G1 X54.515 Y33.907 E74.68242
G1 X54.515 Y23.588 E75.50794
G1 X54.623 Y23.587 E75.51658
G1 X54.623 Y33.907 E76.34218
G1 X55.839 Y33.907 E76.43946
G1 X56.351 Y33.913 E76.48042
G1 X57.026 Y33.907 E76.53442
G1 X58.245 Y33.907 E76.63194
G1 X58.245 Y23.590 E77.45730
G1 X58.353 Y23.589 E77.46594
G1 X58.353 Y33.907 E78.29138
G1 X59.792 Y33.907 E78.40650
G1 X59.730 Y34.892 E78.48546
G1 X59.690 Y35.583 E78.54083
G1 X59.654 Y36.272 E78.59603
G1 X59.622 Y36.962 E78.65129
G1 X59.566 Y38.337 E78.76138
G1 X59.542 Y38.995 E78.81405
G1 X59.523 Y39.639 E78.86560
G1 X59.507 Y40.215 E78.91169
G1 X58.110 Y40.215 E79.02345
G0 F9000 X57.724 Y40.618
;TYPE:WALL-OUTER
G1 F2100 X56.834 Y40.619 E79.09465
G1 X56.343 Y40.612 E79.13394
G1 X55.713 Y40.619 E79.18434
G1 X55.133 Y40.619 E79.23074
G1 X55.133 Y50.207 E79.99778
G1 X54.358 Y50.209 E80.05978
G1 X54.358 Y40.615 E80.82730
G1 X52.971 Y40.615 E80.93826
G1 X52.936 Y39.270 E81.04590
G1 X52.910 Y38.491 E81.10825
G1 X52.880 Y37.711 E81.17070
G1 X52.808 Y36.145 E81.29611
G1 X52.759 Y35.239 E81.36870
G1 X52.647 Y33.507 E81.50755
G1 X54.115 Y33.507 E81.62499
G1 X54.115 Y23.188 E82.45051
G1 X55.023 Y23.187 E82.52315
G1 X55.023 Y33.507 E83.34875
G1 X55.844 Y33.507 E83.41443
G1 X56.352 Y33.513 E83.45507
G1 X57.023 Y33.507 E83.50875
G1 X57.845 Y33.507 E83.57451
G1 X57.845 Y23.193 E84.39963
G1 X58.732 Y23.185 E84.47059
G1 X58.753 Y23.185 E84.47227
G1 X58.753 Y33.507 E85.29803
G1 X60.220 Y33.507 E85.41539
G1 X60.171 Y34.228 E85.47321
G1 X60.089 Y35.605 E85.58356
G1 X60.053 Y36.292 E85.63860
G1 X60.021 Y36.979 E85.69362
G1 X59.942 Y39.002 E85.85558
G1 X59.905 Y40.301 E85.95954
G1 X59.898 Y40.615 E85.98467
G1 X58.510 Y40.615 E86.09571
G1 X58.510 Y50.208 E86.86315
G1 X57.724 Y50.207 E86.92603
G1 X57.724 Y40.618 E87.69315
G0 F9000 X57.923 Y40.669
;TYPE:SKIN
G1 F1800 X58.116 Y41.145 E87.73681
G1 X58.116 Y41.711 E87.78039
G1 X58.116 Y42.277 E87.82397
G1 X58.116 Y42.842 E87.86748
G1 X58.116 Y43.408 E87.91106
G1 X58.116 Y43.974 E87.95464
G1 X58.116 Y44.539 E87.99815
G1 X58.116 Y45.105 E88.04173
G1 X58.116 Y45.671 E88.08531
G1 X58.116 Y46.236 E88.12882
G1 X58.116 Y46.802 E88.17240
G1 X58.116 Y47.368 E88.21598
G1 X58.116 Y47.933 E88.25948
G1 X58.116 Y48.499 E88.30307
G1 X58.116 Y49.065 E88.34665
G1 X58.116 Y49.630 E88.39015
G1 X58.209 Y50.007 E88.42122
G0 F9000 X58.065 Y40.276
G0 X54.792 Y40.278
G0 X54.932 Y49.558
G1 F1800 X54.744 Y49.087 E88.46361
G1 X54.744 Y48.521 E88.50595
G1 X54.744 Y47.956 E88.54821
G1 X54.744 Y47.390 E88.59055
G1 X54.744 Y46.824 E88.63289
G1 X54.744 Y46.259 E88.67515
G1 X54.744 Y45.693 E88.71749
G1 X54.744 Y45.127 E88.75982
G1 X54.744 Y44.562 E88.80208
G1 X54.744 Y43.996 E88.84442
G1 X54.744 Y43.430 E88.88676
G1 X54.744 Y42.865 E88.92913
G1 X54.744 Y42.299 E88.97147
G1 X54.744 Y41.733 E89.01381
G1 X54.744 Y41.168 E89.05618
G1 X54.690 Y40.548 E89.09850
G1 X54.932 Y40.507 E89.11814
G0 F9000 X55.065 Y40.074
G1 F1800 X53.439 Y38.448 E89.30210
G0 F9000 X53.418 Y37.862
G1 F1800 X55.630 Y40.074 E89.55236
G0 F9000 X56.196 Y40.074
G1 F1800 X53.397 Y37.275 E89.86903
G0 F9000 X53.372 Y36.684
G1 F1800 X56.762 Y40.074 E90.25256
G0 F9000 X57.327 Y40.074
G1 F1800 X53.342 Y36.088 E90.70347
G0 F9000 X53.310 Y35.491
G1 F1800 X57.893 Y40.074 E91.22198
G0 F9000 X58.216 Y40.397
G1 F1800 X58.309 Y40.490 E91.23250
G0 F9000 X58.459 Y40.074
G1 F1800 X53.275 Y34.890 E91.81900
G0 F9000 X53.236 Y34.286
G1 F1800 X59.025 Y40.074 E92.47390
G0 F9000 X54.499 Y40.074
G1 F1800 X53.460 Y39.035 E92.59145
G0 F9000 X53.482 Y39.622
G1 F1800 X53.933 Y40.074 E92.64253
G0 F9000 X54.699 Y40.274
G0 X54.658 Y49.749
G0 X54.557 Y49.749
G1 F1800 X54.816 Y50.008 E92.67183
G0 F9000 X59.376 Y39.860
G1 F1800 X53.564 Y34.047 E93.32944
G0 F9000 X54.131 Y34.049
G1 F1800 X59.392 Y39.310 E93.92465
G0 F9000 X59.411 Y38.763
G1 F1800 X54.697 Y34.050 E94.45792
G0 F9000 X55.264 Y34.051
G1 F1800 X59.433 Y38.219 E94.92954
G0 F9000 X59.455 Y37.676
G1 F1800 X55.831 Y34.052 E95.33954
G0 F9000 X56.397 Y34.052
G1 F1800 X59.477 Y37.133 E95.68806
G0 F9000 X59.500 Y36.589
G1 F1800 X56.962 Y34.052 E95.97515
G0 F9000 X57.526 Y34.050
G1 F1800 X59.525 Y36.049 E96.20131
G0 F9000 X59.556 Y35.515
G1 F1800 X58.091 Y34.050 E96.36706
G0 F9000 X58.655 Y34.048
G1 F1800 X59.587 Y34.980 E96.47250
G0 F9000 X59.619 Y34.446
