;FLAVOR:UltiGCode
;TIME:2511
;MATERIAL:5494
;MATERIAL2:0

;Layer count: 10
;LAYER:0
M107
G0 F9000 X25.609 Y52.372 Z0.300
;TYPE:SKIRT
G1 F1800 X26.333 Y52.132 E0.09153
G1 X27.409 Y51.960 E0.22229
G1 X28.497 Y52.024 E0.35307
G1 X29.240 Y52.191 E0.44446
G1 X30.247 Y52.596 E0.57471
G1 X31.153 Y53.211 E0.70611
G1 X31.702 Y53.738 E0.79743
G1 X32.303 Y54.528 E0.91654
G1 X32.652 Y55.187 E1.00603
G1 X32.916 Y55.944 E1.10223
G1 X32.999 Y56.274 E1.14307
G1 X33.103 Y56.895 E1.21862
G1 X33.117 Y63.642 E2.02827
G1 X33.117 Y79.482 E3.92907
G1 X35.193 Y79.489 E4.17819
G1 X42.272 Y79.489 E5.02767
G1 X42.280 Y76.367 E5.40231
G1 X42.280 Y65.443 E6.71319
G1 X42.315 Y64.832 E6.78663
G1 X42.506 Y63.877 E6.90350
G1 X42.785 Y63.103 E7.00223
G1 X43.118 Y62.450 E7.09019
G1 X43.613 Y61.754 E7.19268
G1 X43.836 Y61.481 E7.23498
G1 X44.280 Y61.037 E7.31033
G1 X44.823 Y60.600 E7.39397
G1 X45.664 Y60.099 E7.51144
G1 X46.426 Y59.790 E7.61011
G1 X47.071 Y59.617 E7.69025
G1 X47.690 Y59.520 E7.76543
G1 X48.323 Y59.484 E7.84152
G1 X49.170 Y59.531 E7.94331
G1 X49.998 Y59.661 E8.04389
G1 X50.812 Y59.879 E8.14501
G1 X51.599 Y60.181 E8.24617
G1 X52.350 Y60.564 E8.34733
G1 X53.058 Y61.024 E8.44865
G1 X53.712 Y61.554 E8.54966
G1 X54.307 Y62.149 E8.65064
G1 X54.837 Y62.803 E8.75165
G1 X55.297 Y63.511 E8.85297
G1 X55.680 Y64.262 E8.95413
G1 X55.982 Y65.049 E9.05529
G1 X56.200 Y65.863 E9.15641
G1 X56.330 Y66.691 E9.25699
G1 X56.372 Y67.447 E9.34785
G1 X56.372 Y70.255 E9.68481
G1 X56.317 Y70.867 E9.75854
G1 X56.120 Y71.612 E9.85102
G1 X55.788 Y72.308 E9.94355
G1 X55.355 Y72.921 E10.03361
G1 X54.822 Y73.450 E10.12373
G1 X54.202 Y73.885 E10.21461
G1 X53.507 Y74.208 E10.30658
G1 X52.757 Y74.406 E10.39966
G1 X52.002 Y74.463 E10.49052
G1 X51.283 Y74.398 E10.57715
G1 X50.245 Y74.141 E10.70547
G1 X50.245 Y80.496 E11.46807
G1 X50.209 Y81.148 E11.54643
G1 X50.094 Y81.873 E11.63452
G1 X49.886 Y82.651 E11.73116
G1 X49.425 Y83.716 E11.87042
G1 X48.924 Y84.526 E11.98471
G1 X48.436 Y85.126 E12.07752
G1 X47.917 Y85.645 E12.16559
G1 X47.343 Y86.112 E12.25439
G1 X46.719 Y86.516 E12.34359
G1 X46.065 Y86.847 E12.43155
G1 X45.379 Y87.112 E12.51980
G1 X44.664 Y87.303 E12.60861
G1 X43.862 Y87.430 E12.70605
G1 X40.226 Y87.454 E13.14238
G1 X32.112 Y87.454 E14.11606
G1 X31.459 Y87.418 E14.19454
G1 X30.733 Y87.303 E14.28274
G1 X29.954 Y87.095 E14.37950
G1 X28.892 Y86.634 E14.51843
G1 X28.082 Y86.134 E14.63266
G1 X27.480 Y85.645 E14.72572
G1 X26.959 Y85.124 E14.81414
G1 X26.496 Y84.552 E14.90245
G1 X26.092 Y83.931 E14.99135
G1 X25.757 Y83.270 E15.08028
G1 X25.494 Y82.584 E15.16844
G1 X25.305 Y81.877 E15.25626
G1 X25.175 Y81.070 E15.35435
G1 X25.151 Y73.600 E16.25075
G1 X25.146 Y69.909 E16.69367
G1 X25.143 Y62.227 E17.61551
G1 X25.071 Y62.197 E17.62487
G1 X24.175 Y61.575 E17.75576
G1 X23.693 Y61.106 E17.83646
G1 X23.319 Y60.658 E17.90649
G1 X22.944 Y60.094 E17.98777
G1 X22.535 Y59.182 E18.10771
G1 X22.359 Y58.535 E18.18817
G1 X22.269 Y57.956 E18.25849
G1 X22.240 Y57.364 E18.32961
G1 X22.279 Y56.770 E18.40104
G1 X22.377 Y56.200 E18.47045
G1 X22.538 Y55.636 E18.54083
G1 X22.761 Y55.086 E18.61205
G1 X23.082 Y54.495 E18.69276
G1 X23.694 Y53.697 E18.81343
G1 X24.191 Y53.237 E18.89470
G1 X24.723 Y52.837 E18.97457
G1 X25.609 Y52.372 E19.09464
G10
G0 F9000 X27.102 Y55.880
;TYPE:WALL-INNER
G11
G1 F1800 X27.237 Y55.835 E19.11172
G1 X27.598 Y55.778 E19.15558
G1 X27.970 Y55.799 E19.20029
G1 X28.102 Y55.829 E19.21653
G1 X28.452 Y55.970 E19.26181
G1 X28.753 Y56.174 E19.30545
G1 X28.855 Y56.272 E19.32242
G1 X29.092 Y56.584 E19.36944
G1 X29.157 Y56.708 E19.38624
G1 X29.275 Y57.047 E19.42931
G1 X29.304 Y57.219 E19.45024
G1 X29.317 Y63.645 E20.22137
G1 X29.317 Y80.423 E22.23473
G1 X29.331 Y80.709 E22.26909
G1 X29.378 Y81.006 E22.30517
G1 X29.456 Y81.299 E22.34155
G1 X29.709 Y81.864 E22.41584
G1 X30.045 Y82.326 E22.48439
G1 X30.271 Y82.551 E22.52266
G1 X30.516 Y82.750 E22.56054
G1 X31.011 Y83.036 E22.62914
G1 X31.308 Y83.150 E22.66731
G1 X31.598 Y83.227 E22.70332
G1 X31.911 Y83.278 E22.74138
G1 X35.181 Y83.289 E23.13378
G1 X43.213 Y83.289 E24.09762
G1 X43.500 Y83.276 E24.13209
G1 X43.799 Y83.227 E24.16845
G1 X44.090 Y83.150 E24.20457
G1 X44.386 Y83.036 E24.24264
G1 X44.895 Y82.742 E24.31317
G1 X45.343 Y82.339 E24.38548
G1 X45.688 Y81.864 E24.45593
G1 X45.941 Y81.299 E24.53022
G1 X46.019 Y81.006 E24.56660
G1 X46.069 Y80.702 E24.60357
G1 X46.080 Y76.376 E25.12270
G1 X46.080 Y65.552 E26.42158
G1 X46.094 Y65.312 E26.45043
G1 X46.176 Y64.901 E26.50072
G1 X46.277 Y64.620 E26.53655
G1 X46.377 Y64.425 E26.56285
G1 X46.658 Y64.033 E26.62072
G1 X46.820 Y63.871 E26.64822
G1 X46.996 Y63.729 E26.67535
G1 X47.362 Y63.511 E26.72647
G1 X47.637 Y63.400 E26.76206
G1 X48.094 Y63.303 E26.81812
G1 X48.327 Y63.290 E26.84613
G1 X48.765 Y63.314 E26.89877
G1 X49.207 Y63.384 E26.95247
G1 X49.641 Y63.500 E27.00637
G1 X50.049 Y63.657 E27.05883
G1 X50.449 Y63.860 E27.11266
G1 X50.820 Y64.101 E27.16575
G1 X51.169 Y64.384 E27.21967
G1 X51.477 Y64.692 E27.27194
G1 X51.760 Y65.041 E27.32586
G1 X52.001 Y65.412 E27.37895
G1 X52.204 Y65.812 E27.43277
G1 X52.361 Y66.220 E27.48523
G1 X52.477 Y66.654 E27.53914
G1 X52.547 Y67.096 E27.59284
G1 X52.572 Y70.079 E27.95081
G1 X52.560 Y70.210 E27.96660
G1 X52.537 Y70.296 E27.97728
G1 X52.498 Y70.379 E27.98829
G1 X52.444 Y70.456 E27.99957
G1 X52.371 Y70.528 E28.01188
G1 X52.298 Y70.579 E28.02256
G1 X52.199 Y70.623 E28.03556
G1 X52.207 Y67.521 E28.40781
G1 X52.188 Y67.130 E28.45478
G1 X52.124 Y66.728 E28.50363
G1 X52.018 Y66.335 E28.55247
G1 X51.873 Y65.956 E28.60117
G1 X51.688 Y65.594 E28.64995
G1 X51.467 Y65.253 E28.69871
G1 X51.212 Y64.937 E28.74744
G1 X50.924 Y64.649 E28.79632
G1 X50.608 Y64.394 E28.84504
G1 X50.267 Y64.173 E28.89381
G1 X49.905 Y63.988 E28.94259
G1 X49.526 Y63.843 E28.99128
G1 X49.133 Y63.737 E29.04013
G1 X48.731 Y63.673 E29.08898
G1 X48.323 Y63.653 E29.13800
G1 X48.081 Y63.668 E29.16709
G1 X47.818 Y63.720 E29.19926
G1 X47.400 Y63.893 E29.25355
G1 X47.180 Y64.040 E29.28530
G1 X46.992 Y64.204 E29.31524
G1 X46.830 Y64.391 E29.34493
G1 X46.695 Y64.594 E29.37418
G1 X46.587 Y64.815 E29.40370
G1 X46.507 Y65.046 E29.43303
G1 X46.455 Y65.308 E29.46509
G1 X46.445 Y69.567 E29.97617
G1 X46.445 Y80.393 E31.27529
G1 X46.426 Y80.741 E31.31711
G1 X46.372 Y81.082 E31.35854
G1 X46.287 Y81.398 E31.39781
G1 X46.047 Y81.953 E31.47037
G1 X45.820 Y82.319 E31.52205
G1 X45.607 Y82.582 E31.56266
G1 X45.373 Y82.816 E31.60237
G1 X45.107 Y83.032 E31.64349
G1 X44.817 Y83.220 E31.68497
G1 X44.522 Y83.369 E31.72462
G1 X44.201 Y83.493 E31.76592
G1 X43.873 Y83.581 E31.80667
G1 X43.548 Y83.632 E31.84615
G1 X40.212 Y83.654 E32.24648
G1 X32.214 Y83.654 E33.20624
G1 X31.865 Y83.635 E33.24818
G1 X31.524 Y83.581 E33.28961
G1 X31.205 Y83.495 E33.32926
G1 X30.659 Y83.259 E33.40063
G1 X30.285 Y83.027 E33.45345
G1 X30.024 Y82.816 E33.49372
G1 X29.791 Y82.583 E33.53326
G1 X29.573 Y82.313 E33.57491
G1 X29.387 Y82.028 E33.61575
G1 X29.236 Y81.729 E33.65594
G1 X29.115 Y81.414 E33.69643
G1 X28.974 Y80.763 E33.77637
G1 X28.951 Y73.591 E34.63701
G1 X28.941 Y58.804 E36.41145
G1 X28.173 Y58.977 E36.50592
G1 X28.150 Y58.979 E36.50869
G1 X27.751 Y59.041 E36.55714
G1 X27.577 Y59.039 E36.57803
G1 X27.396 Y59.017 E36.59991
G1 X27.242 Y58.981 E36.61888
G1 X26.899 Y58.840 E36.66339
G1 X26.597 Y58.630 E36.70753
G1 X26.371 Y58.384 E36.74761
G1 X26.281 Y58.249 E36.76708
G1 X26.124 Y57.899 E36.81311
G1 X26.082 Y57.746 E36.83215
G1 X26.054 Y57.566 E36.85401
G1 X26.046 Y57.400 E36.87396
G1 X26.058 Y57.214 E36.89632
G1 X26.135 Y56.877 E36.93781
G1 X26.278 Y56.572 E36.97823
G1 X26.512 Y56.267 E37.02436
G1 X26.631 Y56.157 E37.04381
G1 X26.760 Y56.059 E37.06325
G1 X27.102 Y55.880 E37.10957
G0 F9000 X26.942 Y55.512
;TYPE:WALL-OUTER
G1 F1800 X27.145 Y55.445 E37.13522
G1 X27.576 Y55.376 E37.18760
G1 X28.025 Y55.402 E37.24157
G1 X28.222 Y55.447 E37.26582
G1 X28.643 Y55.616 E37.32026
G1 X29.006 Y55.862 E37.37288
G1 X29.155 Y56.006 E37.39774
G1 X29.427 Y56.363 E37.45160
G1 X29.527 Y56.553 E37.47736
G1 X29.670 Y56.978 E37.53117
G1 X29.704 Y57.181 E37.55587
G1 X29.717 Y80.413 E40.34371
G1 X29.730 Y80.668 E40.37435
G1 X29.770 Y80.923 E40.40533
G1 X29.837 Y81.176 E40.43673
G1 X29.930 Y81.418 E40.46784
G1 X30.051 Y81.654 E40.49967
G1 X30.350 Y82.065 E40.56066
G1 X30.743 Y82.419 E40.62413
G1 X31.184 Y82.674 E40.68526
G1 X31.431 Y82.769 E40.71702
G1 X31.682 Y82.836 E40.74819
G1 X31.944 Y82.878 E40.78003
G1 X43.203 Y82.889 E42.13112
G1 X43.459 Y82.877 E42.16187
G1 X43.715 Y82.836 E42.19298
G1 X43.967 Y82.769 E42.22427
G1 X44.213 Y82.674 E42.25592
G1 X44.658 Y82.417 E42.31758
G1 X45.044 Y82.070 E42.37987
G1 X45.346 Y81.654 E42.44155
G1 X45.467 Y81.418 E42.47338
G1 X45.560 Y81.176 E42.50449
G1 X45.627 Y80.923 E42.53590
G1 X45.669 Y80.665 E42.56726
G1 X45.680 Y65.546 E44.38154
G1 X45.696 Y65.261 E44.41580
G1 X45.790 Y64.792 E44.47320
G1 X45.911 Y64.458 E44.51583
G1 X46.033 Y64.218 E44.54813
G1 X46.367 Y63.758 E44.61635
G1 X46.548 Y63.577 E44.64707
G1 X46.772 Y63.397 E44.68155
G1 X47.184 Y63.151 E44.73913
G1 X47.509 Y63.019 E44.78123
G1 X47.771 Y62.949 E44.81377
G1 X48.051 Y62.905 E44.84778
G1 X48.326 Y62.890 E44.88083
G1 X48.810 Y62.916 E44.93900
G1 X49.296 Y62.993 E44.99804
G1 X49.756 Y63.116 E45.05518
G1 X50.219 Y63.294 E45.11471
G1 X50.645 Y63.511 E45.17208
G1 X51.060 Y63.781 E45.23149
G1 X51.437 Y64.086 E45.28968
G1 X51.775 Y64.424 E45.34704
G1 X52.080 Y64.801 E45.40523
G1 X52.350 Y65.216 E45.46464
G1 X52.567 Y65.642 E45.52201
G1 X52.745 Y66.105 E45.58154
G1 X52.868 Y66.565 E45.63868
G1 X52.945 Y67.051 E45.69773
G1 X52.972 Y70.104 E46.06410
G1 X52.956 Y70.277 E46.08495
G1 X52.915 Y70.436 E46.10465
G1 X52.844 Y70.583 E46.12424
G1 X52.751 Y70.715 E46.14362
G1 X52.633 Y70.832 E46.16356
G1 X52.493 Y70.930 E46.18407
G1 X52.348 Y70.997 E46.20323
G1 X52.189 Y71.039 E46.22297
G1 X52.028 Y71.052 E46.24235
G1 X51.797 Y71.023 E46.27029
G1 X51.807 Y67.530 E46.68945
G1 X51.789 Y67.171 E46.73258
G1 X51.732 Y66.811 E46.77632
G1 X51.637 Y66.459 E46.82007
G1 X51.507 Y66.119 E46.86375
G1 X51.341 Y65.794 E46.90755
G1 X51.143 Y65.488 E46.95128
G1 X50.914 Y65.205 E46.99497
G1 X50.656 Y64.947 E47.03875
G1 X50.373 Y64.718 E47.08244
G1 X50.067 Y64.520 E47.12618
G1 X49.742 Y64.354 E47.16997
G1 X49.402 Y64.224 E47.21365
G1 X49.050 Y64.129 E47.25740
G1 X48.690 Y64.072 E47.30114
G1 X48.325 Y64.054 E47.34499
G1 X48.132 Y64.065 E47.36819
G1 X47.935 Y64.105 E47.39231
G1 X47.589 Y64.248 E47.43724
G1 X47.276 Y64.487 E47.48450
G1 X47.149 Y64.634 E47.50781
G1 X47.042 Y64.794 E47.53091
G1 X46.957 Y64.968 E47.55414
G1 X46.894 Y65.151 E47.57737
G1 X46.855 Y65.348 E47.60147
G1 X46.845 Y80.397 E49.40735
G1 X46.824 Y80.787 E49.45422
G1 X46.763 Y81.170 E49.50075
G1 X46.667 Y81.527 E49.54512
G1 X46.402 Y82.140 E49.62526
G1 X46.147 Y82.552 E49.68340
G1 X45.905 Y82.850 E49.72947
G1 X45.641 Y83.114 E49.77427
G1 X45.345 Y83.354 E49.82000
G1 X45.015 Y83.568 E49.86719
G1 X44.690 Y83.733 E49.91093
G1 X44.319 Y83.876 E49.95865
G1 X43.961 Y83.972 E50.00312
G1 X43.581 Y84.032 E50.04929
G1 X40.215 Y84.054 E50.45322
G1 X32.210 Y84.054 E51.41382
G1 X31.819 Y84.033 E51.46080
G1 X31.436 Y83.972 E51.50734
G1 X31.076 Y83.875 E51.55208
G1 X30.470 Y83.613 E51.63131
G1 X30.054 Y83.355 E51.69005
G1 X29.756 Y83.114 E51.73604
G1 X29.497 Y82.855 E51.78000
G1 X29.249 Y82.548 E51.82735
G1 X29.036 Y82.221 E51.87418
G1 X28.873 Y81.898 E51.91760
G1 X28.731 Y81.529 E51.96505
G1 X28.633 Y81.162 E52.01063
G1 X28.574 Y80.796 E52.05512
G1 X28.541 Y59.304 E54.63416
G1 X28.230 Y59.374 E54.67241
G1 X28.207 Y59.376 E54.67518
G1 X28.056 Y59.408 E54.69371
G1 X28.040 Y59.409 E54.69563
G1 X27.986 Y59.420 E54.70224
G1 X27.767 Y59.442 E54.72865
G1 X27.551 Y59.438 E54.75458
G1 X27.325 Y59.411 E54.78189
G1 X27.118 Y59.363 E54.80739
G1 X26.707 Y59.194 E54.86072
G1 X26.342 Y58.940 E54.91408
G1 X26.195 Y58.798 E54.93861
G1 X26.050 Y58.624 E54.96579
G1 X25.928 Y58.440 E54.99228
G1 X25.746 Y58.035 E55.04556
G1 X25.691 Y57.832 E55.07080
G1 X25.656 Y57.608 E55.09800
G1 X25.646 Y57.393 E55.12383
G1 X25.661 Y57.166 E55.15113
G1 X25.698 Y56.954 E55.17696
G1 X25.757 Y56.743 E55.20325
G1 X25.838 Y56.544 E55.22903
G1 X25.941 Y56.355 E55.25486
G1 X26.217 Y55.995 E55.30929
G1 X26.545 Y55.720 E55.36066
G1 X26.942 Y55.512 E55.41444
G0 F9000 X26.973 Y56.106
;TYPE:SKIN
G1 F1800 X29.165 Y58.298 E55.78643
G0 F9000 X28.957 Y58.655
G1 F1800 X26.640 Y56.339 E56.17956
G0 F9000 X26.392 Y56.656
G1 F1800 X28.495 Y58.759 E56.53645
G0 F9000 X28.025 Y58.855
G1 F1800 X26.235 Y57.064 E56.84031
G0 F9000 X26.200 Y57.595
G1 F1800 X27.490 Y58.885 E57.05923
G0 F9000 X29.165 Y57.732
G1 F1800 X27.386 Y55.953 E57.36113
G0 F9000 X27.935 Y55.937
G1 F1800 X29.151 Y57.152 E57.56741
;LAYER:1
M106 S255
G0 F9000 X29.470 Y57.208 Z0.500
;TYPE:WALL-INNER
G1 F2520 X29.483 Y80.421 E59.42445
G1 X29.496 Y80.707 E59.44735
G1 X29.611 Y81.249 E59.49168
G1 X29.843 Y81.768 E59.53716
G1 X30.177 Y82.228 E59.58264
G1 X30.599 Y82.608 E59.62807
G1 X31.078 Y82.885 E59.67233
G1 X31.373 Y82.998 E59.69760
G1 X31.912 Y83.114 E59.74171
G1 X35.700 Y83.125 E60.04475
G1 X43.213 Y83.124 E60.64579
G1 X43.498 Y83.111 E60.66862
G1 X44.024 Y82.998 E60.71166
G1 X44.305 Y82.891 E60.73571
G1 X44.558 Y82.761 E60.75847
G1 X44.796 Y82.606 E60.78119
G1 X45.029 Y82.418 E60.80514
G1 X45.399 Y82.007 E60.84938
G1 X45.676 Y81.528 E60.89365
G1 X45.789 Y81.233 E60.91892
G1 X45.905 Y80.695 E60.96295
G1 X45.916 Y75.674 E61.36463
G1 X45.915 Y65.552 E62.17439
G1 X45.929 Y65.300 E62.19458
G1 X46.016 Y64.863 E62.23023
G1 X46.128 Y64.550 E62.25682
G1 X46.238 Y64.333 E62.27628
G1 X46.539 Y63.919 E62.31723
G1 X46.908 Y63.588 E62.35689
G1 X47.124 Y63.447 E62.37753
G1 X47.346 Y63.334 E62.39745
G1 X47.573 Y63.247 E62.41690
G1 X47.998 Y63.151 E62.45176
G1 X48.330 Y63.126 E62.47839
G1 X48.783 Y63.150 E62.51468
G1 X49.242 Y63.222 E62.55185
G1 X49.693 Y63.343 E62.58921
G1 X50.116 Y63.506 E62.62547
G1 X50.532 Y63.718 E62.66283
G1 X50.917 Y63.967 E62.69951
G1 X51.279 Y64.261 E62.73682
G1 X51.600 Y64.582 E62.77313
G1 X51.894 Y64.944 E62.81044
G1 X52.143 Y65.329 E62.84712
G1 X52.355 Y65.745 E62.88447
G1 X52.518 Y66.168 E62.92074
G1 X52.639 Y66.619 E62.95809
G1 X52.711 Y67.078 E62.99526
G1 X52.737 Y70.082 E63.23559
G1 X52.724 Y70.234 E63.24780
G1 X52.692 Y70.354 E63.25773
G1 X52.637 Y70.471 E63.26807
G1 X52.573 Y70.563 E63.27704
G1 X52.479 Y70.656 E63.28762
G1 X52.384 Y70.722 E63.29687
G1 X52.268 Y70.776 E63.30711
G1 X52.151 Y70.806 E63.31677
G1 X52.037 Y70.816 E63.32593
G1 X52.042 Y67.521 E63.58953
G1 X52.024 Y67.146 E63.61956
G1 X51.962 Y66.762 E63.65068
G1 X51.862 Y66.387 E63.68173
G1 X51.722 Y66.023 E63.71293
G1 X51.545 Y65.676 E63.74409
G1 X51.333 Y65.350 E63.77520
G1 X51.080 Y65.038 E63.80734
G1 X50.611 Y64.607 E63.85829
G1 X50.191 Y64.319 E63.89903
G1 X49.838 Y64.139 E63.93073
G1 X49.474 Y63.999 E63.96193
G1 X49.099 Y63.899 E63.99298
G1 X48.716 Y63.838 E64.02401
G1 X48.321 Y63.817 E64.05565
G1 X48.080 Y63.833 E64.07497
G1 X47.667 Y63.944 E64.10919
G1 X47.295 Y64.159 E64.14356
G1 X47.110 Y64.320 E64.16318
G1 X46.948 Y64.505 E64.18285
G1 X46.734 Y64.878 E64.21725
G1 X46.619 Y65.310 E64.25302
G1 X46.609 Y70.269 E64.64974
G1 X46.610 Y80.393 E65.45966
G1 X46.590 Y80.760 E65.48906
G1 X46.533 Y81.122 E65.51838
G1 X46.442 Y81.459 E65.54630
G1 X46.319 Y81.782 E65.57395
G1 X46.007 Y82.338 E65.62496
G1 X45.730 Y82.692 E65.66092
G1 X45.483 Y82.939 E65.68886
G1 X45.202 Y83.167 E65.71781
G1 X44.905 Y83.360 E65.74615
G1 X44.582 Y83.524 E65.77513
G1 X44.250 Y83.651 E65.80356
G1 X43.913 Y83.742 E65.83149
G1 X43.567 Y83.796 E65.85951
G1 X39.694 Y83.818 E66.16935
G1 X32.214 Y83.819 E66.76775
G1 X31.846 Y83.799 E66.79723
G1 X31.484 Y83.742 E66.82655
G1 X31.147 Y83.651 E66.85448
G1 X30.824 Y83.528 E66.88213
G1 X30.268 Y83.216 E66.93313
G1 X29.914 Y82.939 E66.96909
G1 X29.667 Y82.692 E66.99704
G1 X29.439 Y82.411 E67.02598
G1 X29.246 Y82.114 E67.05432
G1 X29.082 Y81.791 E67.08330
G1 X28.956 Y81.464 E67.11134
G1 X28.865 Y81.119 E67.13988
G1 X28.810 Y80.775 E67.16775
G1 X28.781 Y66.332 E68.32319
G1 X28.779 Y59.038 E68.90671
G1 X28.043 Y59.180 E68.96668
G1 X27.767 Y59.205 E68.98885
G1 X27.364 Y59.181 E69.02114
G1 X27.197 Y59.142 E69.03486
