;FLAVOR:UltiGCode
;TIME:2783
;MATERIAL:5504
;MATERIAL2:0

;Layer count: 31
;LAYER:0
M107
G0 F9000 X99.836 Y9.702 Z0.300
;TYPE:SKIRT
G1 F1800 X100.177 Y8.727 E0.12395
G1 X100.689 Y7.911 E0.23955
G1 X101.371 Y7.229 E0.35529
G1 X102.187 Y6.717 E0.47089
G1 X103.270 Y6.338 E0.60858
G1 X105.400 Y6.314 E0.86419
G1 X126.150 Y6.314 E3.35419
G1 X126.905 Y6.399 E3.44536
G1 X127.813 Y6.717 E3.56081
G1 X128.629 Y7.229 E3.67641
G1 X129.311 Y7.911 E3.79215
G1 X129.823 Y8.727 E3.90775
G1 X130.193 Y9.784 E4.04214
G1 X130.229 Y11.178 E4.20947
G1 X130.165 Y12.059 E4.31547
G1 X129.823 Y13.042 E4.44037
G1 X129.311 Y13.852 E4.55536
G1 X128.629 Y14.540 E4.67161
G1 X127.813 Y15.046 E4.78682
G1 X127.320 Y15.222 E4.84964
G1 X127.320 Y20.791 E5.51792
G1 X127.332 Y21.116 E5.55695
G1 X127.359 Y21.353 E5.58557
G1 X127.403 Y21.581 E5.61344
G1 X127.468 Y21.822 E5.64339
G1 X127.547 Y22.045 E5.67178
G1 X127.639 Y22.256 E5.69940
G1 X127.759 Y22.481 E5.73000
G1 X127.881 Y22.672 E5.75720
G1 X128.140 Y23.018 E5.80906
G1 X128.456 Y23.466 E5.87485
G1 X128.799 Y24.124 E5.96389
G1 X129.048 Y24.816 E6.05215
G1 X129.204 Y25.531 E6.13997
G1 X129.264 Y26.266 E6.22846
G1 X129.227 Y27.001 E6.31677
G1 X129.093 Y27.726 E6.40524
G1 X128.863 Y28.425 E6.49355
G1 X128.545 Y29.085 E6.58146
G1 X128.140 Y29.703 E6.67013
G1 X127.633 Y30.284 E6.76266
G1 X126.964 Y30.854 E6.86813
G1 X123.989 Y32.591 E7.28152
G1 X118.182 Y35.936 E8.08571
G1 X118.182 Y32.004 E8.55755
G1 X118.109 Y32.058 E8.56844
G1 X117.443 Y32.423 E8.65958
G1 X116.736 Y32.684 E8.75001
G1 X115.920 Y32.864 E8.85029
G1 X114.734 Y32.894 E8.99265
G1 X113.941 Y32.838 E9.08805
G1 X113.179 Y32.657 E9.18204
G1 X112.477 Y32.383 E9.27246
G1 X111.808 Y32.003 E9.36479
G1 X111.653 Y31.882 E9.38839
G1 X108.218 Y33.865 E9.86434
G1 X103.875 Y31.357 E10.46616
G1 X102.955 Y30.797 E10.59541
G1 X102.347 Y30.261 E10.69267
G1 X101.860 Y29.703 E10.78154
G1 X101.455 Y29.085 E10.87021
G1 X101.137 Y28.425 E10.95812
G1 X100.907 Y27.726 E11.04643
G1 X100.773 Y27.001 E11.13490
G1 X100.736 Y26.266 E11.22321
G1 X100.796 Y25.531 E11.31171
G1 X100.952 Y24.816 E11.39953
G1 X101.201 Y24.124 E11.48778
G1 X101.560 Y23.435 E11.58101
G1 X102.106 Y22.692 E11.69165
G1 X102.241 Y22.481 E11.72171
G1 X102.361 Y22.256 E11.75231
G1 X102.453 Y22.045 E11.77993
G1 X102.532 Y21.822 E11.80832
G1 X102.597 Y21.581 E11.83828
G1 X102.641 Y21.353 E11.86614
G1 X102.668 Y21.116 E11.89477
G1 X102.680 Y20.791 E11.93379
G1 X102.680 Y15.222 E12.60207
G1 X102.187 Y15.046 E12.66489
G1 X101.371 Y14.540 E12.78011
G1 X100.689 Y13.852 E12.89636
G1 X100.177 Y13.042 E13.01135
G1 X99.807 Y11.977 E13.14664
G1 X99.771 Y10.587 E13.31350
G1 X99.836 Y9.702 E13.41998
G0 F9000 X100.171 Y10.596
G1 F1800 X100.231 Y9.784 E13.51769
G1 X100.539 Y8.902 E13.62980
G1 X101.004 Y8.162 E13.73467
G1 X101.622 Y7.544 E13.83955
G1 X102.362 Y7.079 E13.94443
G1 X103.340 Y6.737 E14.06876
G1 X105.402 Y6.714 E14.31621
G1 X126.128 Y6.714 E16.80333
G1 X126.815 Y6.791 E16.88629
G1 X127.638 Y7.079 E16.99092
G1 X128.378 Y7.544 E17.09580
G1 X128.996 Y8.162 E17.20067
G1 X129.461 Y8.902 E17.30555
G1 X129.795 Y9.857 E17.42696
G1 X129.829 Y11.169 E17.58445
G1 X129.770 Y11.977 E17.68167
G1 X129.461 Y12.867 E17.79472
G1 X128.996 Y13.601 E17.89899
G1 X128.378 Y14.224 E18.00429
G1 X127.638 Y14.683 E18.10879
G1 X126.920 Y14.939 E18.20026
G1 X126.920 Y20.806 E18.90430
G1 X126.933 Y21.149 E18.94549
G1 X126.962 Y21.408 E18.97676
G1 X127.012 Y21.670 E19.00877
G1 X127.085 Y21.938 E19.04210
G1 X127.173 Y22.187 E19.07379
G1 X127.283 Y22.438 E19.10668
G1 X127.418 Y22.690 E19.14099
G1 X127.552 Y22.901 E19.17098
G1 X127.816 Y23.253 E19.22378
G1 X128.113 Y23.675 E19.28570
G1 X128.432 Y24.284 E19.36820
G1 X128.662 Y24.927 E19.45015
G1 X128.808 Y25.590 E19.53162
G1 X128.864 Y26.272 E19.61373
G1 X128.829 Y26.954 E19.69568
G1 X128.704 Y27.626 E19.77770
G1 X128.491 Y28.275 E19.85967
G1 X128.196 Y28.888 E19.94131
G1 X127.820 Y29.460 E20.02345
G1 X127.351 Y29.999 E20.10919
G1 X126.732 Y30.526 E20.20674
G1 X123.789 Y32.245 E20.61573
G1 X118.582 Y35.244 E21.33680
G1 X118.582 Y31.172 E21.82544
G1 X118.452 Y31.302 E21.84750
G1 X117.893 Y31.721 E21.93133
G1 X117.276 Y32.058 E22.01570
G1 X116.623 Y32.300 E22.09926
G1 X115.872 Y32.465 E22.19153
G1 X114.743 Y32.494 E22.32706
G1 X114.002 Y32.442 E22.41620
G1 X113.298 Y32.274 E22.50305
G1 X112.649 Y32.021 E22.58664
G1 X112.031 Y31.670 E22.67192
G1 X111.475 Y31.235 E22.75664
G1 X111.418 Y31.176 E22.76648
G1 X111.418 Y31.556 E22.81208
G1 X108.218 Y33.403 E23.25546
G1 X104.079 Y31.013 E23.82899
G1 X103.194 Y30.474 E23.95334
G1 X102.631 Y29.978 E24.04338
G1 X102.180 Y29.460 E24.12580
G1 X101.804 Y28.888 E24.20794
G1 X101.509 Y28.275 E24.28957
G1 X101.296 Y27.626 E24.37154
G1 X101.171 Y26.954 E24.45356
G1 X101.136 Y26.272 E24.53551
G1 X101.192 Y25.590 E24.61763
G1 X101.338 Y24.927 E24.69909
G1 X101.568 Y24.284 E24.78104
G1 X101.901 Y23.647 E24.86730
G1 X102.443 Y22.909 E24.97717
G1 X102.582 Y22.690 E25.00830
G1 X102.717 Y22.438 E25.04261
G1 X102.827 Y22.187 E25.07549
G1 X102.915 Y21.938 E25.10718
G1 X102.988 Y21.670 E25.14051
G1 X103.038 Y21.408 E25.17252
G1 X103.067 Y21.149 E25.20380
G1 X103.080 Y20.806 E25.24498
G1 X103.080 Y14.940 E25.94890
G1 X102.362 Y14.683 E26.04042
G1 X101.622 Y14.224 E26.14491
G1 X101.004 Y13.601 E26.25022
G1 X100.539 Y12.867 E26.35448
G1 X100.205 Y11.904 E26.47680
G1 X100.171 Y10.596 E26.63381
G10
G0 F9000 X103.975 Y10.680
;TYPE:WALL-INNER
G11
G1 F1800 X103.984 Y10.561 E26.64813
G1 X104.012 Y10.530 E26.65314
G1 X105.427 Y10.514 E26.82295
G1 X125.917 Y10.514 E29.28175
G1 X125.979 Y10.524 E29.28929
G1 X126.005 Y10.544 E29.29323
G1 X126.012 Y10.554 E29.29469
G1 X126.025 Y11.085 E29.35843
G1 X126.014 Y11.206 E29.37301
G1 X125.996 Y11.231 E29.37671
G1 X125.987 Y11.236 E29.37794
G1 X124.022 Y11.252 E29.61375
G1 X123.120 Y11.252 E29.72199
G1 X123.120 Y20.882 E30.87759
G1 X123.140 Y21.428 E30.94315
G1 X123.203 Y21.981 E31.00994
G1 X123.308 Y22.529 E31.07690
G1 X123.454 Y23.067 E31.14380
G1 X123.639 Y23.592 E31.21059
G1 X123.864 Y24.103 E31.27759
G1 X124.126 Y24.595 E31.34448
G1 X124.426 Y25.065 E31.41139
G1 X124.737 Y25.480 E31.47362
G1 X124.860 Y25.654 E31.49919
G1 X124.943 Y25.813 E31.52072
G1 X125.004 Y25.984 E31.54250
G1 X125.041 Y26.153 E31.56326
G1 X125.056 Y26.333 E31.58494
G1 X125.047 Y26.506 E31.60573
G1 X125.014 Y26.685 E31.62757
G1 X124.959 Y26.852 E31.64867
G1 X124.883 Y27.009 E31.66960
G1 X124.782 Y27.163 E31.69170
G1 X124.675 Y27.287 E31.71135
G1 X124.524 Y27.415 E31.73511
G1 X122.382 Y28.666 E32.03277
G1 X122.382 Y16.674 E33.47181
G1 X122.357 Y16.334 E33.51273
G1 X122.280 Y15.981 E33.55608
G1 X122.154 Y15.641 E33.59959
G1 X121.980 Y15.323 E33.64309
G1 X121.763 Y15.033 E33.68656
G1 X121.507 Y14.777 E33.73000
G1 X121.218 Y14.560 E33.77337
G1 X120.899 Y14.386 E33.81697
G1 X120.559 Y14.260 E33.86048
G1 X120.187 Y14.178 E33.90620
G1 X117.340 Y14.158 E34.24784
G1 X116.337 Y14.158 E34.36820
G1 X116.337 Y27.567 E35.97728
G1 X116.324 Y27.758 E36.00026
G1 X116.293 Y27.901 E36.01782
G1 X116.236 Y28.051 E36.03707
G1 X116.164 Y28.184 E36.05522
G1 X116.066 Y28.315 E36.07485
G1 X115.961 Y28.420 E36.09267
G1 X115.830 Y28.518 E36.11230
G1 X115.700 Y28.589 E36.13008
G1 X115.548 Y28.645 E36.14952
G1 X115.411 Y28.675 E36.16635
G1 X114.831 Y28.690 E36.23597
G1 X114.579 Y28.672 E36.26629
G1 X114.431 Y28.637 E36.28454
G1 X114.290 Y28.582 E36.30270
G1 X114.148 Y28.501 E36.32232
G1 X114.031 Y28.410 E36.34010
G1 X113.842 Y28.193 E36.37463
G1 X113.754 Y28.023 E36.39761
G1 X113.699 Y27.863 E36.41791
G1 X113.680 Y27.774 E36.42883
G1 X113.662 Y14.158 E38.06275
G1 X110.549 Y14.158 E38.43631
G1 X109.886 Y14.176 E38.51590
G1 X109.792 Y14.183 E38.52721
G1 X109.441 Y14.260 E38.57033
G1 X109.101 Y14.386 E38.61384
G1 X108.782 Y14.560 E38.65745
G1 X108.493 Y14.777 E38.70082
G1 X108.237 Y15.033 E38.74426
G1 X108.020 Y15.323 E38.78772
G1 X107.846 Y15.641 E38.83122
G1 X107.720 Y15.981 E38.87474
G1 X107.638 Y16.355 E38.92068
G1 X107.618 Y27.915 E40.30788
G1 X107.618 Y28.668 E40.39824
G1 X106.012 Y27.741 E40.62076
G1 X105.457 Y27.404 E40.69868
G1 X105.329 Y27.291 E40.71917
G1 X105.218 Y27.163 E40.73950
G1 X105.117 Y27.009 E40.76160
G1 X105.041 Y26.852 E40.78253
G1 X104.986 Y26.685 E40.80363
G1 X104.953 Y26.506 E40.82547
G1 X104.944 Y26.333 E40.84626
G1 X104.959 Y26.153 E40.86794
G1 X104.996 Y25.984 E40.88870
G1 X105.057 Y25.813 E40.91048
G1 X105.136 Y25.662 E40.93093
G1 X105.575 Y25.063 E41.02005
G1 X105.874 Y24.595 E41.08669
G1 X106.136 Y24.103 E41.15358
G1 X106.361 Y23.592 E41.22058
G1 X106.546 Y23.067 E41.28738
G1 X106.692 Y22.529 E41.35428
G1 X106.797 Y21.981 E41.42123
G1 X106.860 Y21.428 E41.48802
G1 X106.880 Y20.882 E41.55359
G1 X106.880 Y11.252 E42.70919
G1 X104.381 Y11.252 E43.00907
G1 X104.017 Y11.238 E43.05278
G1 X103.995 Y11.222 E43.05604
G1 X103.988 Y11.211 E43.05761
G1 X103.975 Y10.680 E43.12135
G0 F9000 X103.574 Y10.667
;TYPE:WALL-OUTER
G1 F1800 X103.588 Y10.484 E43.14337
G1 X103.624 Y10.382 E43.15635
G1 X103.679 Y10.294 E43.16880
G1 X103.754 Y10.219 E43.18153
G1 X103.842 Y10.164 E43.19398
G1 X103.937 Y10.131 E43.20605
G1 X105.422 Y10.114 E43.38426
G1 X125.935 Y10.114 E45.84582
G1 X126.054 Y10.127 E45.86019
G1 X126.158 Y10.164 E45.87343
G1 X126.246 Y10.219 E45.88589
G1 X126.321 Y10.294 E45.89862
G1 X126.376 Y10.382 E45.91107
G1 X126.410 Y10.478 E45.92329
G1 X126.426 Y11.098 E45.99771
G1 X126.412 Y11.281 E46.01974
G1 X126.377 Y11.381 E46.03245
G1 X126.321 Y11.470 E46.04507
G1 X126.245 Y11.547 E46.05805
G1 X126.154 Y11.604 E46.07094
G1 X126.065 Y11.635 E46.08225
G1 X124.025 Y11.652 E46.32706
G1 X123.520 Y11.652 E46.38766
G1 X123.520 Y20.875 E47.49442
G1 X123.539 Y21.398 E47.55722
G1 X123.599 Y21.921 E47.62039
G1 X123.698 Y22.439 E47.68367
G1 X123.836 Y22.948 E47.74696
G1 X124.011 Y23.445 E47.81019
G1 X124.224 Y23.928 E47.87353
G1 X124.472 Y24.393 E47.93677
G1 X124.755 Y24.838 E48.00006
G1 X125.067 Y25.254 E48.06246
G1 X125.202 Y25.445 E48.09053
G1 X125.311 Y25.653 E48.11870
G1 X125.389 Y25.871 E48.14649
G1 X125.438 Y26.095 E48.17400
G1 X125.457 Y26.320 E48.20110
G1 X125.445 Y26.554 E48.22922
G1 X125.402 Y26.787 E48.25765
G1 X125.331 Y27.001 E48.28471
G1 X125.231 Y27.209 E48.31240
G1 X125.104 Y27.402 E48.34013
G1 X124.955 Y27.574 E48.36743
G1 X124.758 Y27.741 E48.39842
G1 X122.082 Y29.304 E48.77031
G1 X121.982 Y29.362 E48.78418
G1 X121.982 Y16.689 E50.30494
G1 X121.960 Y16.391 E50.34080
G1 X121.895 Y16.094 E50.37728
G1 X121.789 Y15.808 E50.41388
G1 X121.643 Y15.540 E50.45050
G1 X121.460 Y15.296 E50.48710
G1 X121.244 Y15.080 E50.52376
G1 X121.001 Y14.897 E50.56026
G1 X120.732 Y14.751 E50.59699
G1 X120.446 Y14.645 E50.63359
G1 X120.142 Y14.578 E50.67095
G1 X117.339 Y14.558 E51.00732
G1 X116.737 Y14.558 E51.07956
G1 X116.737 Y27.581 E52.64232
G1 X116.721 Y27.816 E52.67058
G1 X116.677 Y28.015 E52.69504
G1 X116.602 Y28.217 E52.72090
G1 X116.501 Y28.401 E52.74608
G1 X116.369 Y28.578 E52.77258
G1 X116.224 Y28.723 E52.79719
G1 X116.049 Y28.854 E52.82342
G1 X115.867 Y28.954 E52.84834
G1 X115.658 Y29.031 E52.87507
G1 X115.461 Y29.074 E52.89926
G1 X114.824 Y29.091 E52.97573
G1 X114.519 Y29.069 E53.01243
G1 X114.310 Y29.019 E53.03821
G1 X114.117 Y28.944 E53.06306
G1 X113.929 Y28.837 E53.08902
G1 X113.759 Y28.705 E53.11485
G1 X113.609 Y28.548 E53.14090
G1 X113.502 Y28.405 E53.16234
G1 X113.386 Y28.183 E53.19239
G1 X113.314 Y27.974 E53.21892
G1 X113.280 Y27.818 E53.23808
G1 X113.263 Y14.558 E54.82928
G1 X110.554 Y14.558 E55.15436
G1 X109.907 Y14.575 E55.23203
G1 X109.851 Y14.580 E55.23877
G1 X109.554 Y14.645 E55.27526
G1 X109.268 Y14.751 E55.31186
G1 X108.999 Y14.897 E55.34859
G1 X108.756 Y15.080 E55.38509
G1 X108.540 Y15.296 E55.42175
G1 X108.357 Y15.540 E55.45835
G1 X108.211 Y15.808 E55.49497
G1 X108.105 Y16.094 E55.53157
G1 X108.038 Y16.398 E55.56893
G1 X108.019 Y29.362 E57.12461
G1 X105.816 Y28.090 E57.42987
G1 X105.215 Y27.724 E57.51431
G1 X105.048 Y27.576 E57.54109
G1 X104.896 Y27.402 E57.56881
G1 X104.769 Y27.209 E57.59654
G1 X104.669 Y27.001 E57.62423
G1 X104.598 Y26.787 E57.65129
G1 X104.555 Y26.554 E57.67972
G1 X104.543 Y26.320 E57.70784
G1 X104.562 Y26.095 E57.73493
G1 X104.611 Y25.871 E57.76245
G1 X104.689 Y25.653 E57.79023
G1 X104.796 Y25.448 E57.81798
G1 X105.245 Y24.837 E57.90897
G1 X105.528 Y24.393 E57.97215
G1 X105.776 Y23.928 E58.03539
G1 X105.989 Y23.445 E58.09874
G1 X106.164 Y22.948 E58.16197
G1 X106.302 Y22.439 E58.22525
G1 X106.401 Y21.921 E58.28854
G1 X106.461 Y21.398 E58.35171
G1 X106.480 Y20.875 E58.41451
G1 X106.480 Y11.652 E59.52127
G1 X104.366 Y11.652 E59.77495
G1 X103.937 Y11.636 E59.82647
G1 X103.846 Y11.604 E59.83804
G1 X103.755 Y11.547 E59.85093
G1 X103.679 Y11.470 E59.86391
G1 X103.623 Y11.381 E59.87653
G1 X103.590 Y11.287 E59.88849
G1 X103.574 Y10.667 E59.96291
G0 F9000 X104.289 Y10.668
;TYPE:SKIN
G1 F1800 X104.793 Y10.889 E60.03803
G1 X105.359 Y10.889 E60.11308
G1 X105.924 Y10.889 E60.18817
G1 X106.490 Y10.889 E60.26322
G1 X106.995 Y11.111 E60.32942
G0 F9000 X107.019 Y11.135
G1 F1800 X109.918 Y14.034 E60.82139
G0 F9000 X109.436 Y14.118
G1 F1800 X107.019 Y11.701 E61.23157
G0 F9000 X107.019 Y12.266
G1 F1800 X109.021 Y14.269 E61.57141
G0 F9000 X108.661 Y14.474
G1 F1800 X107.019 Y12.832 E61.85007
G0 F9000 X107.019 Y13.398
G1 F1800 X108.346 Y14.725 E62.07526
G0 F9000 X108.073 Y15.018
G1 F1800 X107.019 Y13.963 E62.25422
G0 F9000 X107.019 Y14.529
G1 F1800 X107.843 Y15.354 E62.39414
G0 F9000 X107.661 Y15.737
G1 F1800 X107.019 Y15.095 E62.50309
G0 F9000 X107.019 Y15.661
G1 F1800 X107.276 Y16.201 E62.59029
G1 X107.258 Y16.748 E62.67140
G1 X107.257 Y17.313 E62.75225
G1 X107.257 Y17.878 E62.83293
G1 X107.257 Y18.444 E62.91358
G1 X107.256 Y19.009 E62.99393
G1 X107.255 Y19.574 E63.07393
G1 X107.255 Y20.139 E63.15394
G1 X107.254 Y20.705 E63.23374
G1 X107.246 Y21.262 E63.31362
G1 X107.221 Y21.803 E63.39600
G1 X107.488 Y22.353 E63.46936
G0 F9000 X107.487 Y22.917
G1 F1800 X106.876 Y22.306 E63.57305
G0 F9000 X106.771 Y22.766
G1 F1800 X107.486 Y23.482 E63.69448
G0 F9000 X107.485 Y24.047
G1 F1800 X106.644 Y23.205 E63.83729
G0 F9000 X106.496 Y23.623
G1 F1800 X107.484 Y24.611 E64.00495
G0 F9000 X107.483 Y25.176
G1 F1800 X106.325 Y24.018 E64.20147
G0 F9000 X106.137 Y24.395
G1 F1800 X107.483 Y25.741 E64.42990
G0 F9000 X107.481 Y26.305
G1 F1800 X105.934 Y24.758 E64.69243
G0 F9000 X105.713 Y25.102
G1 F1800 X107.480 Y26.870 E64.99239
G0 F9000 X107.480 Y27.435
G1 F1800 X105.476 Y25.431 E65.33248
G0 F9000 X105.240 Y25.761
G1 F1800 X107.478 Y28.000 E65.71236
G0 F9000 X107.150 Y28.236
G1 F1800 X105.095 Y26.182 E66.06102
G0 F9000 X105.192 Y26.844
G1 F1800 X105.792 Y27.444 E66.16285
G0 F9000 X108.021 Y15.323
G0 X109.441 Y14.261
G0 X113.603 Y14.217
G0 X113.818 Y27.551
G1 F1800 X114.815 Y28.548 E66.33204
G0 F9000 X115.368 Y28.535
G1 F1800 X113.818 Y26.985 E66.59509
G0 F9000 X113.817 Y26.418
G1 F1800 X115.778 Y28.380 E66.92796
G0 F9000 X116.055 Y28.091
G1 F1800 X113.816 Y25.852 E67.30794
G0 F9000 X113.815 Y25.286
G1 F1800 X116.189 Y27.659 E67.71073
G0 F9000 X116.196 Y27.101
G1 F1800 X113.815 Y24.719 E68.11489
G0 F9000 X113.814 Y24.153
G1 F1800 X116.196 Y26.535 E68.51912
G0 F9000 X116.196 Y25.969
G1 F1800 X113.813 Y23.586 E68.92353
G0 F9000 X113.813 Y23.020
G1 F1800 X116.196 Y25.404 E69.32803
G0 F9000 X116.196 Y24.838
G1 F1800 X113.811 Y22.453 E69.73277
G0 F9000 X113.810 Y21.887
G1 F1800 X116.196 Y24.272 E70.13761
G0 F9000 X116.196 Y23.707
G1 F1800 X113.810 Y21.320 E70.54261
G0 F9000 X113.809 Y20.754
G1 F1800 X116.196 Y23.141 E70.94770
G0 F9000 X116.196 Y22.575
G1 F1800 X113.808 Y20.187 E71.35295
G0 F9000 X113.808 Y19.621
G1 F1800 X116.196 Y22.010 E71.75830
G0 F9000 X116.196 Y21.444
G1 F1800 X113.807 Y19.055 E72.16372
G0 F9000 X113.806 Y18.488
G1 F1800 X116.196 Y20.878 E72.56932
G0 F9000 X116.196 Y20.313
G1 F1800 X113.806 Y17.922 E72.97500
G0 F9000 X113.805 Y17.355
G1 F1800 X116.196 Y19.747 E73.38085
G0 F9000 X116.196 Y19.181
G1 F1800 X113.804 Y16.789 E73.78679
G0 F9000 X113.803 Y16.223
G1 F1800 X116.196 Y18.616 E74.19289
G0 F9000 X116.196 Y18.050
G1 F1800 X113.803 Y15.656 E74.59908
G0 F9000 X113.802 Y15.090
G1 F1800 X116.196 Y17.484 E75.00536
G0 F9000 X116.196 Y16.918
