;FLAVOR:UltiGCode
;TIME:2894
;MATERIAL:5510
;MATERIAL2:0

;Layer count: 135
;LAYER:0
M107
G0 F9000 X34.619 Y43.235 Z0.300
;TYPE:SKIRT
G1 F1800 X65.699 Y43.235 E3.72960
G1 X68.777 Y46.313 E4.25195
G1 X68.777 Y54.138 E5.19095
G1 X65.699 Y57.216 E5.71331
G1 X62.963 Y57.216 E6.04163
G1 X62.963 Y60.187 E6.39815
G1 X37.355 Y60.187 E9.47111
G1 X37.355 Y57.216 E9.82763
G1 X34.619 Y57.216 E10.15595
G1 X31.541 Y54.138 E10.67830
G1 X31.541 Y46.313 E11.61730
G1 X34.619 Y43.235 E12.13966
G0 F9000 X34.785 Y43.635
G1 F1800 X65.533 Y43.635 E15.82942
G1 X68.377 Y46.479 E16.31206
G1 X68.377 Y53.972 E17.21122
G1 X65.533 Y56.816 E17.69386
G1 X62.563 Y56.816 E18.05026
G1 X62.563 Y59.787 E18.40678
G1 X37.755 Y59.787 E21.38374
G1 X37.755 Y56.816 E21.74026
G1 X34.785 Y56.816 E22.09666
G1 X31.941 Y53.972 E22.57930
G1 X31.941 Y46.479 E23.47846
G1 X34.785 Y43.635 E23.96111
G10
G0 F9000 X35.937 Y48.050
;TYPE:FILL
G11
G1 F1800 X36.099 Y48.212 E23.98860
G10
G0 F9000 X41.064 Y48.332
G11
G1 F1800 X41.529 Y48.797 E24.06751
G0 F9000 X42.229 Y47.881
G1 F1800 X41.921 Y47.574 E24.11970
G0 F9000 X41.356 Y49.783
G0 X41.496 Y50.374
G0 X41.283 Y51.781
G1 F1800 X42.377 Y52.875 E24.30535
G0 F9000 X40.762 Y52.875
G1 F1800 X40.544 Y52.656 E24.34244
G10
G0 F9000 X46.767 Y47.574
G11
G1 F1800 X47.587 Y48.395 E24.48168
G10
G0 F9000 X53.227 Y47.574
G11
G1 F1800 X53.692 Y48.040 E24.56068
G10
G0 F9000 X58.073 Y47.575
G11
G1 F1800 X59.085 Y48.588 E24.73250
G0 F9000 X59.844 Y47.731
G1 F1800 X59.688 Y47.575 E24.75898
G10
G0 F9000 X58.834 Y51.567
G11
G1 F1800 X59.013 Y51.746 E24.78936
G0 F9000 X58.155 Y52.502
G1 F1800 X58.528 Y52.876 E24.85274
G10
G0 F9000 X64.276 Y52.163
G11
G1 F1800 X64.436 Y52.323 E24.87989
G0 F9000 X64.068 Y52.206
;TYPE:WALL-INNER
G1 F1800 X64.314 Y51.885 E24.92842
G1 X64.531 Y51.493 E24.98219
G1 X64.577 Y51.369 E24.99806
G1 X64.577 Y52.399 E25.12166
G1 X63.960 Y53.016 E25.22637
G1 X62.947 Y53.016 E25.34793
G1 X63.368 Y52.802 E25.40460
G1 X63.741 Y52.531 E25.45993
G1 X64.068 Y52.206 E25.51525
G0 F9000 X64.776 Y50.671
G0 X64.515 Y48.925
G1 F1800 X64.311 Y48.561 E25.56532
G1 X63.997 Y48.167 E25.62578
G1 X63.695 Y47.882 E25.67561
G1 X63.331 Y47.629 E25.72881
G1 X62.943 Y47.435 E25.78086
G1 X63.960 Y47.435 E25.90290
G1 X64.577 Y48.052 E26.00761
G1 X64.577 Y49.084 E26.13145
G1 X64.515 Y48.925 E26.15193
G10
G0 F9000 X60.359 Y47.561
G11
G1 F1800 X59.972 Y47.809 E26.20709
G1 X59.658 Y48.078 E26.25670
G1 X59.363 Y48.419 E26.31081
G1 X59.141 Y48.760 E26.35964
G1 X58.954 Y49.164 E26.41306
G1 X58.881 Y49.416 E26.44454
G1 X58.701 Y48.922 E26.50764
G1 X58.473 Y48.526 E26.56247
G1 X58.182 Y48.166 E26.61802
G1 X57.881 Y47.882 E26.66768
G1 X57.518 Y47.629 E26.72077
G1 X57.129 Y47.435 E26.77294
G1 X60.644 Y47.435 E27.19474
G1 X60.359 Y47.561 E27.23213
G10
G0 F9000 X58.968 Y51.324
G11
G1 F1800 X59.161 Y51.728 E27.28586
G1 X59.389 Y52.071 E27.33528
G1 X59.697 Y52.412 E27.39042
G1 X60.019 Y52.680 E27.44070
G1 X60.430 Y52.926 E27.49818
G1 X60.641 Y53.016 E27.52570
G1 X57.644 Y53.016 E27.88534
G1 X57.644 Y54.068 E28.01158
G1 X58.752 Y55.987 E28.27749
G1 X41.566 Y55.987 E30.33981
G1 X42.585 Y54.222 E30.58437
G1 X42.674 Y54.073 E30.60520
G1 X42.674 Y53.016 E30.73204
G1 X39.676 Y53.016 E31.09180
G1 X39.960 Y52.890 E31.12909
G1 X40.346 Y52.642 E31.18414
G1 X40.657 Y52.376 E31.23325
G1 X40.932 Y52.068 E31.28280
G1 X41.176 Y51.693 E31.33649
G1 X41.364 Y51.288 E31.39007
G1 X41.437 Y51.036 E31.42155
G1 X41.617 Y51.530 E31.48464
G1 X41.845 Y51.927 E31.53958
G1 X42.136 Y52.287 E31.59513
G1 X42.437 Y52.569 E31.64462
G1 X42.799 Y52.823 E31.69769
G1 X43.198 Y53.022 E31.75120
G1 X43.618 Y53.158 E31.80417
G1 X44.025 Y53.231 E31.85379
G1 X44.444 Y53.248 E31.90411
G1 X44.920 Y53.194 E31.96160
G1 X45.356 Y53.075 E32.01583
G1 X45.774 Y52.890 E32.07069
G1 X46.159 Y52.641 E32.12571
G1 X46.470 Y52.376 E32.17474
G1 X46.745 Y52.068 E32.22429
G1 X46.989 Y51.693 E32.27797
G1 X47.177 Y51.288 E32.33155
G1 X47.250 Y51.034 E32.36327
G1 X47.268 Y51.111 E32.37276
G1 X47.431 Y51.530 E32.42671
G1 X47.657 Y51.923 E32.48111
G1 X47.912 Y52.249 E32.53078
G1 X48.249 Y52.568 E32.58646
G1 X48.613 Y52.823 E32.63979
G1 X49.011 Y53.022 E32.69319
G1 X49.432 Y53.158 E32.74628
G1 X49.838 Y53.231 E32.79578
G1 X50.256 Y53.248 E32.84598
G1 X50.732 Y53.194 E32.90347
G1 X51.169 Y53.075 E32.95782
G1 X51.586 Y52.890 E33.01256
G1 X51.972 Y52.642 E33.06762
G1 X52.283 Y52.376 E33.11673
G1 X52.558 Y52.068 E33.16628
G1 X52.802 Y51.693 E33.21996
G1 X52.990 Y51.288 E33.27354
G1 X53.065 Y51.031 E33.30567
G1 X53.155 Y51.324 E33.34245
G1 X53.350 Y51.731 E33.39661
G1 X53.609 Y52.111 E33.45179
G1 X53.886 Y52.413 E33.50097
G1 X54.205 Y52.680 E33.55089
G1 X54.619 Y52.928 E33.60880
G1 X55.029 Y53.097 E33.66201
G1 X55.430 Y53.200 E33.71170
G1 X55.823 Y53.244 E33.75915
G1 X55.896 Y53.246 E33.76791
G1 X56.323 Y53.229 E33.81919
G1 X56.764 Y53.144 E33.87309
G1 X57.156 Y53.008 E33.92288
G1 X57.555 Y52.802 E33.97676
G1 X57.927 Y52.531 E34.03199
G1 X58.257 Y52.203 E34.08783
G1 X58.519 Y51.852 E34.14039
G1 X58.716 Y51.494 E34.18942
G1 X58.881 Y51.042 E34.24716
G1 X58.968 Y51.324 E34.28258
G10
G0 F9000 X54.545 Y47.561
G11
G1 F1800 X54.159 Y47.810 E34.33770
G1 X53.845 Y48.078 E34.38724
G1 X53.550 Y48.419 E34.44134
G1 X53.328 Y48.760 E34.49017
G1 X53.141 Y49.164 E34.54359
G1 X53.067 Y49.422 E34.57580
G1 X52.977 Y49.131 E34.61235
G1 X52.776 Y48.713 E34.66801
G1 X52.555 Y48.382 E34.71577
G1 X52.247 Y48.040 E34.77100
G1 X51.925 Y47.771 E34.82135
G1 X51.510 Y47.523 E34.87936
G1 X51.296 Y47.435 E34.90713
G1 X54.831 Y47.435 E35.33133
G1 X54.545 Y47.561 E35.36883
G10
G0 F9000 X48.578 Y47.650
G11
G1 F1800 X48.204 Y47.919 E35.42412
G1 X47.876 Y48.247 E35.47978
G1 X47.630 Y48.568 E35.52831
G1 X47.414 Y48.959 E35.58191
G1 X47.251 Y49.414 E35.63991
G1 X47.164 Y49.131 E35.67544
G1 X46.963 Y48.713 E35.73110
G1 X46.742 Y48.382 E35.77886
G1 X46.434 Y48.040 E35.83409
G1 X46.113 Y47.771 E35.88435
G1 X45.698 Y47.523 E35.94236
G1 X45.484 Y47.435 E35.97013
G1 X49.001 Y47.435 E36.39217
G1 X48.578 Y47.650 E36.44911
G10
G0 F9000 X42.764 Y47.650
G11
G1 F1800 X42.391 Y47.920 E36.50436
G1 X42.063 Y48.247 E36.55994
G1 X41.817 Y48.568 E36.60847
G1 X41.602 Y48.958 E36.66191
G1 X41.437 Y49.410 E36.71965
G1 X41.351 Y49.131 E36.75469
G1 X41.150 Y48.713 E36.81035
G1 X40.929 Y48.382 E36.85811
G1 X40.621 Y48.040 E36.91334
G1 X40.299 Y47.771 E36.96368
G1 X39.884 Y47.523 E37.02170
G1 X39.670 Y47.435 E37.04947
G1 X43.188 Y47.435 E37.47163
G1 X42.764 Y47.650 E37.52867
G10
G0 F9000 X36.951 Y47.650
G11
G1 F1800 X36.577 Y47.920 E37.58403
G1 X36.250 Y48.246 E37.63944
G1 X36.004 Y48.567 E37.68797
G1 X35.787 Y48.959 E37.74173
G1 X35.741 Y49.083 E37.75760
G1 X35.741 Y48.052 E37.88132
G1 X36.358 Y47.435 E37.98603
G1 X37.374 Y47.435 E38.10795
G1 X36.951 Y47.650 E38.16489
G0 F9000 X35.634 Y49.374
G0 X35.542 Y49.781
G0 X35.804 Y51.530
G1 F1800 X36.032 Y51.927 E38.21983
G1 X36.323 Y52.287 E38.27538
G1 X36.623 Y52.569 E38.32479
G1 X36.986 Y52.823 E38.37795
G1 X37.372 Y53.016 E38.42974
G1 X36.358 Y53.016 E38.55142
G1 X35.741 Y52.399 E38.65613
G1 X35.741 Y51.368 E38.77985
G1 X35.804 Y51.530 E38.80070
G0 F9000 X36.166 Y51.357
;TYPE:WALL-OUTER
G1 F1800 X36.363 Y51.700 E38.84817
G1 X36.617 Y52.014 E38.89664
G1 X36.876 Y52.258 E38.93934
G1 X37.191 Y52.478 E38.98544
G1 X37.536 Y52.651 E39.03176
G1 X37.902 Y52.769 E39.07790
G1 X38.255 Y52.832 E39.12093
G1 X38.615 Y52.847 E39.16417
G1 X39.030 Y52.800 E39.21429
G1 X39.408 Y52.697 E39.26130
G1 X39.769 Y52.537 E39.30868
G1 X40.107 Y52.320 E39.35688
G1 X40.376 Y52.089 E39.39943
G1 X40.613 Y51.824 E39.44210
G1 X40.825 Y51.499 E39.48866
G1 X40.988 Y51.147 E39.53521
G1 X41.096 Y50.777 E39.58146
G1 X41.148 Y50.420 E39.62475
G1 X41.149 Y50.060 E39.66795
G1 X41.092 Y49.650 E39.71763
G1 X40.977 Y49.276 E39.76458
G1 X40.806 Y48.918 E39.81219
G1 X40.612 Y48.628 E39.85406
G1 X40.343 Y48.329 E39.90232
G1 X40.067 Y48.098 E39.94551
G1 X39.705 Y47.882 E39.99610
G1 X39.349 Y47.736 E40.04227
G1 X39.002 Y47.646 E40.08529
G1 X38.615 Y47.606 E40.13197
G1 X38.228 Y47.621 E40.17845
G1 X37.845 Y47.695 E40.22526
G1 X37.506 Y47.813 E40.26833
G1 X37.161 Y47.991 E40.31492
G1 X36.837 Y48.225 E40.36288
G1 X36.551 Y48.511 E40.41141
G1 X36.339 Y48.787 E40.45318
G1 X36.152 Y49.126 E40.49964
G1 X36.017 Y49.488 E40.54600
G1 X35.938 Y49.840 E40.58929
G1 X35.909 Y50.227 E40.63586
G1 X35.944 Y50.642 E40.68584
G1 X36.024 Y50.993 E40.72904
G1 X36.166 Y51.357 E40.77592
G0 F9000 X35.341 Y52.565
G1 F1800 X35.341 Y47.886 E41.33740
G1 X36.192 Y47.035 E41.48182
G1 X64.126 Y47.035 E44.83390
G1 X64.977 Y47.886 E44.97832
G1 X64.977 Y52.565 E45.53980
G1 X64.126 Y53.416 E45.68422
G1 X58.044 Y53.416 E46.41406
G1 X58.044 Y53.961 E46.47946
G1 X59.163 Y55.898 E46.74790
G1 X59.163 Y56.387 E46.80658
G1 X41.155 Y56.387 E48.96754
G1 X41.155 Y55.898 E49.02622
G1 X42.236 Y54.025 E49.28573
G1 X42.274 Y53.962 E49.29456
G1 X42.274 Y53.416 E49.36008
G1 X36.192 Y53.416 E50.08992
G1 X35.341 Y52.565 E50.23434
G10
G0 F9000 X41.837 Y50.993
G11
G1 F1800 X41.979 Y51.357 E50.28122
G1 X42.176 Y51.700 E50.32869
G1 X42.430 Y52.014 E50.37715
G1 X42.690 Y52.258 E50.41994
G1 X43.004 Y52.478 E50.46595
G1 X43.350 Y52.651 E50.51237
G1 X43.715 Y52.769 E50.55840
G1 X44.068 Y52.832 E50.60143
G1 X44.429 Y52.847 E50.64479
G1 X44.844 Y52.800 E50.69491
G1 X45.221 Y52.697 E50.74180
G1 X45.583 Y52.537 E50.78930
G1 X45.920 Y52.320 E50.83740
G1 X46.189 Y52.089 E50.87994
G1 X46.426 Y51.824 E50.92261
G1 X46.638 Y51.499 E50.96917
G1 X46.801 Y51.147 E51.01572
G1 X46.909 Y50.777 E51.06197
G1 X46.962 Y50.420 E51.10528
G1 X46.963 Y50.060 E51.14848
G1 X46.905 Y49.649 E51.19829
G1 X46.790 Y49.276 E51.24513
G1 X46.619 Y48.918 E51.29274
G1 X46.425 Y48.628 E51.33461
G1 X46.156 Y48.329 E51.38287
G1 X45.880 Y48.098 E51.42606
G1 X45.519 Y47.882 E51.47654
G1 X45.162 Y47.736 E51.52283
G1 X44.815 Y47.646 E51.56585
G1 X44.429 Y47.606 E51.61241
G1 X44.041 Y47.621 E51.65901
G1 X43.658 Y47.695 E51.70582
G1 X43.320 Y47.813 E51.74878
G1 X42.974 Y47.991 E51.79547
G1 X42.651 Y48.225 E51.84333
G1 X42.364 Y48.511 E51.89195
G1 X42.153 Y48.787 E51.93364
G1 X41.966 Y49.126 E51.98010
G1 X41.830 Y49.488 E52.02651
G1 X41.752 Y49.840 E52.06977
G1 X41.723 Y50.227 E52.11634
G1 X41.758 Y50.641 E52.16620
G1 X41.837 Y50.993 E52.20949
G0 F9000 X41.557 Y51.101
G0 X42.437 Y52.568
G0 X44.443 Y53.247
G0 X46.158 Y52.641
G0 X47.300 Y50.862
G0 X47.279 Y50.708
G0 X47.571 Y50.642
G1 F1800 X47.651 Y50.993 E52.25269
G1 X47.793 Y51.357 E52.29958
G1 X47.990 Y51.699 E52.34694
G1 X48.209 Y51.979 E52.38960
G1 X48.502 Y52.257 E52.43806
G1 X48.818 Y52.478 E52.48434
G1 X49.163 Y52.651 E52.53065
G1 X49.529 Y52.769 E52.57680
G1 X49.882 Y52.832 E52.61983
G1 X50.241 Y52.847 E52.66294
G1 X50.656 Y52.800 E52.71306
G1 X51.034 Y52.697 E52.76008
G1 X51.395 Y52.537 E52.80746
G1 X51.733 Y52.320 E52.85566
G1 X52.002 Y52.089 E52.89821
G1 X52.239 Y51.824 E52.94087
G1 X52.451 Y51.499 E52.98743
G1 X52.614 Y51.147 E53.03398
G1 X52.722 Y50.777 E53.08024
G1 X52.774 Y50.420 E53.12353
G1 X52.775 Y50.059 E53.16685
G1 X52.709 Y49.619 E53.22024
G1 X52.603 Y49.276 E53.26332
G1 X52.432 Y48.918 E53.31093
G1 X52.238 Y48.628 E53.35280
G1 X51.969 Y48.329 E53.40106
G1 X51.693 Y48.098 E53.44425
G1 X51.331 Y47.882 E53.49484
G1 X50.975 Y47.736 E53.54101
G1 X50.627 Y47.646 E53.58414
G1 X50.241 Y47.606 E53.63071
G1 X49.855 Y47.621 E53.67707
G1 X49.472 Y47.695 E53.72388
G1 X49.133 Y47.813 E53.76695
G1 X48.788 Y47.991 E53.81354
G1 X48.464 Y48.225 E53.86149
G1 X48.177 Y48.511 E53.91012
G1 X47.966 Y48.787 E53.95181
G1 X47.779 Y49.126 E53.99826
G1 X47.644 Y49.488 E54.04463
G1 X47.565 Y49.840 E54.08792
G1 X47.536 Y50.227 E54.13449
G1 X47.571 Y50.642 E54.18446
G10
G0 F9000 X53.355 Y50.392
G11
G1 F1800 X53.413 Y50.804 E54.23439
G1 X53.528 Y51.178 E54.28135
G1 X53.697 Y51.531 E54.32831
G1 X53.923 Y51.862 E54.37641
G1 X54.163 Y52.123 E54.41895
G1 X54.438 Y52.353 E54.46197
G1 X54.799 Y52.569 E54.51246
G1 X55.156 Y52.716 E54.55879
G1 X55.503 Y52.805 E54.60177
G1 X55.853 Y52.845 E54.64405
G1 X55.895 Y52.846 E54.64909
G1 X56.277 Y52.830 E54.69497
G1 X56.660 Y52.757 E54.74176
G1 X56.998 Y52.639 E54.78472
G1 X57.344 Y52.461 E54.83141
G1 X57.667 Y52.226 E54.87934
G1 X57.954 Y51.940 E54.92796
G1 X58.182 Y51.635 E54.97366
G1 X58.352 Y51.326 E55.01598
G1 X58.488 Y50.964 E55.06238
G1 X58.566 Y50.612 E55.10565
G1 X58.595 Y50.225 E55.15222
G1 X58.560 Y49.812 E55.20196
G1 X58.481 Y49.459 E55.24537
G1 X58.339 Y49.095 E55.29225
G1 X58.142 Y48.753 E55.33961
G1 X57.888 Y48.438 E55.38817
G1 X57.628 Y48.193 E55.43104
G1 X57.313 Y47.974 E55.47708
G1 X56.969 Y47.802 E55.52323
G1 X56.632 Y47.688 E55.56592
G1 X56.276 Y47.621 E55.60939
G1 X55.861 Y47.606 E55.65922
G1 X55.474 Y47.651 E55.70598
G1 X55.097 Y47.755 E55.75291
G1 X54.735 Y47.914 E55.80035
G1 X54.398 Y48.131 E55.84845
G1 X54.128 Y48.363 E55.89117
G1 X53.871 Y48.660 E55.93830
G1 X53.679 Y48.954 E55.98044
G1 X53.517 Y49.305 E56.02683
G1 X53.409 Y49.676 E56.07319
G1 X53.356 Y50.032 E56.11639
G1 X53.355 Y50.392 E56.15959
G10
G0 F9000 X59.169 Y50.392
G11
G1 F1800 X59.226 Y50.803 E56.20938
G1 X59.341 Y51.178 E56.25645
G1 X59.510 Y51.530 E56.30330
G1 X59.706 Y51.825 E56.34580
G1 X59.975 Y52.123 E56.39398
G1 X60.251 Y52.353 E56.43709
G1 X60.612 Y52.569 E56.48757
G1 X60.910 Y52.696 E56.52645
G1 X61.315 Y52.805 E56.57677
G1 X61.667 Y52.845 E56.61929
G1 X61.709 Y52.846 E56.62433
G1 X62.090 Y52.830 E56.67009
G1 X62.473 Y52.757 E56.71688
G1 X62.812 Y52.639 E56.75995
G1 X63.157 Y52.461 E56.80653
G1 X63.481 Y52.226 E56.85456
G1 X63.767 Y51.941 E56.90302
G1 X63.979 Y51.665 E56.94478
G1 X64.166 Y51.326 E56.99124
G1 X64.301 Y50.964 E57.03760
G1 X64.380 Y50.612 E57.08089
G1 X64.409 Y50.225 E57.12746
G1 X64.374 Y49.811 E57.17732
G1 X64.294 Y49.459 E57.22064
G1 X64.152 Y49.096 E57.26741
G1 X63.978 Y48.785 E57.31017
G1 X63.702 Y48.438 E57.36338
G1 X63.442 Y48.193 E57.40625
G1 X63.126 Y47.974 E57.45238
G1 X62.783 Y47.802 E57.49843
G1 X62.445 Y47.688 E57.54123
G1 X62.089 Y47.621 E57.58470
G1 X61.675 Y47.606 E57.63442
G1 X61.288 Y47.651 E57.68117
G1 X60.910 Y47.755 E57.72822
G1 X60.549 Y47.914 E57.77555
G1 X60.211 Y48.131 E57.82375
G1 X59.941 Y48.363 E57.86647
G1 X59.684 Y48.660 E57.91360
G1 X59.492 Y48.954 E57.95574
G1 X59.330 Y49.305 E58.00213
G1 X59.222 Y49.676 E58.04849
G1 X59.170 Y50.032 E58.09167
G1 X59.169 Y50.392 E58.13487
G0 F9000 X58.764 Y51.693
;TYPE:SKIN
G1 F1800 X59.920 Y52.849 E58.33105
G0 F9000 X59.381 Y52.876
G1 F1800 X58.549 Y52.044 E58.47224
G0 F9000 X58.298 Y52.359
G1 F1800 X58.532 Y52.876 E58.55992
G1 X58.015 Y52.641 E58.62807
G0 F9000 X57.503 Y53.260
G1 F1800 X57.322 Y53.079 E58.65879
G0 F9000 X56.915 Y53.238
G1 F1800 X57.503 Y53.826 E58.75857
G0 F9000 X57.894 Y54.783
G1 F1800 X56.456 Y53.345 E59.00261
G0 F9000 X55.930 Y53.385
G1 F1800 X58.392 Y55.846 E59.42034
G0 F9000 X57.826 Y55.846
G1 F1800 X55.287 Y53.308 E59.85114
G0 F9000 X54.336 Y52.921
G1 F1800 X57.260 Y55.846 E60.34744
G0 F9000 X56.695 Y55.846
G1 F1800 X52.799 Y51.951 E61.00853
G0 F9000 X52.558 Y52.275
G1 F1800 X56.129 Y55.846 E61.61455
G0 F9000 X55.563 Y55.846
G1 F1800 X52.279 Y52.562 E62.17186
G0 F9000 X51.964 Y52.813
G1 F1800 X54.998 Y55.846 E62.68666
G0 F9000 X54.432 Y55.846
G1 F1800 X51.615 Y53.030 E63.16464
G0 F9000 X51.223 Y53.203
G1 F1800 X53.866 Y55.846 E63.61317
G0 F9000 X53.301 Y55.846
G1 F1800 X50.779 Y53.325 E64.04108
G0 F9000 X50.274 Y53.385
G1 F1800 X52.735 Y55.846 E64.45873
G0 F9000 X52.169 Y55.846
G1 F1800 X49.663 Y53.340 E64.88401
G0 F9000 X48.859 Y53.102
G1 F1800 X51.603 Y55.846 E65.34968
G0 F9000 X51.038 Y55.846
G1 F1800 X47.048 Y51.856 E66.02681
G0 F9000 X46.818 Y52.192
G1 F1800 X50.472 Y55.846 E66.64691
G0 F9000 X49.906 Y55.846
G1 F1800 X46.550 Y52.489 E67.21653
G0 F9000 X46.246 Y52.751
G1 F1800 X49.341 Y55.846 E67.74177
G0 F9000 X48.775 Y55.846
G1 F1800 X45.903 Y52.974 E68.22916
G0 F9000 X45.519 Y53.156
G1 F1800 X48.209 Y55.846 E68.68567
G0 F9000 X47.644 Y55.846
G1 F1800 X45.089 Y53.291 E69.11927
G0 F9000 X44.601 Y53.369
G1 F1800 X47.078 Y55.846 E69.53963
G0 F9000 X46.512 Y55.846
G1 F1800 X44.037 Y53.371 E69.95965
G0 F9000 X43.303 Y53.203
G1 F1800 X45.947 Y55.846 E70.40827
G0 F9000 X45.381 Y55.846
