;FLAVOR:UltiGCode
;TIME:9992
;MATERIAL:11091
;MATERIAL2:0

;Layer count: 354
;LAYER:0
M107
G0 F9000 X24.014 Y39.046 Z0.300
;TYPE:SKIRT
G1 F1200 X63.904 Y39.046 E4.78680
G1 X67.286 Y42.428 E5.36074
G1 X67.286 Y51.772 E6.48202
G1 X63.904 Y55.154 E7.05597
G1 X59.649 Y55.154 E7.56657
G1 X59.649 Y59.056 E8.03481
G1 X28.269 Y59.056 E11.80041
G1 X28.269 Y55.154 E12.26865
G1 X24.014 Y55.154 E12.77925
G1 X20.632 Y51.772 E13.35319
G1 X20.632 Y42.428 E14.47447
G1 X24.014 Y39.046 E15.04842
G0 F9000 X24.180 Y39.446
G1 F1200 X63.738 Y39.446 E19.79538
G1 X66.886 Y42.594 E20.32961
G1 X66.886 Y51.606 E21.41105
G1 X63.738 Y54.754 E21.94528
G1 X59.249 Y54.754 E22.48396
G1 X59.249 Y58.656 E22.95220
G1 X28.669 Y58.656 E26.62180
G1 X28.669 Y54.754 E27.09004
G1 X24.180 Y54.754 E27.62872
G1 X21.032 Y51.606 E28.16296
G1 X21.032 Y42.594 E29.24440
G1 X24.180 Y39.446 E29.77863
G10
G0 F9000 X24.971 Y44.770
;TYPE:FILL
G11
G1 F1200 X25.314 Y45.113 E29.83684
G0 F9000 X24.953 Y47.696
G0 X25.922 Y49.675
G0 X26.219 Y50.148
G1 F1200 X25.682 Y50.685 E29.92797
G0 F9000 X29.402 Y50.813
G0 X31.345 Y49.788
G0 X36.445 Y50.880
G0 X38.539 Y50.165
G0 X39.850 Y48.467
G0 X42.483 Y50.582
G0 X44.673 Y50.813
G0 X46.617 Y49.788
G0 X47.655 Y47.898
G0 X48.289 Y45.264
G0 X49.860 Y43.739
G0 X51.995 Y43.340
G0 X53.987 Y44.172
G0 X59.631 Y43.340
G0 X61.027 Y43.624
G1 F1200 X61.265 Y43.385 E29.96845
G0 F9000 X62.848 Y45.996
G0 X62.858 Y48.167
G0 X62.817 Y48.675
G1 F1200 X62.945 Y48.803 E29.99017
G0 F9000 X62.665 Y48.688
;TYPE:WALL-INNER
G1 F1200 X62.859 Y48.168 E30.05677
G1 X62.974 Y47.658 E30.11951
G1 X63.014 Y47.113 E30.18508
G1 X62.966 Y46.504 E30.25839
G1 X62.849 Y45.995 E30.32106
G1 X62.645 Y45.471 E30.38854
G1 X62.361 Y44.976 E30.45702
G1 X61.998 Y44.524 E30.52659
G1 X61.625 Y44.172 E30.58813
G1 X61.209 Y43.874 E30.64954
G1 X60.711 Y43.618 E30.71673
G1 X60.181 Y43.439 E30.78386
G1 X59.632 Y43.339 E30.85083
G1 X59.132 Y43.321 E30.91086
G1 X59.053 Y43.323 E30.92035
G1 X58.514 Y43.386 E30.98547
G1 X57.974 Y43.533 E31.05263
G1 X57.496 Y43.738 E31.11504
G1 X57.015 Y44.034 E31.18281
G1 X56.572 Y44.412 E31.25269
G1 X56.203 Y44.837 E31.32023
G1 X55.925 Y45.263 E31.38128
G1 X55.703 Y45.733 E31.44365
G1 X55.534 Y46.304 E31.51511
G1 X55.458 Y46.820 E31.57770
G1 X55.456 Y47.343 E31.64046
G1 X55.540 Y47.932 E31.71185
G1 X55.704 Y48.472 E31.77958
G1 X55.950 Y48.983 E31.84763
G1 X56.273 Y49.456 E31.91636
G1 X56.622 Y49.839 E31.97854
G1 X57.058 Y50.196 E32.04616
G1 X57.499 Y50.463 E32.10803
G1 X58.017 Y50.683 E32.17556
G1 X58.591 Y50.825 E32.24652
G1 X59.110 Y50.880 E32.30915
G1 X59.670 Y50.858 E32.37640
G1 X60.222 Y50.751 E32.44387
G1 X60.753 Y50.562 E32.51151
G1 X61.213 Y50.322 E32.57377
G1 X61.677 Y49.985 E32.64258
G1 X62.087 Y49.579 E32.71183
G1 X62.394 Y49.175 E32.77271
G1 X62.665 Y48.688 E32.83959
G0 F9000 X63.086 Y50.033
G1 F1200 X62.165 Y50.954 E32.99589
G1 X53.980 Y50.954 E33.97809
G1 X53.980 Y52.097 E34.11525
G1 X55.449 Y54.643 E34.46798
G1 X55.449 Y54.856 E34.49354
G1 X32.469 Y54.856 E37.25114
G1 X32.469 Y54.642 E37.27682
G1 X33.839 Y52.267 E37.60584
G1 X33.938 Y52.105 E37.62862
G1 X33.938 Y50.954 E37.76674
G1 X25.753 Y50.954 E38.74894
G1 X24.832 Y50.033 E38.90524
G1 X24.832 Y44.167 E39.60916
G1 X25.753 Y43.246 E39.76546
G1 X62.165 Y43.246 E44.13490
G1 X63.086 Y44.167 E44.29120
G1 X63.086 Y50.033 E44.99512
G0 F9000 X59.111 Y50.879
G0 X57.059 Y50.195
G0 X55.705 Y48.471
G0 X55.223 Y48.168
G1 F1200 X55.338 Y47.658 E45.05785
G1 X55.378 Y47.113 E45.12343
G1 X55.329 Y46.501 E45.19710
G1 X55.199 Y45.955 E45.26446
G1 X55.008 Y45.469 E45.32712
G1 X54.724 Y44.976 E45.39539
G1 X54.362 Y44.524 E45.46488
G1 X53.988 Y44.172 E45.52652
G1 X53.572 Y43.874 E45.58792
G1 X53.074 Y43.618 E45.65512
G1 X52.545 Y43.439 E45.72213
G1 X51.996 Y43.339 E45.78910
G1 X51.496 Y43.321 E45.84913
G1 X51.417 Y43.323 E45.85862
G1 X50.878 Y43.386 E45.92374
G1 X50.337 Y43.533 E45.99101
G1 X49.860 Y43.738 E46.05331
G1 X49.378 Y44.034 E46.12119
G1 X48.935 Y44.412 E46.19107
G1 X48.566 Y44.837 E46.25861
G1 X48.288 Y45.263 E46.31965
G1 X48.067 Y45.734 E46.38209
G1 X47.898 Y46.304 E46.45343
G1 X47.822 Y46.820 E46.51602
G1 X47.820 Y47.343 E46.57878
G1 X47.904 Y47.932 E46.65017
G1 X48.068 Y48.471 E46.71778
G1 X48.313 Y48.982 E46.78578
G1 X48.636 Y49.456 E46.85462
G1 X48.985 Y49.839 E46.91679
G1 X49.422 Y50.196 E46.98451
G1 X49.863 Y50.464 E47.04643
G1 X50.381 Y50.683 E47.11392
G1 X50.955 Y50.825 E47.18488
G1 X51.474 Y50.880 E47.24751
G1 X52.034 Y50.858 E47.31476
G1 X52.586 Y50.750 E47.38225
G1 X53.116 Y50.562 E47.44974
G1 X53.576 Y50.322 E47.51200
G1 X54.039 Y49.986 E47.58065
G1 X54.454 Y49.576 E47.65065
G1 X54.779 Y49.137 E47.71620
G1 X55.029 Y48.688 E47.77787
G1 X55.223 Y48.168 E47.84447
G0 F9000 X54.039 Y49.985
G0 X52.033 Y50.856
G0 X49.863 Y50.463
G0 X48.313 Y48.981
G0 X47.732 Y47.382
G1 F1200 X47.734 Y46.857 E47.90747
G1 X47.649 Y46.269 E47.97876
G1 X47.485 Y45.730 E48.04637
G1 X47.242 Y45.222 E48.11394
G1 X46.957 Y44.793 E48.17575
G1 X46.569 Y44.363 E48.24525
G1 X46.131 Y44.004 E48.31321
G1 X45.690 Y43.737 E48.37507
G1 X45.174 Y43.517 E48.44239
G1 X44.598 Y43.375 E48.51358
G1 X44.080 Y43.320 E48.57608
G1 X43.521 Y43.342 E48.64322
G1 X42.969 Y43.449 E48.71069
G1 X42.438 Y43.637 E48.77829
G1 X41.978 Y43.876 E48.84049
G1 X41.517 Y44.213 E48.90902
G1 X41.144 Y44.573 E48.97122
G1 X40.797 Y45.025 E49.03960
G1 X40.526 Y45.513 E49.10659
G1 X40.332 Y46.033 E49.17319
G1 X40.217 Y46.543 E49.23593
G1 X40.177 Y47.087 E49.30138
G1 X40.225 Y47.697 E49.37481
G1 X40.342 Y48.206 E49.43748
G1 X40.546 Y48.730 E49.50496
G1 X40.830 Y49.226 E49.57354
G1 X41.193 Y49.676 E49.64292
G1 X41.568 Y50.031 E49.70489
G1 X42.021 Y50.346 E49.77110
G1 X42.483 Y50.583 E49.83341
G1 X43.046 Y50.769 E49.90456
G1 X43.559 Y50.861 E49.96710
G1 X44.081 Y50.881 E50.02979
G1 X44.674 Y50.814 E50.10140
G1 X45.216 Y50.667 E50.16879
G1 X45.693 Y50.462 E50.23109
G1 X46.175 Y50.166 E50.29897
G1 X46.618 Y49.789 E50.36877
G1 X46.987 Y49.364 E50.43631
G1 X47.265 Y48.938 E50.49736
G1 X47.486 Y48.467 E50.55979
G1 X47.655 Y47.898 E50.63102
G1 X47.732 Y47.382 E50.69362
G0 F9000 X46.986 Y49.364
G0 X45.215 Y50.666
G0 X43.047 Y50.768
G0 X41.195 Y49.675
G0 X40.226 Y47.696
G0 X40.096 Y47.381
G1 F1200 X40.098 Y46.858 E50.75638
G1 X40.014 Y46.269 E50.82778
G1 X39.850 Y45.730 E50.89539
G1 X39.607 Y45.222 E50.96296
G1 X39.322 Y44.793 E51.02477
G1 X38.934 Y44.363 E51.09427
G1 X38.496 Y44.004 E51.16223
G1 X38.055 Y43.736 E51.22415
G1 X37.537 Y43.517 E51.29164
G1 X36.963 Y43.375 E51.36260
G1 X36.444 Y43.320 E51.42522
G1 X35.884 Y43.342 E51.49248
G1 X35.332 Y43.450 E51.55997
G1 X34.802 Y43.637 E51.62741
G1 X34.342 Y43.876 E51.68962
G1 X33.881 Y44.212 E51.75807
G1 X33.507 Y44.573 E51.82045
G1 X33.161 Y45.024 E51.88866
G1 X32.889 Y45.512 E51.95571
G1 X32.695 Y46.033 E52.02242
G1 X32.580 Y46.543 E52.08516
G1 X32.540 Y47.087 E52.15061
G1 X32.589 Y47.700 E52.22441
G1 X32.719 Y48.246 E52.29176
G1 X32.910 Y48.732 E52.35442
G1 X33.192 Y49.222 E52.42226
G1 X33.510 Y49.630 E52.48434
G1 X33.932 Y50.030 E52.55411
G1 X34.385 Y50.346 E52.62039
G1 X34.847 Y50.583 E52.68270
G1 X35.409 Y50.769 E52.75374
G1 X35.922 Y50.861 E52.81628
G1 X36.445 Y50.881 E52.87909
G1 X37.039 Y50.814 E52.95082
G1 X37.581 Y50.667 E53.01821
G1 X38.058 Y50.462 E53.08051
G1 X38.540 Y50.166 E53.14838
G1 X38.983 Y49.789 E53.21819
G1 X39.352 Y49.364 E53.28573
G1 X39.630 Y48.938 E53.34677
G1 X39.851 Y48.467 E53.40920
G1 X40.020 Y47.897 E53.48055
G1 X40.096 Y47.381 E53.54314
G0 F9000 X39.351 Y49.364
G0 X37.580 Y50.666
G0 X35.409 Y50.768
G0 X33.511 Y49.629
G0 X32.590 Y47.699
G0 X32.460 Y47.381
G1 F1200 X32.462 Y46.858 E53.60590
G1 X32.378 Y46.269 E53.67729
G1 X32.214 Y45.729 E53.74501
G1 X31.970 Y45.222 E53.81253
G1 X31.685 Y44.793 E53.87434
G1 X31.297 Y44.363 E53.94384
G1 X30.860 Y44.004 E54.01170
G1 X30.419 Y43.737 E54.07357
G1 X29.901 Y43.517 E54.14110
G1 X29.327 Y43.375 E54.21206
G1 X28.808 Y43.320 E54.27469
G1 X28.248 Y43.342 E54.34194
G1 X27.696 Y43.449 E54.40941
G1 X27.165 Y43.637 E54.47701
G1 X26.705 Y43.876 E54.53921
G1 X26.244 Y44.213 E54.60774
G1 X25.871 Y44.573 E54.66995
G1 X25.524 Y45.025 E54.73833
G1 X25.253 Y45.513 E54.80531
G1 X25.059 Y46.033 E54.87191
G1 X24.944 Y46.543 E54.93465
G1 X24.904 Y47.087 E55.00010
G1 X24.952 Y47.697 E55.07353
G1 X25.069 Y48.206 E55.13620
G1 X25.273 Y48.730 E55.20368
G1 X25.557 Y49.226 E55.27227
G1 X25.920 Y49.676 E55.34165
G1 X26.295 Y50.031 E55.40361
G1 X26.748 Y50.346 E55.46982
G1 X27.210 Y50.583 E55.53213
G1 X27.773 Y50.769 E55.60328
G1 X28.286 Y50.861 E55.66583
G1 X28.809 Y50.881 E55.72863
G1 X29.403 Y50.814 E55.80036
G1 X29.944 Y50.667 E55.86764
G1 X30.422 Y50.462 E55.93005
G1 X30.903 Y50.166 E55.99782
G1 X31.346 Y49.789 E56.06763
G1 X31.715 Y49.364 E56.13517
G1 X31.993 Y48.938 E56.19621
G1 X32.215 Y48.468 E56.25859
G1 X32.384 Y47.897 E56.33004
G1 X32.460 Y47.381 E56.39263
G0 F9000 X32.060 Y47.351
;TYPE:WALL-OUTER
G1 F1200 X32.062 Y46.885 E56.44855
G1 X31.987 Y46.356 E56.51267
G1 X31.840 Y45.875 E56.57302
G1 X31.621 Y45.420 E56.63362
G1 X31.368 Y45.039 E56.68850
G1 X31.020 Y44.653 E56.75086
G1 X30.628 Y44.331 E56.81174
G1 X30.236 Y44.094 E56.86671
G1 X29.774 Y43.898 E56.92693
G1 X29.258 Y43.770 E56.99073
G1 X28.795 Y43.721 E57.04660
G1 X28.295 Y43.741 E57.10665
G1 X27.801 Y43.836 E57.16701
G1 X27.325 Y44.005 E57.22763
G1 X26.916 Y44.217 E57.28291
G1 X26.502 Y44.520 E57.34447
G1 X26.170 Y44.840 E57.39981
G1 X25.859 Y45.245 E57.46108
G1 X25.617 Y45.681 E57.52092
G1 X25.443 Y46.148 E57.58072
G1 X25.341 Y46.602 E57.63656
G1 X25.305 Y47.096 E57.69600
G1 X25.306 Y47.144 E57.70176
G1 X25.348 Y47.635 E57.76090
G1 X25.452 Y48.088 E57.81667
G1 X25.635 Y48.557 E57.87708
G1 X25.888 Y48.999 E57.93820
G1 X26.215 Y49.404 E58.00066
G1 X26.548 Y49.720 E58.05575
G1 X26.955 Y50.003 E58.11524
G1 X27.365 Y50.213 E58.17051
G1 X27.872 Y50.380 E58.23457
G1 X28.329 Y50.462 E58.29029
G1 X28.794 Y50.480 E58.34613
G1 X29.328 Y50.420 E58.41061
G1 X29.812 Y50.288 E58.47081
G1 X30.237 Y50.106 E58.52629
G1 X30.667 Y49.841 E58.58690
G1 X31.064 Y49.504 E58.64939
G1 X31.395 Y49.123 E58.70996
G1 X31.643 Y48.743 E58.76441
G1 X31.840 Y48.325 E58.81986
G1 X31.993 Y47.811 E58.88421
G1 X32.060 Y47.351 E58.94000
G0 F9000 X32.942 Y47.145
G1 F1200 X32.985 Y47.636 E58.99914
G1 X33.102 Y48.126 E59.05960
G1 X33.271 Y48.558 E59.11526
G1 X33.525 Y48.998 E59.17623
G1 X33.807 Y49.361 E59.23139
G1 X34.185 Y49.719 E59.29386
G1 X34.592 Y50.003 E59.35342
G1 X35.002 Y50.213 E59.40870
G1 X35.508 Y50.380 E59.47264
G1 X35.965 Y50.462 E59.52835
G1 X36.430 Y50.480 E59.58419
G1 X36.964 Y50.420 E59.64868
G1 X37.449 Y50.288 E59.70899
G1 X37.873 Y50.106 E59.76436
G1 X38.304 Y49.841 E59.82508
G1 X38.701 Y49.504 E59.88757
G1 X39.032 Y49.123 E59.94813
G1 X39.280 Y48.743 E60.00258
G1 X39.476 Y48.324 E60.05809
G1 X39.629 Y47.811 E60.12233
G1 X39.696 Y47.351 E60.17811
G1 X39.698 Y46.885 E60.23404
G1 X39.623 Y46.356 E60.29815
G1 X39.476 Y45.875 E60.35851
G1 X39.258 Y45.420 E60.41905
G1 X39.005 Y45.039 E60.47393
G1 X38.657 Y44.653 E60.53630
G1 X38.265 Y44.331 E60.59717
G1 X37.872 Y44.093 E60.65231
G1 X37.410 Y43.898 E60.71248
G1 X36.894 Y43.770 E60.77628
G1 X36.431 Y43.721 E60.83215
G1 X35.931 Y43.741 E60.89220
G1 X35.437 Y43.837 E60.95259
G1 X34.962 Y44.005 E61.01305
G1 X34.553 Y44.217 E61.06833
G1 X34.139 Y44.519 E61.12982
G1 X33.806 Y44.840 E61.18532
G1 X33.496 Y45.245 E61.24653
G1 X33.253 Y45.681 E61.30642
G1 X33.079 Y46.148 E61.36623
G1 X32.977 Y46.602 E61.42207
G1 X32.941 Y47.096 E61.48150
G1 X32.942 Y47.145 E61.48738
G0 F9000 X32.642 Y47.149
G0 X32.720 Y48.245
G0 X33.838 Y51.354
G0 X33.538 Y51.354
G1 F1200 X25.587 Y51.354 E62.44150
G1 X24.432 Y50.199 E62.63751
G1 X24.432 Y44.001 E63.38127
G1 X25.587 Y42.846 E63.57728
G1 X62.331 Y42.846 E67.98656
G1 X63.486 Y44.001 E68.18257
G1 X63.486 Y50.199 E68.92633
G1 X62.331 Y51.354 E69.12234
G1 X54.380 Y51.354 E70.07646
G1 X54.380 Y51.990 E70.15278
G1 X55.849 Y54.536 E70.50551
G1 X55.849 Y55.256 E70.59191
G1 X32.069 Y55.256 E73.44551
G1 X32.069 Y54.534 E73.53215
G1 X33.498 Y52.058 E73.87521
G1 X33.538 Y51.992 E73.88447
G1 X33.538 Y51.354 E73.96103
G0 F9000 X33.838 Y51.354
G0 X38.058 Y50.461
G0 X40.628 Y48.665
G0 X40.908 Y48.557
G1 F1200 X41.161 Y48.999 E74.02214
G1 X41.488 Y49.404 E74.08460
G1 X41.821 Y49.720 E74.13969
G1 X42.228 Y50.003 E74.19918
G1 X42.638 Y50.213 E74.25446
G1 X43.145 Y50.380 E74.31851
G1 X43.602 Y50.462 E74.37423
G1 X44.066 Y50.480 E74.42995
G1 X44.599 Y50.420 E74.49431
G1 X45.084 Y50.288 E74.55463
G1 X45.508 Y50.106 E74.61000
G1 X45.939 Y49.841 E74.67072
G1 X46.336 Y49.504 E74.73320
G1 X46.667 Y49.123 E74.79377
G1 X46.915 Y48.743 E74.84822
G1 X47.111 Y48.324 E74.90373
G1 X47.264 Y47.811 E74.96797
G1 X47.332 Y47.351 E75.02377
G1 X47.334 Y46.885 E75.07969
G1 X47.258 Y46.356 E75.14382
G1 X47.111 Y45.875 E75.20418
G1 X46.893 Y45.420 E75.26472
G1 X46.640 Y45.039 E75.31960
G1 X46.292 Y44.653 E75.38197
G1 X45.900 Y44.331 E75.44284
G1 X45.507 Y44.094 E75.49792
G1 X45.047 Y43.898 E75.55792
G1 X44.529 Y43.770 E75.62195
G1 X44.067 Y43.721 E75.67770
G1 X43.568 Y43.741 E75.73763
G1 X43.074 Y43.836 E75.79799
G1 X42.598 Y44.005 E75.85861
G1 X42.189 Y44.217 E75.91389
G1 X41.775 Y44.520 E75.97545
G1 X41.443 Y44.840 E76.03078
G1 X41.132 Y45.245 E76.09206
G1 X40.890 Y45.681 E76.15190
G1 X40.716 Y46.148 E76.21170
G1 X40.614 Y46.602 E76.26754
G1 X40.578 Y47.096 E76.32698
G1 X40.579 Y47.144 E76.33274
G1 X40.621 Y47.635 E76.39187
G1 X40.725 Y48.088 E76.44765
G1 X40.908 Y48.557 E76.50806
G0 F9000 X40.628 Y48.665
G0 X41.569 Y50.030
G0 X43.560 Y50.860
G0 X45.693 Y50.461
G0 X47.264 Y48.937
G0 X47.921 Y47.315
G0 X48.220 Y47.316
G1 F1200 X48.295 Y47.845 E76.57218
G1 X48.442 Y48.326 E76.63253
G1 X48.660 Y48.782 E76.69318
G1 X48.951 Y49.207 E76.75499
G1 X49.261 Y49.548 E76.81029
G1 X49.653 Y49.869 E76.87109
G1 X50.046 Y50.107 E76.92623
G1 X50.508 Y50.302 E76.98640
G1 X51.024 Y50.430 E77.05020
G1 X51.487 Y50.479 E77.10607
G1 X51.987 Y50.459 E77.16612
G1 X52.481 Y50.363 E77.22651
G1 X52.956 Y50.195 E77.28697
G1 X53.365 Y49.981 E77.34236
G1 X53.780 Y49.680 E77.40388
G1 X54.151 Y49.313 E77.46650
G1 X54.442 Y48.920 E77.52518
G1 X54.665 Y48.520 E77.58014
G1 X54.839 Y48.053 E77.63994
G1 X54.941 Y47.599 E77.69578
G1 X54.977 Y47.104 E77.75534
G1 X54.976 Y47.055 E77.76122
G1 X54.933 Y46.565 E77.82024
G1 X54.816 Y46.075 E77.88070
G1 X54.647 Y45.643 E77.93636
G1 X54.393 Y45.202 E77.99743
G1 X54.067 Y44.796 E78.05991
G1 X53.733 Y44.481 E78.11501
G1 X53.363 Y44.217 E78.16955
G1 X52.917 Y43.987 E78.22977
G1 X52.444 Y43.827 E78.28969
G1 X51.953 Y43.738 E78.34957
G1 X51.495 Y43.721 E78.40457
G1 X51.446 Y43.722 E78.41045
G1 X50.954 Y43.780 E78.46990
G1 X50.469 Y43.912 E78.53021
G1 X50.045 Y44.094 E78.58558
G1 X49.614 Y44.359 E78.64630
G1 X49.217 Y44.697 E78.70886
G1 X48.886 Y45.078 E78.76943
G1 X48.638 Y45.458 E78.82388
G1 X48.442 Y45.877 E78.87939
G1 X48.289 Y46.390 E78.94363
G1 X48.222 Y46.850 E78.99941
G1 X48.220 Y47.316 E79.05533
G0 F9000 X47.921 Y47.315
G0 X48.313 Y48.981
G0 X49.863 Y50.463
G0 X52.033 Y50.856
G0 X54.039 Y49.985
G0 X55.222 Y48.167
G0 X55.557 Y47.315
G0 X55.856 Y47.316
G1 F1200 X55.931 Y47.845 E79.11945
G1 X56.078 Y48.326 E79.17980
G1 X56.297 Y48.782 E79.24051
G1 X56.588 Y49.207 E79.30231
G1 X56.898 Y49.548 E79.35762
G1 X57.290 Y49.869 E79.41842
G1 X57.682 Y50.106 E79.47339
G1 X58.144 Y50.302 E79.53361
G1 X58.660 Y50.430 E79.59740
G1 X59.123 Y50.479 E79.65327
G1 X59.623 Y50.459 E79.71332
G1 X60.117 Y50.364 E79.77369
G1 X60.593 Y50.195 E79.83430
G1 X61.002 Y49.981 E79.88969
G1 X61.417 Y49.680 E79.95121
G1 X61.786 Y49.314 E80.01358
G1 X62.059 Y48.956 E80.06761
G1 X62.301 Y48.520 E80.12745
G1 X62.475 Y48.053 E80.18725
G1 X62.577 Y47.599 E80.24309
G1 X62.613 Y47.104 E80.30264
G1 X62.612 Y47.055 E80.30853
G1 X62.570 Y46.566 E80.36742
G1 X62.466 Y46.113 E80.42320
G1 X62.283 Y45.644 E80.48361
G1 X62.030 Y45.202 E80.54472
G1 X61.703 Y44.796 E80.60728
G1 X61.370 Y44.481 E80.66229
G1 X61.000 Y44.217 E80.71683
G1 X60.554 Y43.987 E80.77705
G1 X60.080 Y43.827 E80.83708
G1 X59.589 Y43.738 E80.89696
G1 X59.131 Y43.721 E80.95196
G1 X59.082 Y43.722 E80.95784
G1 X58.590 Y43.780 E81.01729
