;FLAVOR:UltiGCode
;TIME:2588
;MATERIAL:4990
;MATERIAL2:0

;Layer count: 58
;LAYER:0
M107
G0 F9000 X109.374 Y15.123 Z0.300
;TYPE:SKIRT
G1 F1200 X116.476 Y15.117 E0.85224
G1 X116.674 Y15.115 E0.87600
G1 X116.796 Y15.117 E0.89064
G1 X117.626 Y15.116 E0.99024
G1 X117.626 Y15.128 E0.99168
G1 X120.626 Y15.170 E1.35172
G1 X120.626 Y22.696 E2.25484
G1 X121.296 Y22.696 E2.33524
G1 X121.395 Y26.384 E2.77796
G1 X121.368 Y27.169 E2.87221
G1 X121.350 Y27.717 E2.93801
G1 X121.319 Y28.789 E3.06670
G1 X121.293 Y29.892 E3.19910
G1 X121.281 Y30.437 E3.26452
G1 X121.270 Y30.982 E3.32993
G1 X121.260 Y31.520 E3.39450
G1 X121.261 Y31.520 E3.39462
G1 X121.252 Y32.071 E3.46075
G1 X121.204 Y35.934 E3.92434
G1 X120.431 Y35.934 E4.01710
G1 X120.431 Y42.912 E4.85446
G1 X116.581 Y42.927 E5.31647
G1 X114.841 Y42.920 E5.52527
G1 X113.413 Y42.928 E5.69663
G1 X109.569 Y42.897 E6.15793
G1 X109.569 Y35.934 E6.99349
G1 X108.817 Y35.934 E7.08373
G1 X108.743 Y31.777 E7.58265
G1 X108.732 Y31.158 E7.65694
G1 X108.733 Y31.158 E7.65706
G1 X108.720 Y30.547 E7.73040
G1 X108.692 Y29.304 E7.87959
G1 X108.655 Y27.956 E8.04141
G1 X108.656 Y27.956 E8.04153
G1 X108.640 Y27.445 E8.10288
G1 X108.617 Y26.797 E8.18069
G1 X108.536 Y22.696 E8.67291
G1 X109.374 Y22.696 E8.77347
G1 X109.374 Y15.123 E9.68223
G0 F9000 X109.774 Y15.523
G1 F1200 X116.505 Y15.517 E10.48995
G1 X116.673 Y15.515 E10.51011
G1 X116.776 Y15.516 E10.52247
G1 X117.226 Y15.516 E10.57647
G1 X117.226 Y15.523 E10.57731
G1 X120.226 Y15.564 E10.93734
G1 X120.226 Y23.096 E11.84118
G1 X120.907 Y23.096 E11.92290
G1 X120.994 Y26.383 E12.31748
G1 X120.968 Y27.156 E12.41030
G1 X120.950 Y27.693 E12.47477
G1 X120.951 Y27.693 E12.47489
G1 X120.919 Y28.797 E12.60743
G1 X120.893 Y29.882 E12.73766
G1 X120.881 Y30.429 E12.80332
G1 X120.870 Y30.974 E12.86873
G1 X120.860 Y31.513 E12.93342
G1 X120.861 Y31.513 E12.93354
G1 X120.852 Y32.064 E12.99967
G1 X120.808 Y35.534 E13.41611
G1 X120.031 Y35.534 E13.50935
G1 X120.031 Y42.513 E14.34683
G1 X116.581 Y42.527 E14.76083
G1 X114.896 Y42.520 E14.96303
G1 X113.413 Y42.528 E15.14099
G1 X109.969 Y42.500 E15.55429
G1 X109.969 Y35.534 E16.39021
G1 X109.209 Y35.534 E16.48141
G1 X109.142 Y31.770 E16.93316
G1 X109.132 Y31.152 E17.00733
G1 X109.133 Y31.152 E17.00745
G1 X109.120 Y30.538 E17.08115
G1 X109.092 Y29.295 E17.23034
G1 X109.055 Y27.945 E17.39241
G1 X109.039 Y27.433 E17.45388
G1 X109.040 Y27.433 E17.45400
G1 X109.017 Y26.786 E17.53168
G1 X108.944 Y23.096 E17.97457
G1 X109.774 Y23.096 E18.07417
G1 X109.774 Y15.523 E18.98293
G10
G0 F9000 X112.824 Y26.896
;TYPE:WALL-INNER
G11
G1 F1200 X117.175 Y26.896 E19.50505
G1 X117.152 Y27.581 E19.58730
G1 X117.120 Y28.688 E19.72019
G1 X117.094 Y29.793 E19.85283
G1 X117.082 Y30.346 E19.91920
G1 X117.071 Y30.899 E19.98558
G1 X117.061 Y31.451 E20.05183
G1 X117.056 Y31.734 E20.08579
G1 X116.231 Y31.734 E20.18479
G1 X115.531 Y31.737 E20.26879
G1 X114.553 Y31.736 E20.38615
G1 X113.769 Y31.738 E20.48024
G1 X112.943 Y31.734 E20.57936
G1 X112.932 Y31.088 E20.65689
G1 X112.919 Y30.459 E20.73238
G1 X112.891 Y29.208 E20.88254
G1 X112.854 Y27.842 E21.04652
G1 X112.838 Y27.315 E21.10979
G1 X112.824 Y26.896 E21.16010
G0 F9000 X112.416 Y26.692
;TYPE:WALL-OUTER
G1 F1200 X112.412 Y26.496 E21.18362
G1 X113.174 Y26.496 E21.27506
G1 X113.174 Y18.920 E22.18418
G1 X113.826 Y18.919 E22.26242
G1 X113.826 Y26.496 E23.17166
G1 X116.174 Y26.496 E23.45342
G1 X116.174 Y18.920 E24.36254
G1 X116.666 Y18.915 E24.42159
G1 X116.826 Y18.917 E24.44079
G1 X116.826 Y26.496 E25.35027
G1 X117.589 Y26.496 E25.44183
G1 X117.552 Y27.594 E25.57366
G1 X117.520 Y28.699 E25.70632
G1 X117.471 Y30.906 E25.97122
G1 X117.452 Y32.009 E26.10360
G1 X117.450 Y32.134 E26.11861
G1 X116.631 Y32.134 E26.21689
G1 X116.631 Y39.127 E27.05605
G1 X116.076 Y39.125 E27.12265
G1 X116.076 Y32.135 E27.96145
G1 X113.912 Y32.138 E28.22113
G1 X113.913 Y39.125 E29.05957
G1 X113.369 Y39.128 E29.12485
G1 X113.369 Y32.134 E29.96413
G1 X112.549 Y32.134 E30.06253
G1 X112.491 Y29.219 E30.41240
G1 X112.438 Y27.329 E30.63929
G1 X112.416 Y26.692 E30.71577
G0 F9000 X112.975 Y27.273
;TYPE:SKIN
G1 F1200 X116.926 Y31.225 E31.38636
G0 F9000 X116.729 Y31.593
G1 F1200 X112.988 Y27.852 E32.02123
G0 F9000 X113.002 Y28.432
G1 F1200 X116.163 Y31.593 E32.55767
G0 F9000 X115.597 Y31.593
G1 F1200 X113.016 Y29.012 E32.99568
G0 F9000 X113.030 Y29.591
G1 F1200 X115.032 Y31.593 E33.33543
G0 F9000 X114.466 Y31.593
G1 F1200 X113.044 Y30.171 E33.57675
G0 F9000 X113.058 Y30.751
G1 F1200 X113.900 Y31.593 E33.71965
G0 F9000 X113.335 Y31.593
G1 F1200 X113.072 Y31.331 E33.76419
G0 F9000 X116.940 Y30.673
G1 F1200 X113.303 Y27.036 E34.38141
G0 F9000 X113.548 Y26.715
G1 F1200 X113.498 Y26.383 E34.41103
G1 X113.498 Y25.817 E34.45348
G1 X113.498 Y25.252 E34.49585
G1 X113.498 Y24.686 E34.53830
G1 X113.498 Y24.120 E34.58075
G1 X113.498 Y23.555 E34.62313
G1 X113.498 Y22.989 E34.66558
G1 X113.498 Y22.423 E34.70803
G1 X113.498 Y21.858 E34.75040
G1 X113.498 Y21.292 E34.79285
G1 X113.498 Y20.726 E34.83530
G1 X113.498 Y20.161 E34.87768
G1 X113.498 Y19.595 E34.92013
G1 X113.373 Y19.186 E34.97145
G0 F9000 X113.474 Y19.186
G0 X113.485 Y26.837
G0 X116.515 Y26.837
G0 X116.474 Y19.357
G0 X116.372 Y19.357
G1 F1200 X116.498 Y19.766 E35.01433
G1 X116.498 Y20.332 E35.05712
G1 X116.498 Y20.897 E35.09983
G1 X116.498 Y21.463 E35.14262
G1 X116.498 Y22.029 E35.18541
G1 X116.498 Y22.594 E35.22813
G1 X116.498 Y23.160 E35.27092
G1 X116.498 Y23.726 E35.31370
G1 X116.498 Y24.291 E35.35642
G1 X116.498 Y24.857 E35.39921
G1 X116.498 Y25.423 E35.44200
G1 X116.498 Y25.988 E35.48471
G1 X116.661 Y26.717 E35.52752
G1 X117.022 Y27.361 E35.61611
G0 F9000 X117.009 Y27.913
G1 F1200 X116.131 Y27.036 E35.76503
G0 F9000 X115.565 Y27.036
G1 F1200 X116.995 Y28.465 E36.00762
G0 F9000 X116.981 Y29.017
G1 F1200 X115.000 Y27.036 E36.34381
G0 F9000 X114.434 Y27.036
G1 F1200 X116.968 Y29.569 E36.77376
G0 F9000 X116.954 Y30.121
G1 F1200 X113.868 Y27.036 E37.29738
;LAYER:1
M106 S10
G0 F9000 X112.543 Y27.229 Z0.500
;TYPE:WALL-INNER
G1 F1620 X112.524 Y26.896 E37.32407
G1 X117.476 Y26.896 E37.72023
G1 X117.422 Y27.877 E37.79882
G1 X117.397 Y28.400 E37.84071
G1 X117.374 Y28.927 E37.88291
G1 X117.352 Y29.450 E37.92479
G1 X117.333 Y29.975 E37.96682
G1 X117.316 Y30.505 E38.00924
G1 X117.288 Y31.560 E38.09367
G1 X117.284 Y31.734 E38.10759
G1 X116.231 Y31.734 E38.19183
G1 X115.190 Y31.737 E38.27511
G1 X114.996 Y31.736 E38.29063
G1 X113.769 Y31.738 E38.38879
G1 X112.714 Y31.734 E38.47319
G1 X112.691 Y30.817 E38.54658
G1 X112.673 Y30.219 E38.59444
G1 X112.652 Y29.623 E38.64215
G1 X112.629 Y29.025 E38.69002
G1 X112.603 Y28.428 E38.73783
G1 X112.575 Y27.829 E38.78580
G1 X112.543 Y27.229 E38.83387
G0 F9000 X112.144 Y27.252
;TYPE:WALL-OUTER
G1 F1620 X112.109 Y26.654 E38.88179
G1 X112.098 Y26.496 E38.89446
G1 X113.174 Y26.496 E38.98054
G1 X113.174 Y18.380 E39.62982
G1 X113.826 Y18.379 E39.68198
G1 X113.826 Y26.496 E40.33134
G1 X116.174 Y26.496 E40.51918
G1 X116.174 Y18.372 E41.16910
G1 X116.826 Y18.379 E41.22126
G1 X116.826 Y26.496 E41.87062
G1 X117.902 Y26.496 E41.95670
G1 X117.821 Y27.897 E42.06897
G1 X117.773 Y28.943 E42.15274
G1 X117.733 Y29.989 E42.23648
G1 X117.716 Y30.517 E42.27874
G1 X117.676 Y32.109 E42.40614
G1 X117.676 Y32.134 E42.40814
G1 X116.631 Y32.134 E42.49174
G1 X116.631 Y39.666 E43.09430
G1 X116.076 Y39.667 E43.13870
G1 X116.076 Y32.136 E43.74118
G1 X115.189 Y32.137 E43.81214
G1 X114.995 Y32.136 E43.82766
G1 X113.913 Y32.137 E43.91422
G1 X113.914 Y39.668 E44.51670
G1 X113.804 Y39.669 E44.52550
G1 X113.369 Y39.666 E44.56030
G1 X113.369 Y32.134 E45.16286
G1 X112.324 Y32.134 E45.24646
G1 X112.273 Y30.233 E45.39860
G1 X112.229 Y29.041 E45.49402
G1 X112.176 Y27.849 E45.58948
G1 X112.144 Y27.252 E45.63731
G0 F9000 X112.686 Y27.320
;TYPE:SKIN
G1 F1620 X112.970 Y27.036 E45.66944
G0 F9000 X113.536 Y27.036
G1 F1620 X112.712 Y27.860 E45.76266
G0 F9000 X112.738 Y28.400
G1 F1620 X114.102 Y27.036 E45.91698
G0 F9000 X114.667 Y27.036
G1 F1620 X112.764 Y28.939 E46.13228
G0 F9000 X112.782 Y29.487
G1 F1620 X115.233 Y27.036 E46.40958
G0 F9000 X115.799 Y27.036
G1 F1620 X112.800 Y30.035 E46.74888
G0 F9000 X112.817 Y30.583
G1 F1620 X116.365 Y27.036 E47.15023
G0 F9000 X116.930 Y27.036
G1 F1620 X112.835 Y31.131 E47.61353
G0 F9000 X112.936 Y31.595
G1 F1620 X117.317 Y27.215 E48.10913
G0 F9000 X117.289 Y27.809
G1 F1620 X113.502 Y31.595 E48.53752
G0 F9000 X114.068 Y31.595
G1 F1620 X117.260 Y28.403 E48.89865
G0 F9000 X117.232 Y28.997
G1 F1620 X114.634 Y31.594 E49.19253
G0 F9000 X115.200 Y31.594
G1 F1620 X117.206 Y29.588 E49.41948
G0 F9000 X117.188 Y30.172
G1 F1620 X115.766 Y31.594 E49.58036
G0 F9000 X116.332 Y31.594
G1 F1620 X117.171 Y30.755 E49.67528
G0 F9000 X117.153 Y31.338
G1 F1620 X116.898 Y31.594 E49.70419
G0 F9000 X116.474 Y26.462
G0 X116.373 Y26.462
G1 F1620 X116.499 Y26.053 E49.73269
G1 X116.499 Y25.487 E49.76111
G1 X116.499 Y24.921 E49.78952
G1 X116.499 Y24.356 E49.81799
G1 X116.499 Y23.790 E49.84641
G1 X116.499 Y23.224 E49.87482
G1 X116.499 Y22.659 E49.90318
G1 X116.499 Y22.093 E49.93160
G1 X116.499 Y21.527 E49.96001
G1 X116.499 Y20.962 E49.98837
G1 X116.499 Y20.396 E50.01679
G1 X116.499 Y19.830 E50.04520
G1 X116.499 Y19.265 E50.07356
G1 X116.625 Y18.856 E50.10780
G0 F9000 X116.515 Y26.837
G0 X113.485 Y26.837
G0 X113.624 Y19.028
G1 F1620 X113.498 Y19.436 E50.13607
G1 X113.373 Y19.845 E50.17028
G0 F9000 X113.373 Y18.714
G1 F1620 X113.508 Y18.579 E50.18556
G0 F9000 X113.508 Y18.680
G0 X113.624 Y20.159
G1 F1620 X113.498 Y20.568 E50.21397
G1 X113.498 Y21.133 E50.24234
G1 X113.498 Y21.699 E50.27064
G1 X113.498 Y22.265 E50.29894
G1 X113.498 Y22.831 E50.32724
G1 X113.498 Y23.396 E50.35549
G1 X113.498 Y23.962 E50.38379
G1 X113.498 Y24.528 E50.41209
G1 X113.498 Y25.093 E50.44034
G1 X113.498 Y25.659 E50.46864
G1 X113.498 Y26.225 E50.49694
G1 X113.373 Y26.633 E50.53107
G0 F9000 X114.174 Y27.496
;LAYER:2
M106 S20
G0 X114.999 Y26.932 Z0.700
;TYPE:WALL-INNER
G1 F2100 X115.625 Y26.896 E50.58124
G1 X117.701 Y26.896 E50.74732
G1 X117.652 Y27.558 E50.80042
G1 X117.582 Y28.609 E50.88469
G1 X117.552 Y29.134 E50.92676
G1 X117.501 Y30.178 E51.01038
G1 X117.479 Y30.707 E51.05273
G1 X117.460 Y31.234 E51.09492
G1 X117.446 Y31.734 E51.13494
G1 X116.476 Y31.734 E51.21254
G1 X115.738 Y31.737 E51.27158
G1 X115.198 Y31.707 E51.31484
G1 X114.998 Y31.700 E51.33085
G1 X113.769 Y31.751 E51.42926
G1 X113.769 Y31.734 E51.43062
G1 X112.555 Y31.734 E51.52774
G1 X112.523 Y30.811 E51.60162
G1 X112.498 Y30.213 E51.64950
G1 X112.471 Y29.616 E51.69731
G1 X112.441 Y29.017 E51.74529
G1 X112.408 Y28.419 E51.79320
G1 X112.370 Y27.818 E51.84138
G1 X112.326 Y27.217 E51.88959
G1 X112.300 Y26.896 E51.91535
G1 X113.574 Y26.896 E52.01727
G1 X114.607 Y26.908 E52.09992
G1 X114.999 Y26.932 E52.13134
G0 F9000 X115.000 Y26.531
;TYPE:WALL-OUTER
G1 F2100 X115.619 Y26.496 E52.18094
G1 X116.174 Y26.496 E52.22534
G1 X116.174 Y17.970 E52.90742
G1 X116.826 Y17.975 E52.95958
G1 X116.826 Y26.496 E53.64126
G1 X118.134 Y26.496 E53.74590
G1 X118.092 Y27.032 E53.78891
G1 X118.015 Y28.118 E53.87601
G1 X117.981 Y28.635 E53.91746
G1 X117.951 Y29.155 E53.95913
G1 X117.900 Y30.196 E54.04251
G1 X117.860 Y31.246 E54.12657
G1 X117.845 Y31.774 E54.16882
G1 X117.838 Y32.134 E54.19763
G1 X116.631 Y32.134 E54.29419
G1 X116.631 Y40.068 E54.92891
G1 X116.076 Y40.070 E54.97331
G1 X116.076 Y32.135 E55.60811
G1 X115.734 Y32.137 E55.63547
G1 X115.180 Y32.106 E55.67986
G1 X114.999 Y32.100 E55.69435
G1 X113.915 Y32.145 E55.78114
G1 X113.915 Y40.071 E56.41522
G1 X113.369 Y40.069 E56.45890
G1 X113.369 Y32.134 E57.09370
G1 X112.168 Y32.134 E57.18978
G1 X112.123 Y30.826 E57.29448
G1 X112.099 Y30.230 E57.34220
G1 X112.042 Y29.039 E57.43759
G1 X112.009 Y28.443 E57.48535
G1 X111.971 Y27.845 E57.53328
G1 X111.927 Y27.248 E57.58117
G1 X111.866 Y26.496 E57.64153
G1 X113.174 Y26.496 E57.74617
G1 X113.174 Y17.977 E58.42769
G1 X113.826 Y17.977 E58.47985
G1 X113.826 Y26.492 E59.16105
G1 X114.620 Y26.508 E59.22458
G1 X115.000 Y26.531 E59.25504
G0 F9000 X115.034 Y27.070
;TYPE:SKIN
G1 F2100 X117.400 Y29.436 E59.52272
G0 F9000 X117.374 Y29.975
G1 F2100 X114.445 Y27.047 E59.85404
G0 F9000 X113.877 Y27.044
G1 F2100 X117.347 Y30.515 E60.24668
G0 F9000 X117.326 Y31.059
G1 F2100 X113.308 Y27.041 E60.70127
G0 F9000 X113.548 Y26.715
G1 F2100 X113.498 Y26.383 E60.72101
G1 X113.498 Y25.817 E60.74931
G1 X113.498 Y25.252 E60.77756
G1 X113.498 Y24.686 E60.80586
G1 X113.498 Y24.120 E60.83416
G1 X113.498 Y23.555 E60.86241
G1 X113.498 Y22.989 E60.89071
G1 X113.498 Y22.423 E60.91901
G1 X113.498 Y21.858 E60.94726
G1 X113.498 Y21.292 E60.97556
G1 X113.498 Y20.726 E61.00386
G1 X113.498 Y20.161 E61.03211
G1 X113.498 Y19.595 E61.06041
G1 X113.498 Y19.029 E61.08871
G1 X113.498 Y18.463 E61.11701
G1 X113.494 Y18.176 E61.13997
G0 F9000 X113.494 Y18.278
G0 X113.484 Y26.828
G0 X116.515 Y26.837
G0 X116.474 Y18.226
G0 X116.372 Y18.226
G1 F2100 X116.498 Y18.635 E61.16856
G1 X116.498 Y19.200 E61.19704
G1 X116.498 Y19.766 E61.22556
G1 X116.498 Y20.332 E61.25409
G1 X116.498 Y20.897 E61.28257
G1 X116.498 Y21.463 E61.31109
G1 X116.498 Y22.029 E61.33962
G1 X116.498 Y22.594 E61.36809
G1 X116.498 Y23.160 E61.39662
G1 X116.498 Y23.726 E61.42515
G1 X116.498 Y24.291 E61.45362
G1 X116.498 Y24.857 E61.48215
G1 X116.498 Y25.423 E61.51068
G1 X116.498 Y25.988 E61.53915
G1 X116.625 Y26.398 E61.57349
G0 F9000 X116.697 Y27.036
G1 F2100 X117.494 Y27.833 E61.66366
G0 F9000 X117.458 Y28.362
G1 F2100 X116.131 Y27.036 E61.81374
G0 F9000 X115.569 Y27.039
G1 F2100 X117.427 Y28.897 E62.02395
G0 F9000 X117.531 Y27.304
G1 F2100 X117.263 Y27.036 E62.05427
G0 F9000 X112.739 Y27.038
G1 F2100 X117.295 Y31.594 E62.56972
G0 F9000 X116.730 Y31.594
G1 F2100 X112.473 Y27.337 E63.05134
G0 F9000 X112.517 Y27.947
G1 F2100 X116.165 Y31.595 E63.46407
G0 F9000 X115.592 Y31.587
G1 F2100 X112.553 Y28.548 E63.80789
G0 F9000 X112.586 Y29.147
G1 F2100 X114.998 Y31.560 E64.08083
G0 F9000 X114.455 Y31.582
G1 F2100 X112.610 Y29.738 E64.28952
G0 F9000 X112.635 Y30.328
G1 F2100 X113.901 Y31.594 E64.43275
G0 F9000 X113.335 Y31.594
G1 F2100 X112.660 Y30.918 E64.50917
G0 F9000 X112.685 Y31.509
G1 F2100 X112.770 Y31.594 E64.51879
;LAYER:3
M106 S30
G0 F9000 X112.655 Y31.594 Z0.900
;TYPE:FILL
G1 F2400 X114.040 Y30.209 E64.67548
G0 F9000 X113.618 Y31.594
G1 F2400 X112.504 Y30.479 E64.80157
G0 F9000 X115.958 Y28.291
G1 F2400 X117.214 Y27.035 E64.94367
G0 F9000 X115.957 Y28.276
G1 F2400 X117.526 Y29.845 E65.12119
G0 F9000 X117.668 Y29.743
;TYPE:WALL-INNER
G1 F2400 X117.640 Y30.259 E65.16253
G1 X117.615 Y30.778 E65.20409
G1 X117.594 Y31.299 E65.24581
G1 X117.578 Y31.734 E65.28063
G1 X116.231 Y31.734 E65.38839
G1 X116.231 Y31.761 E65.39055
G1 X115.833 Y31.730 E65.42249
G1 X115.601 Y31.661 E65.44185
G1 X115.507 Y31.615 E65.45022
G1 X115.402 Y31.584 E65.45898
G1 X115.342 Y31.552 E65.46442
G1 X115.002 Y31.486 E65.49213
G1 X114.701 Y31.542 E65.51662
G1 X114.176 Y31.729 E65.56121
G1 X113.769 Y31.762 E65.59388
G1 X113.769 Y31.734 E65.59612
G1 X112.419 Y31.734 E65.70412
G1 X112.385 Y30.808 E65.77825
G1 X112.358 Y30.210 E65.82613
G1 X112.327 Y29.611 E65.87412
G1 X112.291 Y29.010 E65.92228
G1 X112.249 Y28.412 E65.97024
G1 X112.205 Y27.811 E66.01845
G1 X112.156 Y27.236 E66.06462
G1 X112.125 Y26.896 E66.09193
G1 X113.574 Y26.896 E66.20785
G1 X113.574 Y26.874 E66.20961
G1 X114.175 Y26.904 E66.25775
G1 X114.323 Y26.944 E66.27001
G1 X114.693 Y27.089 E66.30181
G1 X114.994 Y27.141 E66.32624
G1 X115.297 Y27.094 E66.35077
G1 X115.779 Y26.912 E66.39199
G1 X116.426 Y26.874 E66.44384
G1 X116.426 Y26.896 E66.44560
G1 X117.873 Y26.896 E66.56136
G1 X117.817 Y27.551 E66.61395
G1 X117.774 Y28.108 E66.65864
G1 X117.734 Y28.663 E66.70316
G1 X117.698 Y29.219 E66.74773
G1 X117.668 Y29.743 E66.78972
G0 F9000 X118.039 Y30.279
;TYPE:WALL-OUTER
G1 F2400 X118.014 Y30.795 E66.83105
G1 X117.975 Y31.832 E66.91407
G1 X117.968 Y32.134 E66.93823
G1 X116.631 Y32.134 E67.04519
G1 X116.631 Y40.392 E67.70583
G1 X116.076 Y40.394 E67.75023
G1 X116.076 Y32.150 E68.40975
G1 X115.763 Y32.126 E68.43487
G1 X115.454 Y32.034 E68.46066
G1 X115.361 Y31.989 E68.46893
G1 X115.207 Y31.933 E68.48203
G1 X115.001 Y31.893 E68.49882
G1 X114.808 Y31.929 E68.51453
