;FLAVOR:UltiGCode
;TIME:3248
;MATERIAL:6243
;MATERIAL2:0

;Layer count: 71
;LAYER:0
M107
G0 F9000 X53.792 Y51.445 Z0.300
;TYPE:SKIRT
G1 F1200 X54.509 Y50.863 E0.11082
G1 X55.401 Y50.396 E0.23164
G1 X56.476 Y50.134 E0.36442
G1 X57.090 Y50.124 E0.43811
G1 X58.317 Y50.129 E0.58535
G1 X58.317 Y50.120 E0.58643
G1 X63.396 Y50.147 E1.19592
G1 X63.925 Y50.176 E1.25949
G1 X64.965 Y50.433 E1.38804
G1 X65.874 Y50.929 E1.51231
G1 X67.680 Y52.455 E1.79603
G1 X67.665 Y56.434 E2.27352
G1 X67.661 Y57.279 E2.37492
G1 X67.651 Y59.641 E2.65836
G1 X67.640 Y62.586 E3.01176
G1 X67.458 Y64.127 E3.19797
G1 X67.398 Y64.600 E3.25518
G1 X67.335 Y65.226 E3.33068
G1 X67.269 Y65.882 E3.40980
G1 X67.196 Y66.496 E3.48400
G1 X67.167 Y67.014 E3.54626
G1 X67.114 Y67.801 E3.64091
G1 X67.069 Y68.363 E3.70857
G1 X67.067 Y68.425 E3.71601
G1 X67.018 Y69.217 E3.81123
G1 X66.979 Y69.927 E3.89656
G1 X66.943 Y70.529 E3.96893
G1 X66.891 Y71.389 E4.07232
G1 X66.853 Y72.003 E4.14614
G1 X66.798 Y72.856 E4.24871
G1 X66.759 Y73.446 E4.31967
G1 X66.600 Y75.607 E4.57969
G1 X65.377 Y77.096 E4.81091
G1 X64.221 Y77.844 E4.97614
G1 X63.738 Y77.983 E5.03645
G1 X63.679 Y78.018 E5.04468
G1 X62.649 Y78.457 E5.17904
G1 X61.465 Y78.773 E5.32609
G1 X60.636 Y78.878 E5.42637
G1 X59.828 Y78.897 E5.52336
G1 X58.675 Y78.781 E5.66241
G1 X57.522 Y78.478 E5.80547
G1 X56.579 Y78.086 E5.92802
G1 X56.524 Y78.054 E5.93566
G1 X55.640 Y77.720 E6.04906
G1 X54.639 Y76.967 E6.19937
G1 X53.512 Y75.511 E6.42031
G1 X53.386 Y73.557 E6.65528
G1 X53.344 Y72.881 E6.73656
G1 X53.298 Y72.078 E6.83307
G1 X53.258 Y71.366 E6.91865
G1 X53.222 Y70.610 E7.00947
G1 X53.221 Y70.610 E7.00959
G1 X53.183 Y69.885 E7.09671
G1 X53.152 Y69.351 E7.16090
G1 X53.120 Y68.817 E7.22509
G1 X53.083 Y68.139 E7.30658
G1 X53.019 Y67.239 E7.41485
G1 X52.979 Y66.702 E7.47947
G1 X52.915 Y65.960 E7.56884
G1 X52.860 Y65.294 E7.64903
G1 X52.803 Y64.714 E7.71896
G1 X52.755 Y64.193 E7.78175
G1 X52.642 Y63.191 E7.90275
G1 X52.574 Y62.510 E7.98488
G1 X52.578 Y61.599 E8.09420
G1 X52.584 Y59.585 E8.33588
G1 X52.591 Y57.563 E8.57852
G1 X52.595 Y56.833 E8.66612
G1 X52.596 Y55.948 E8.77232
G1 X52.607 Y52.893 E9.13892
G1 X53.792 Y51.445 E9.36345
G0 F9000 X54.076 Y51.730
G1 F1200 X54.730 Y51.199 E9.46454
G1 X55.543 Y50.773 E9.57469
G1 X56.527 Y50.533 E9.69623
G1 X57.092 Y50.524 E9.76404
G1 X58.715 Y50.531 E9.95880
G1 X58.715 Y50.523 E9.95976
G1 X63.384 Y50.547 E10.52005
G1 X63.865 Y50.573 E10.57785
G1 X64.818 Y50.809 E10.69566
G1 X65.647 Y51.261 E10.80897
G1 X67.279 Y52.640 E11.06536
G1 X67.265 Y56.432 E11.52041
G1 X67.261 Y57.277 E11.62181
G1 X67.251 Y59.639 E11.90525
G1 X67.240 Y62.561 E12.25589
G1 X67.061 Y64.078 E12.43919
G1 X67.001 Y64.546 E12.49581
G1 X66.937 Y65.186 E12.57300
G1 X66.872 Y65.838 E12.65163
G1 X66.796 Y66.474 E12.72849
G1 X66.767 Y66.990 E12.79051
G1 X66.715 Y67.771 E12.88443
G1 X66.671 Y68.322 E12.95076
G1 X66.668 Y68.406 E12.96085
G1 X66.621 Y69.167 E13.05234
G1 X66.580 Y69.904 E13.14092
G1 X66.543 Y70.504 E13.21306
G1 X66.491 Y71.364 E13.31645
G1 X66.454 Y71.978 E13.39026
G1 X66.398 Y72.831 E13.49284
G1 X66.360 Y73.418 E13.56343
G1 X66.210 Y75.451 E13.80805
G1 X65.107 Y76.794 E14.01660
G1 X64.053 Y77.476 E14.16725
G1 X63.578 Y77.613 E14.22657
G1 X63.497 Y77.661 E14.23787
G1 X62.518 Y78.078 E14.36556
G1 X61.388 Y78.380 E14.50592
G1 X60.607 Y78.479 E14.60039
G1 X59.844 Y78.496 E14.69197
G1 X58.746 Y78.386 E14.82439
G1 X57.650 Y78.098 E14.96038
G1 X56.756 Y77.726 E15.07657
G1 X56.698 Y77.693 E15.08458
G1 X55.835 Y77.366 E15.19533
G1 X54.923 Y76.679 E15.33234
G1 X53.904 Y75.363 E15.53207
G1 X53.785 Y73.532 E15.75225
G1 X53.743 Y72.857 E15.83341
G1 X53.698 Y72.056 E15.92968
G1 X53.658 Y71.345 E16.01514
G1 X53.620 Y70.577 E16.10741
G1 X53.583 Y69.864 E16.19309
G1 X53.551 Y69.328 E16.25752
G1 X53.552 Y69.328 E16.25764
G1 X53.519 Y68.794 E16.32184
G1 X53.478 Y68.051 E16.41114
G1 X53.418 Y67.210 E16.51231
G1 X53.378 Y66.673 E16.57693
G1 X53.314 Y65.926 E16.66690
G1 X53.253 Y65.202 E16.75409
G1 X53.201 Y64.676 E16.81752
G1 X53.151 Y64.140 E16.88212
G1 X53.040 Y63.149 E17.00178
G1 X52.974 Y62.491 E17.08114
G1 X52.978 Y61.601 E17.18794
G1 X52.984 Y59.586 E17.42974
G1 X52.991 Y57.565 E17.67226
G1 X52.995 Y56.835 E17.75986
G1 X52.996 Y55.949 E17.86618
G1 X53.007 Y53.036 E18.21574
G1 X54.076 Y51.730 E18.41827
G0 F9000 X54.359 Y52.015
G1 F1200 X54.951 Y51.535 E18.50973
G1 X55.686 Y51.150 E18.60930
G1 X56.578 Y50.932 E18.71949
G1 X57.094 Y50.924 E18.78141
G1 X59.114 Y50.933 E19.02382
G1 X59.114 Y50.925 E19.02478
G1 X63.372 Y50.946 E19.53574
G1 X63.806 Y50.971 E19.58791
G1 X64.672 Y51.185 E19.69495
G1 X65.419 Y51.592 E19.79704
G1 X66.879 Y52.825 E20.02635
G1 X66.865 Y56.431 E20.45908
G1 X66.861 Y57.275 E20.56036
G1 X66.851 Y59.638 E20.84392
G1 X66.840 Y62.537 E21.19180
G1 X66.664 Y64.029 E21.37209
G1 X66.605 Y64.492 E21.42809
G1 X66.539 Y65.146 E21.50697
G1 X66.474 Y65.794 E21.58512
G1 X66.399 Y66.422 E21.66102
G1 X66.368 Y66.965 E21.72628
G1 X66.316 Y67.742 E21.81973
G1 X66.270 Y68.318 E21.88907
G1 X66.268 Y68.388 E21.89748
G1 X66.220 Y69.167 E21.99113
G1 X66.181 Y69.880 E22.07682
G1 X66.144 Y70.480 E22.14896
G1 X66.092 Y71.340 E22.25235
G1 X66.055 Y71.952 E22.32592
G1 X65.999 Y72.805 E22.42850
G1 X65.961 Y73.390 E22.49885
G1 X65.820 Y75.295 E22.72808
G1 X64.838 Y76.492 E22.91387
G1 X63.886 Y77.108 E23.04994
G1 X63.417 Y77.243 E23.10850
G1 X63.316 Y77.303 E23.12260
G1 X62.388 Y77.699 E23.24367
G1 X61.311 Y77.986 E23.37742
G1 X60.577 Y78.079 E23.46621
G1 X59.860 Y78.096 E23.55227
G1 X58.817 Y77.991 E23.67807
G1 X57.779 Y77.718 E23.80686
G1 X56.934 Y77.367 E23.91666
G1 X56.873 Y77.332 E23.92510
G1 X56.030 Y77.012 E24.03330
G1 X55.206 Y76.392 E24.15705
G1 X54.295 Y75.215 E24.33565
G1 X54.184 Y73.506 E24.54117
G1 X54.143 Y72.833 E24.62207
G1 X54.097 Y72.033 E24.71823
G1 X54.057 Y71.324 E24.80345
G1 X54.020 Y70.568 E24.89428
G1 X53.982 Y69.843 E24.98140
G1 X53.983 Y69.843 E24.98152
G1 X53.951 Y69.304 E25.04631
G1 X53.918 Y68.771 E25.11039
G1 X53.881 Y68.082 E25.19319
G1 X53.817 Y67.182 E25.30146
G1 X53.777 Y66.643 E25.36632
G1 X53.712 Y65.892 E25.45678
G1 X53.656 Y65.216 E25.53818
G1 X53.600 Y64.638 E25.60786
G1 X53.555 Y64.151 E25.66655
G1 X53.438 Y63.106 E25.79273
G1 X53.374 Y62.472 E25.86920
G1 X53.378 Y61.602 E25.97360
G1 X53.384 Y59.588 E26.21528
G1 X53.391 Y57.567 E26.45781
G1 X53.395 Y56.837 E26.54541
G1 X53.396 Y55.950 E26.65185
G1 X53.406 Y53.180 E26.98425
G1 X54.359 Y52.015 E27.16486
G10
G0 F9000 X58.165 Y60.993
;TYPE:FILL
G11
G1 F1200 X58.240 Y61.068 E27.17759
G0 F9000 X58.480 Y61.055
G0 X58.895 Y62.180
G0 X59.233 Y62.321
G0 X59.099 Y62.522
G1 F1200 X58.857 Y62.764 E27.21866
G10
G0 F9000 X58.100 Y69.178
G11
G1 F1200 X57.902 Y69.377 E27.25235
G0 F9000 X57.661 Y69.393
G0 X60.719 Y68.962
G0 X60.716 Y69.201
G1 F1200 X60.997 Y69.483 E27.30012
G0 F9000 X60.711 Y69.627
;TYPE:WALL-INNER
G1 F1200 X60.100 Y69.626 E27.37344
G1 X57.776 Y69.629 E27.65232
G1 X57.741 Y69.037 E27.72348
G1 X58.853 Y69.047 E27.85693
G1 X62.419 Y69.076 E28.28486
G1 X62.389 Y69.622 E28.35048
G1 X60.711 Y69.627 E28.55184
G10
G0 F9000 X61.771 Y72.643
G11
G1 F1200 X62.112 Y72.513 E28.59564
G1 X62.215 Y72.441 E28.61072
G1 X62.170 Y73.130 E28.69357
G1 X62.133 Y73.633 E28.75410
G1 X62.046 Y73.638 E28.76455
G1 X61.593 Y73.907 E28.82778
G1 X61.149 Y74.096 E28.88568
G1 X60.574 Y74.250 E28.95711
G1 X60.299 Y74.285 E28.99038
G1 X60.006 Y74.291 E29.02555
G1 X59.491 Y74.239 E29.08766
G1 X58.998 Y74.110 E29.14881
G1 X58.618 Y73.952 E29.19820
G1 X58.135 Y73.674 E29.26507
G1 X58.002 Y73.658 E29.28115
G1 X57.936 Y72.606 E29.40764
G1 X57.924 Y72.394 E29.43312
G1 X58.087 Y72.507 E29.45692
G1 X58.430 Y72.636 E29.50089
G1 X59.937 Y72.662 E29.68176
G1 X61.479 Y72.667 E29.86680
G1 X61.771 Y72.643 E29.90196
G10
G0 F9000 X62.893 Y63.563
G11
G1 F1200 X62.865 Y63.780 E29.92821
G1 X62.868 Y62.919 E30.03153
G1 X57.384 Y62.900 E30.68962
G1 X57.378 Y64.239 E30.85030
G1 X57.332 Y63.734 E30.91115
G1 X57.216 Y62.702 E31.03577
G1 X57.175 Y62.290 E31.08546
G1 X57.195 Y56.857 E31.73742
G1 X57.196 Y55.960 E31.84506
G1 X57.201 Y54.724 E31.99338
G1 X57.414 Y54.725 E32.01894
G1 X57.391 Y60.853 E32.75431
G1 X58.370 Y60.854 E32.87179
G1 X58.389 Y61.233 E32.91732
G1 X58.490 Y61.580 E32.96069
G1 X58.675 Y61.920 E33.00714
G1 X58.895 Y62.181 E33.04810
G1 X59.160 Y62.397 E33.08913
G1 X59.465 Y62.557 E33.13046
G1 X59.782 Y62.653 E33.17020
G1 X60.128 Y62.688 E33.21194
G1 X60.494 Y62.652 E33.25607
G1 X60.829 Y62.545 E33.29827
G1 X61.132 Y62.380 E33.33967
G1 X61.396 Y62.159 E33.38099
G1 X61.612 Y61.893 E33.42210
G1 X61.773 Y61.589 E33.46338
G1 X61.871 Y61.261 E33.50446
G1 X61.903 Y60.953 E33.54162
G1 X61.903 Y60.863 E33.55242
G1 X62.877 Y60.871 E33.66931
G1 X62.900 Y54.744 E34.40455
G1 X63.071 Y54.745 E34.42507
G1 X63.041 Y62.306 E35.33240
G1 X62.893 Y63.563 E35.48428
G0 F9000 X63.289 Y63.616
;TYPE:WALL-OUTER
G1 F1200 X63.225 Y64.117 E35.54489
G1 X63.094 Y65.421 E35.70216
G1 X63.010 Y66.130 E35.78783
G1 X62.974 Y66.756 E35.86308
G1 X62.925 Y67.494 E35.95183
G1 X62.874 Y68.127 E36.02804
G1 X62.826 Y68.957 E36.12780
G1 X62.786 Y69.683 E36.21506
G1 X62.569 Y73.157 E36.63275
G1 X62.511 Y73.947 E36.72780
G1 X62.460 Y73.981 E36.73516
G1 X62.316 Y74.022 E36.75313
G1 X62.167 Y74.031 E36.77104
G1 X61.774 Y74.265 E36.82593
G1 X61.277 Y74.476 E36.89072
G1 X60.653 Y74.643 E36.96823
G1 X60.329 Y74.684 E37.00742
G1 X59.991 Y74.692 E37.04799
G1 X59.420 Y74.634 E37.11687
G1 X58.873 Y74.491 E37.18471
G1 X58.437 Y74.309 E37.24141
G1 X58.006 Y74.061 E37.30108
G1 X57.760 Y74.032 E37.33080
G1 X57.687 Y74.004 E37.34019
G1 X57.621 Y73.954 E37.35012
G1 X57.537 Y72.630 E37.50932
G1 X57.453 Y71.145 E37.68781
G1 X57.378 Y69.665 E37.86563
G1 X57.273 Y67.842 E38.08476
G1 X57.167 Y66.389 E38.25958
G1 X57.040 Y64.885 E38.44070
G1 X56.984 Y64.313 E38.50967
G1 X56.934 Y63.775 E38.57451
G1 X56.819 Y62.747 E38.69864
G1 X56.775 Y62.309 E38.75146
G1 X56.802 Y54.411 E39.69923
G1 X56.896 Y54.354 E39.71242
G1 X57.012 Y54.326 E39.72674
G1 X57.115 Y54.324 E39.73910
G1 X57.815 Y54.327 E39.82310
G1 X57.792 Y60.454 E40.55835
G1 X58.767 Y60.455 E40.67535
G1 X58.765 Y60.734 E40.70883
G1 X58.786 Y61.166 E40.76073
G1 X58.862 Y61.427 E40.79335
G1 X59.007 Y61.693 E40.82971
G1 X59.176 Y61.894 E40.86122
G1 X59.381 Y62.061 E40.89295
G1 X59.618 Y62.185 E40.92505
G1 X59.861 Y62.259 E40.95553
G1 X60.129 Y62.286 E40.98785
G1 X60.413 Y62.258 E41.02210
G1 X60.671 Y62.176 E41.05458
G1 X60.905 Y62.048 E41.08659
G1 X61.109 Y61.877 E41.11853
G1 X61.277 Y61.671 E41.15043
G1 X61.401 Y61.436 E41.18231
G1 X61.477 Y61.182 E41.21413
G1 X61.503 Y60.932 E41.24429
G1 X61.504 Y60.462 E41.30069
G1 X62.478 Y60.468 E41.41757
G1 X62.501 Y54.342 E42.15270
G1 X63.264 Y54.346 E42.24426
G1 X63.302 Y54.348 E42.24883
G1 X63.428 Y54.379 E42.26440
G1 X63.473 Y54.404 E42.27057
G1 X63.441 Y62.328 E43.22146
G1 X63.289 Y63.616 E43.37709
G0 F9000 X62.467 Y63.318
G1 F1200 X57.783 Y63.301 E43.93918
G1 X57.766 Y67.377 E44.42830
G1 X57.767 Y67.556 E44.44978
G1 X57.762 Y68.637 E44.57950
G1 X62.447 Y68.677 E45.14172
G1 X62.467 Y63.318 E45.78481
G10
G0 F9000 X62.444 Y70.022
G11
G1 F1200 X57.757 Y70.030 E46.34725
G1 X57.753 Y71.277 E46.49689
G1 X57.759 Y71.399 E46.51155
G1 X57.813 Y71.625 E46.53943
G1 X57.922 Y71.834 E46.56772
G1 X58.078 Y72.014 E46.59630
G1 X58.274 Y72.150 E46.62493
G1 X58.506 Y72.237 E46.65466
G1 X59.941 Y72.262 E46.82689
G1 X61.463 Y72.267 E47.00953
G1 X61.682 Y72.249 E47.03590
G1 X61.923 Y72.157 E47.06685
G1 X62.112 Y72.024 E47.09459
G1 X62.269 Y71.843 E47.12334
G1 X62.374 Y71.645 E47.15023
G1 X62.432 Y71.416 E47.17858
G1 X62.444 Y70.022 E47.34587
G0 F9000 X62.264 Y69.336
;TYPE:SKIN
G1 F1200 X61.993 Y69.347 E47.36661
G1 X61.426 Y69.345 E47.41271
G1 X60.858 Y69.343 E47.46008
G1 X60.290 Y69.341 E47.50831
G1 X59.723 Y69.339 E47.55747
G1 X59.155 Y69.337 E47.60773
G1 X58.587 Y69.335 E47.65886
G1 X58.148 Y69.179 E47.71476
G10
G0 F9000 X57.567 Y67.467
G11
G1 F1200 X57.501 Y67.118 E47.73725
G1 X57.478 Y66.529 E47.76837
G1 X57.455 Y65.940 E47.80798
G1 X57.431 Y65.351 E47.85626
G1 X57.408 Y64.762 E47.91320
G1 X57.349 Y64.420 E47.95485
G0 F9000 X57.296 Y64.426
G0 X57.443 Y62.960
G0 X57.951 Y63.003
G0 X57.952 Y62.760
G1 F1200 X57.315 Y62.123 E48.06295
G0 F9000 X57.317 Y61.560
G1 F1200 X58.520 Y62.762 E48.26702
G0 F9000 X59.087 Y62.764
G1 F1200 X57.318 Y60.995 E48.56723
G0 F9000 X57.882 Y60.993
G1 F1200 X58.293 Y61.405 E48.63706
G10
G0 F9000 X58.317 Y72.742
G11
G1 F1200 X59.691 Y74.116 E48.87024
G0 F9000 X60.285 Y74.144
G1 F1200 X58.920 Y72.779 E49.10189
G0 F9000 X59.492 Y72.786
G1 F1200 X60.760 Y74.054 E49.31707
G0 F9000 X61.195 Y73.923
G1 F1200 X60.063 Y72.791 E49.50918
G0 F9000 X60.635 Y72.798
G1 F1200 X61.586 Y73.748 E49.67048
G0 F9000 X61.940 Y73.536
G1 F1200 X61.207 Y72.803 E49.79488
G0 F9000 X61.753 Y72.784
G1 F1200 X62.035 Y73.066 E49.84274
G10
G0 F9000 X62.790 Y66.467
G11
G1 F1200 X62.743 Y66.137 E49.86554
G1 X62.773 Y65.601 E49.89501
G1 X62.800 Y65.063 E49.93395
G1 X62.827 Y64.524 E49.98188
G1 X62.663 Y64.077 E50.03901
G0 F9000 X62.494 Y62.777
G1 F1200 X61.710 Y61.993 E50.17206
G0 F9000 X61.448 Y62.296
G1 F1200 X61.642 Y62.773 E50.25317
G1 X61.127 Y62.541 E50.32095
G0 F9000 X61.907 Y61.624
G1 F1200 X62.866 Y62.583 E50.48370
G0 F9000 X62.902 Y62.053
G1 F1200 X62.019 Y61.171 E50.63346
G0 F9000 X62.421 Y61.007
G1 F1200 X62.903 Y61.489 E50.71526
G10
G0 F9000 X58.107 Y73.097
G11
G1 F1200 X58.943 Y73.934 E50.85722
;LAYER:1
M106 S10
G10
G0 F9000 X57.758 Y69.520 Z0.500
;TYPE:FILL
G11
G1 F1620 X58.187 Y69.091 E50.90575
G0 F9000 X57.417 Y68.889
G0 X57.442 Y62.967
G0 X58.850 Y62.771
G1 F1620 X59.100 Y62.521 E50.93404
G0 F9000 X62.807 Y62.985
G0 X62.787 Y68.916
G0 X60.618 Y69.104
G1 F1620 X61.097 Y69.582 E50.98817
G0 F9000 X61.159 Y68.970
;TYPE:WALL-INNER
G1 F1620 X62.599 Y68.975 E51.10337
G1 X62.553 Y69.668 E51.15894
G1 X62.549 Y69.728 E51.16375
G1 X57.629 Y69.715 E51.55735
G1 X57.583 Y68.949 E51.61874
G1 X59.369 Y68.961 E51.76162
G1 X60.101 Y68.963 E51.82018
G1 X61.159 Y68.970 E51.90482
G10
G0 F9000 X62.096 Y72.498
G11
G1 F1620 X62.374 Y72.306 E51.93185
G1 X62.324 Y73.118 E51.99694
G1 X62.275 Y73.889 E52.05874
G1 X62.274 Y73.911 E52.06050
G1 X62.255 Y73.951 E52.06404
G1 X62.036 Y73.970 E52.08163
G1 X61.592 Y74.232 E52.12287
G1 X61.269 Y74.380 E52.15130
G1 X60.756 Y74.535 E52.19417
G1 X60.317 Y74.606 E52.22975
G1 X60.020 Y74.617 E52.25352
G1 X59.758 Y74.603 E52.27451
G1 X59.245 Y74.512 E52.31619
G1 X58.839 Y74.377 E52.35042
G1 X58.445 Y74.186 E52.38545
G1 X58.143 Y74.007 E52.41353
G1 X57.903 Y73.972 E52.43294
G1 X57.878 Y73.909 E52.43836
G1 X57.843 Y73.326 E52.48508
G1 X57.781 Y72.256 E52.57083
G1 X57.807 Y72.286 E52.57400
G1 X58.081 Y72.478 E52.60077
G1 X58.386 Y72.596 E52.62693
G1 X58.682 Y72.641 E52.65088
G1 X61.495 Y72.653 E52.87593
G1 X61.789 Y72.611 E52.89968
G1 X62.096 Y72.498 E52.92586
G10
G0 F9000 X62.909 Y65.134
G11
G1 F1620 X62.857 Y65.658 E52.96798
G1 X62.863 Y63.943 E53.10518
G1 X62.868 Y62.927 E53.18646
G1 X57.384 Y62.907 E53.62519
G1 X57.375 Y64.666 E53.76591
G1 X57.371 Y65.974 E53.87055
G1 X57.314 Y65.234 E53.92992
G1 X57.264 Y64.643 E53.97737
G1 X57.193 Y63.861 E54.04019
G1 X57.058 Y62.300 E54.16554
G1 X57.067 Y60.181 E54.33506
G1 X57.068 Y59.600 E54.38154
G1 X57.079 Y56.855 E54.60114
G1 X57.079 Y55.908 E54.67690
G1 X57.086 Y54.737 E54.77058
G1 X57.185 Y54.736 E54.77850
G1 X57.413 Y54.737 E54.79674
G1 X57.390 Y61.132 E55.30835
G1 X58.383 Y61.133 E55.38779
G1 X58.386 Y61.218 E55.39459
G1 X58.479 Y61.549 E55.42209
G1 X58.698 Y61.952 E55.45879
G1 X58.914 Y62.200 E55.48510
G1 X59.178 Y62.407 E55.51194
G1 X59.481 Y62.563 E55.53920
G1 X59.780 Y62.653 E55.56418
G1 X60.125 Y62.688 E55.59192
G1 X60.475 Y62.656 E55.62004
G1 X60.807 Y62.555 E55.64780
G1 X61.079 Y62.413 E55.67235
G1 X61.349 Y62.203 E55.69971
G1 X61.617 Y61.882 E55.73317
G1 X61.778 Y61.573 E55.76104
G1 X61.871 Y61.251 E55.78785
G1 X61.886 Y61.102 E55.79983
G1 X62.876 Y61.082 E55.87905
G1 X62.898 Y54.756 E56.38513
G1 X63.211 Y54.758 E56.41017
G1 X63.197 Y56.878 E56.57978
G1 X63.176 Y62.332 E57.01610
G1 X63.093 Y63.232 E57.08840
G1 X63.035 Y63.771 E57.13177
G1 X62.964 Y64.513 E57.19140
G1 X62.909 Y65.134 E57.24128
