;FLAVOR:UltiGCode
;TIME:1923
;MATERIAL:3296
;MATERIAL2:0

;Layer count: 16
;LAYER:0
M107
G0 F9000 X59.839 Y75.921 Z0.300
G0 X59.839 Y76.553
;TYPE:SKIRT
G1 F1200 X59.839 Y75.921 E0.07584
G1 X66.671 Y75.921 E0.89568
G1 X66.671 Y76.550 E0.97116
G1 X67.257 Y76.940 E1.05563
G1 X69.079 Y78.325 E1.33027
G1 X69.090 Y84.895 E2.11867
G1 X68.526 Y84.895 E2.18635
G1 X68.526 Y85.076 E2.20807
G1 X69.651 Y85.076 E2.34307
G1 X69.651 Y94.635 E3.49015
G1 X56.859 Y94.635 E5.02519
G1 X56.859 Y85.076 E6.17227
G1 X57.984 Y85.076 E6.30727
G1 X57.984 Y84.895 E6.32899
G1 X57.439 Y84.895 E6.39439
G1 X57.427 Y78.253 E7.19143
G1 X59.602 Y76.702 E7.51199
G1 X59.839 Y76.553 E7.54559
G0 F9000 X60.239 Y76.773
G1 F1200 X60.239 Y76.321 E7.59983
G1 X66.271 Y76.321 E8.32367
G1 X66.271 Y76.764 E8.37683
G1 X67.025 Y77.266 E8.48553
G1 X68.679 Y78.523 E8.73482
G1 X68.689 Y84.495 E9.45146
G1 X68.126 Y84.495 E9.51902
G1 X68.125 Y85.476 E9.63674
G1 X69.251 Y85.476 E9.77186
G1 X69.251 Y94.235 E10.82294
G1 X57.259 Y94.235 E12.26198
G1 X57.259 Y85.476 E13.31306
G1 X58.384 Y85.476 E13.44806
G1 X58.384 Y84.495 E13.56578
G1 X57.838 Y84.495 E13.63130
G1 X57.828 Y78.459 E14.35562
G1 X59.825 Y77.034 E14.65002
G1 X60.239 Y76.773 E14.70875
G0 F9000 X60.639 Y76.995
G1 F1200 X60.639 Y76.721 E14.74163
G1 X65.871 Y76.721 E15.36947
G1 X65.871 Y76.978 E15.40031
G1 X66.793 Y77.592 E15.53323
G1 X68.279 Y78.722 E15.75725
G1 X68.288 Y84.095 E16.40202
G1 X67.726 Y84.095 E16.46946
G1 X67.726 Y84.199 E16.48194
G1 X67.725 Y85.876 E16.68318
G1 X68.851 Y85.876 E16.81830
G1 X68.851 Y93.835 E17.77338
G1 X57.659 Y93.835 E19.11642
G1 X57.659 Y85.876 E20.07150
G1 X58.784 Y85.876 E20.20650
G1 X58.784 Y84.095 E20.42022
G1 X58.237 Y84.095 E20.48586
G1 X58.228 Y78.665 E21.13746
G1 X60.048 Y77.367 E21.40571
G1 X60.639 Y76.995 E21.48951
G10
G0 F9000 X62.584 Y85.975
;TYPE:WALL-INNER
G11
G1 F1200 X63.925 Y85.975 E21.65043
G1 X63.928 Y88.588 E21.96399
G1 X63.926 Y89.676 E22.09455
G1 X65.051 Y89.676 E22.22955
G1 X65.051 Y90.035 E22.27263
G1 X61.459 Y90.035 E22.70367
G1 X61.459 Y89.676 E22.74675
G1 X62.582 Y89.676 E22.88151
G1 X62.584 Y85.975 E23.32563
G0 F9000 X62.471 Y85.575
;TYPE:WALL-OUTER
G1 F1200 X64.039 Y85.575 E23.51379
G1 X64.039 Y80.121 E24.16827
G1 X64.457 Y80.121 E24.21843
G1 X64.882 Y80.410 E24.28010
G1 X64.883 Y80.695 E24.31430
G1 X64.328 Y80.695 E24.38090
G1 X64.327 Y89.276 E25.41062
G1 X65.451 Y89.276 E25.54550
G1 X65.451 Y90.435 E25.68458
G1 X61.059 Y90.435 E26.21162
G1 X61.059 Y89.276 E26.35070
G1 X62.182 Y89.276 E26.48546
G1 X62.182 Y81.053 E27.47222
G1 X62.184 Y80.695 E27.51519
G1 X61.632 Y80.695 E27.58143
G1 X61.631 Y80.414 E27.61515
G1 X62.055 Y80.121 E27.67699
G1 X62.471 Y80.121 E27.72691
G1 X62.471 Y85.575 E28.38139
G0 F9000 X62.723 Y86.199
;TYPE:SKIN
G1 F1200 X63.785 Y87.261 E28.56162
G0 F9000 X63.785 Y86.696
G1 F1200 X63.204 Y86.114 E28.66030
G0 F9000 X62.723 Y86.765
G1 F1200 X63.785 Y87.827 E28.84053
G0 F9000 X63.785 Y88.393
G1 F1200 X62.723 Y87.330 E29.02084
G0 F9000 X62.723 Y87.896
G1 F1200 X63.785 Y88.958 E29.20107
G0 F9000 X63.785 Y89.524
G1 F1200 X62.722 Y88.461 E29.38147
G0 F9000 X62.721 Y89.026
G1 F1200 X63.589 Y89.893 E29.52869
G0 F9000 X63.023 Y89.893
G1 F1200 X62.721 Y89.591 E29.57994
;LAYER:1
M106 S10
G0 F9000 X62.384 Y89.676 Z0.500
;TYPE:WALL-INNER
G1 F840 X62.383 Y86.571 E29.82834
G1 X62.382 Y85.975 E29.87602
G1 X64.125 Y85.975 E30.01546
G1 X64.126 Y89.676 E30.31154
G1 X65.051 Y89.676 E30.38554
G1 X65.051 Y90.035 E30.41426
G1 X61.459 Y90.035 E30.70162
G1 X61.459 Y89.676 E30.73034
G1 X62.384 Y89.676 E30.80434
G0 F9000 X61.984 Y89.276
;TYPE:WALL-OUTER
G1 F840 X61.985 Y80.695 E31.49082
G1 X61.475 Y80.695 E31.53162
G1 X61.475 Y80.408 E31.55458
G1 X61.844 Y80.121 E31.59198
G1 X62.471 Y80.121 E31.64214
G1 X62.471 Y85.575 E32.07846
G1 X64.039 Y85.575 E32.20390
G1 X64.039 Y80.121 E32.64022
G1 X64.670 Y80.121 E32.69070
G1 X65.040 Y80.409 E32.72821
G1 X65.040 Y80.695 E32.75109
G1 X64.526 Y80.695 E32.79221
G1 X64.526 Y89.276 E33.47869
G1 X65.451 Y89.276 E33.55269
G1 X65.451 Y90.435 E33.64541
G1 X61.059 Y90.435 E33.99677
G1 X61.059 Y89.276 E34.08949
G1 X61.984 Y89.276 E34.16349
G0 F9000 X62.523 Y89.362
;TYPE:SKIN
G1 F840 X63.984 Y87.901 E34.32878
G0 F9000 X63.984 Y87.336
G1 F840 X62.523 Y88.797 E34.49407
G0 F9000 X62.523 Y88.231
G1 F840 X63.984 Y86.770 E34.65937
G0 F9000 X63.984 Y86.204
G1 F840 X62.523 Y87.666 E34.82472
G0 F9000 X62.523 Y87.100
G1 F840 X63.509 Y86.114 E34.93627
G0 F9000 X62.943 Y86.114
G1 F840 X62.523 Y86.535 E34.98384
G0 F9000 X63.985 Y88.466
G1 F840 X62.557 Y89.894 E35.14540
G0 F9000 X63.123 Y89.894
G1 F840 X63.985 Y89.032 E35.24293
G0 F9000 X63.985 Y89.598
G1 F840 X63.689 Y89.894 E35.27642
;LAYER:2
M106 S20
G0 F9000 X64.277 Y89.676 Z0.700
;TYPE:WALL-INNER
G1 F960 X65.051 Y89.676 E35.33834
G1 X65.051 Y90.035 E35.36706
G1 X61.459 Y90.035 E35.65442
G1 X61.459 Y89.676 E35.68314
G1 X62.231 Y89.676 E35.74490
G1 X62.233 Y88.366 E35.84970
G1 X62.233 Y85.975 E36.04098
G1 X64.277 Y85.975 E36.20450
G1 X64.277 Y89.676 E36.50058
G0 F9000 X64.677 Y89.276
;TYPE:WALL-OUTER
G1 F960 X65.451 Y89.276 E36.56250
G1 X65.451 Y90.435 E36.65522
G1 X61.059 Y90.435 E37.00658
G1 X61.059 Y89.276 E37.09930
G1 X61.832 Y89.276 E37.16114
G1 X61.833 Y80.695 E37.84762
G1 X61.353 Y80.695 E37.88602
G1 X61.352 Y80.403 E37.90938
G1 X61.685 Y80.121 E37.94428
G1 X62.471 Y80.121 E38.00716
G1 X62.471 Y85.575 E38.44348
G1 X64.039 Y85.575 E38.56892
G1 X64.039 Y80.121 E39.00524
G1 X64.828 Y80.121 E39.06836
G1 X65.160 Y80.404 E39.10326
G1 X65.161 Y80.695 E39.12654
G1 X64.678 Y80.695 E39.16518
G1 X64.677 Y89.276 E39.85166
G0 F9000 X64.137 Y89.310
;TYPE:SKIN
G1 F960 X62.371 Y87.544 E40.05146
G0 F9000 X62.371 Y86.979
G1 F960 X64.137 Y88.744 E40.25121
G0 F9000 X64.137 Y88.179
G1 F960 X62.371 Y86.413 E40.45101
G0 F9000 X62.638 Y86.114
G1 F960 X64.137 Y87.613 E40.62060
G0 F9000 X64.137 Y87.047
G1 F960 X63.204 Y86.114 E40.72616
G0 F9000 X63.769 Y86.114
G1 F960 X64.137 Y86.481 E40.76774
G0 F9000 X64.477 Y85.690
G1 F960 X64.358 Y85.288 E40.79457
G1 X64.358 Y84.722 E40.82151
G1 X64.358 Y84.157 E40.84829
G1 X64.358 Y83.591 E40.87512
G1 X64.358 Y83.026 E40.90190
G1 X64.358 Y82.460 E40.92884
G1 X64.358 Y81.894 E40.95578
G1 X64.358 Y81.328 E40.98272
G1 X64.358 Y80.763 E41.00962
G1 X64.239 Y80.361 E41.04316
G0 F9000 X64.339 Y80.361
G0 X64.380 Y85.916
G0 X62.130 Y85.916
G0 X62.271 Y80.656
G1 F960 X61.984 Y80.651 E41.08105
G1 X62.151 Y81.384 E41.10796
G1 X62.151 Y81.950 E41.13490
G1 X62.151 Y82.516 E41.16184
G1 X62.151 Y83.081 E41.18874
G1 X62.151 Y83.647 E41.21568
G1 X62.151 Y84.213 E41.24262
G1 X62.151 Y84.778 E41.26952
G1 X62.151 Y85.344 E41.29646
G1 X62.271 Y85.747 E41.33010
G0 F9000 X62.130 Y85.916
G0 X62.371 Y88.109
G1 F960 X64.137 Y89.876 E41.52995
G0 F9000 X63.590 Y89.894
G1 F960 X62.371 Y88.675 E41.66787
G0 F9000 X62.371 Y89.241
G1 F960 X63.024 Y89.894 E41.74175
G0 F9000 X62.458 Y89.894
G1 F960 X62.371 Y89.806 E41.75165
;LAYER:3
M106 S30
G0 F9000 X64.253 Y89.709 Z0.900
;TYPE:FILL
G1 F960 X62.256 Y87.712 E41.97758
G0 F9000 X62.256 Y87.650
G1 F960 X63.792 Y86.114 E42.15136
G0 F9000 X64.393 Y86.349
;TYPE:WALL-INNER
G1 F960 X64.394 Y89.676 E42.41752
G1 X65.051 Y89.676 E42.47008
G1 X65.051 Y90.035 E42.49880
G1 X61.459 Y90.035 E42.78616
G1 X61.459 Y89.676 E42.81488
G1 X62.117 Y89.676 E42.86752
G1 X62.117 Y85.975 E43.16360
G1 X64.394 Y85.975 E43.34576
G1 X64.393 Y86.349 E43.37568
G0 F9000 X64.039 Y85.575
;TYPE:WALL-OUTER
G1 F960 X64.039 Y80.121 E43.81200
G1 X64.949 Y80.121 E43.88480
G1 X65.256 Y80.399 E43.91793
G1 X65.257 Y80.695 E43.94161
G1 X64.793 Y80.695 E43.97873
G1 X64.793 Y89.276 E44.66521
G1 X65.451 Y89.276 E44.71785
G1 X65.451 Y90.435 E44.81057
G1 X61.059 Y90.435 E45.16193
G1 X61.059 Y89.276 E45.25465
G1 X61.717 Y89.276 E45.30729
G1 X61.718 Y80.695 E45.99377
G1 X61.255 Y80.695 E46.03081
G1 X61.254 Y80.399 E46.05449
G1 X61.562 Y80.121 E46.08768
G1 X62.471 Y80.121 E46.16040
G1 X62.471 Y85.575 E46.59672
G1 X64.039 Y85.575 E46.72216
G0 F9000 X64.239 Y85.384
;TYPE:SKIN
G1 F960 X64.415 Y84.924 E46.76206
G1 X64.415 Y84.359 E46.80195
G1 X64.415 Y83.793 E46.84179
G1 X64.415 Y83.227 E46.88164
G1 X64.415 Y82.662 E46.92153
G1 X64.415 Y82.096 E46.96138
G1 X64.415 Y81.530 E47.00122
G1 X64.415 Y80.965 E47.04111
G1 X64.598 Y80.499 E47.08106
G1 X64.778 Y80.320 E47.10137
G0 F9000 X64.778 Y80.421
G0 X64.437 Y80.440
G0 X64.380 Y85.916
G0 X62.130 Y85.916
G0 X62.270 Y80.564
G1 F960 X62.094 Y81.023 E47.14119
G1 X62.094 Y81.589 E47.18092
G1 X62.094 Y82.154 E47.22059
G1 X62.094 Y82.720 E47.26032
G1 X62.093 Y83.286 E47.30017
G1 X62.093 Y83.852 E47.34001
G1 X62.093 Y84.417 E47.37979
G1 X62.093 Y84.983 E47.41963
G1 X62.024 Y85.618 E47.45949
G1 X62.324 Y85.885 E47.47507
G1 X62.450 Y86.324 E47.48878
G1 X62.450 Y86.890 E47.53236
G1 X62.449 Y87.456 E47.57594
G1 X62.449 Y88.022 E47.61952
G1 X62.449 Y88.587 E47.66303
G1 X62.449 Y89.153 E47.70638
G1 X62.257 Y89.629 E47.74744
G0 F9000 X63.866 Y89.717
G1 F960 X64.059 Y89.240 E47.79108
G1 X64.059 Y88.675 E47.83458
G1 X64.058 Y88.109 E47.87817
G1 X64.058 Y87.543 E47.92186
G1 X64.058 Y86.978 E47.96548
G1 X64.058 Y86.413 E48.00921
G1 X64.234 Y85.954 E48.03290
G1 X64.592 Y85.596 E48.07341
G10
G0 F9000 X61.775 Y80.494
G11
G1 F960 X61.949 Y80.320 E48.09309
;LAYER:4
M106 S40
G0 F9000 X61.949 Y80.421 Z1.100
G0 X62.130 Y85.916
G0 X63.792 Y86.114
;TYPE:FILL
G1 F1080 X62.168 Y87.738 E48.27683
G0 F9000 X62.167 Y87.623
G1 F1080 X64.343 Y89.799 E48.52301
G0 F9000 X64.483 Y89.676
;TYPE:WALL-INNER
G1 F1080 X65.051 Y89.676 E48.56845
G1 X65.051 Y90.035 E48.59717
G1 X61.459 Y90.035 E48.88453
G1 X61.459 Y89.676 E48.91325
G1 X62.028 Y89.676 E48.95877
G1 X62.029 Y80.521 E49.69117
G1 X62.071 Y80.521 E49.69453
G1 X62.071 Y85.975 E50.13085
G1 X64.439 Y85.975 E50.32029
G1 X64.439 Y80.521 E50.75661
G1 X64.482 Y80.521 E50.76005
G1 X64.481 Y88.626 E51.40845
G1 X64.483 Y89.676 E51.49245
G0 F9000 X64.882 Y89.276
;TYPE:WALL-OUTER
G1 F1080 X65.451 Y89.276 E51.53797
G1 X65.451 Y90.435 E51.63069
G1 X61.059 Y90.435 E51.98205
G1 X61.059 Y89.276 E52.07477
G1 X61.628 Y89.276 E52.12029
G1 X61.629 Y80.695 E52.80677
G1 X61.181 Y80.695 E52.84261
G1 X61.180 Y80.398 E52.86637
G1 X61.474 Y80.121 E52.89869
G1 X62.471 Y80.121 E52.97845
G1 X62.471 Y85.575 E53.41477
G1 X64.039 Y85.575 E53.54021
G1 X64.039 Y80.121 E53.97653
G1 X65.038 Y80.121 E54.05645
G1 X65.330 Y80.397 E54.08859
G1 X65.331 Y80.695 E54.11243
G1 X64.882 Y80.695 E54.14835
G1 X64.882 Y89.276 E54.83483
G0 F9000 X64.343 Y89.516
;TYPE:SKIN
G1 F1080 X64.204 Y89.094 E54.86629
G1 X64.204 Y88.528 E54.89765
G1 X64.204 Y87.962 E54.92900
G1 X64.204 Y87.397 E54.96042
G1 X64.204 Y86.831 E54.99177
G1 X64.065 Y86.409 E55.02732
G0 F9000 X62.442 Y86.484
G1 F1080 X62.167 Y86.491 E55.05835
G1 X62.304 Y87.194 E55.08929
G1 X62.305 Y87.761 E55.12047
G1 X62.305 Y88.326 E55.15155
G1 X62.305 Y88.892 E55.18279
G1 X62.305 Y89.458 E55.21392
G1 X62.299 Y89.735 E55.23609
;LAYER:5
M106 S51
G0 F9000 X62.106 Y87.800 Z1.300
;TYPE:FILL
G1 F1020 X63.792 Y86.114 E55.42684
G0 F9000 X62.105 Y87.561
G1 F1020 X64.402 Y89.858 E55.68671
G0 F9000 X64.542 Y89.676
;TYPE:WALL-INNER
G1 F1020 X65.051 Y89.676 E55.72743
G1 X65.051 Y90.035 E55.75615
G1 X61.459 Y90.035 E56.04351
G1 X61.459 Y89.676 E56.07223
G1 X61.966 Y89.676 E56.11279
G1 X61.966 Y81.316 E56.78159
G1 X61.968 Y80.521 E56.84519
G1 X62.071 Y80.521 E56.85343
G1 X62.071 Y85.975 E57.28975
G1 X64.439 Y85.975 E57.47919
G1 X64.439 Y80.521 E57.91551
G1 X64.545 Y80.521 E57.92399
G1 X64.542 Y86.349 E58.39023
G1 X64.544 Y88.153 E58.53455
G1 X64.542 Y89.676 E58.65639
G0 F9000 X64.943 Y89.276
;TYPE:WALL-OUTER
G1 F1020 X65.451 Y89.276 E58.69703
G1 X65.451 Y90.435 E58.78975
G1 X61.059 Y90.435 E59.14111
G1 X61.059 Y89.276 E59.23383
G1 X61.566 Y89.276 E59.27439
G1 X61.567 Y80.695 E59.96087
G1 X61.127 Y80.695 E59.99607
G1 X61.127 Y80.394 E60.02015
G1 X61.407 Y80.121 E60.05144
G1 X62.471 Y80.121 E60.13656
G1 X62.471 Y85.575 E60.57288
G1 X64.039 Y85.575 E60.69832
G1 X64.039 Y80.121 E61.13464
G1 X65.103 Y80.121 E61.21976
G1 X65.384 Y80.395 E61.25115
G1 X65.385 Y80.695 E61.27516
G1 X64.944 Y80.695 E61.31044
G1 X64.943 Y89.276 E61.99692
G0 F9000 X63.944 Y89.275
;LAYER:6
M106 S63
G0 X64.438 Y89.894 Z1.500
;TYPE:FILL
G1 F1020 X62.067 Y87.523 E62.26516
G0 F9000 X62.068 Y87.838
G1 F1020 X63.792 Y86.114 E62.46021
G0 F9000 X64.439 Y85.975
;TYPE:WALL-INNER
G1 F1020 X64.439 Y80.521 E62.89653
G1 X64.582 Y80.521 E62.90797
G1 X64.582 Y86.350 E63.37429
G1 X64.584 Y86.950 E63.42229
G1 X64.580 Y89.676 E63.64037
G1 X65.051 Y89.676 E63.67805
G1 X65.051 Y90.035 E63.70677
G1 X61.459 Y90.035 E63.99413
G1 X61.459 Y89.676 E64.02285
G1 X61.927 Y89.676 E64.06029
G1 X61.930 Y80.521 E64.79269
G1 X62.071 Y80.521 E64.80397
G1 X62.071 Y85.975 E65.24029
G1 X64.439 Y85.975 E65.42973
G0 F9000 X64.039 Y85.575
;TYPE:WALL-OUTER
G1 F1020 X64.039 Y80.121 E65.86605
G1 X65.143 Y80.121 E65.95437
G1 X65.419 Y80.394 E65.98543
G1 X65.419 Y80.695 E66.00951
G1 X64.982 Y80.695 E66.04447
G1 X64.981 Y89.276 E66.73095
G1 X65.451 Y89.276 E66.76855
G1 X65.451 Y90.435 E66.86127
G1 X61.059 Y90.435 E67.21263
G1 X61.059 Y89.276 E67.30535
G1 X61.528 Y89.276 E67.34287
G1 X61.529 Y80.695 E68.02935
G1 X61.092 Y80.695 E68.06431
G1 X61.092 Y80.398 E68.08807
G1 X61.367 Y80.121 E68.11929
G1 X62.471 Y80.121 E68.20761
G1 X62.471 Y85.575 E68.64393
G1 X64.039 Y85.575 E68.76937
G0 F9000 X63.982 Y86.574
;LAYER:7
M106 S73
G0 X63.792 Y86.114 Z1.700
;TYPE:FILL
G1 F1020 X62.050 Y87.856 E68.96646
G0 F9000 X62.050 Y87.505
G1 F1020 X64.438 Y89.894 E69.23669
G0 F9000 X64.601 Y89.676
;TYPE:WALL-INNER
G1 F1020 X65.051 Y89.676 E69.27269
G1 X65.051 Y90.035 E69.30141
G1 X61.459 Y90.035 E69.58877
G1 X61.459 Y89.676 E69.61749
G1 X61.910 Y89.676 E69.65357
G1 X61.911 Y80.521 E70.38597
G1 X62.071 Y80.521 E70.39877
G1 X62.071 Y85.975 E70.83509
G1 X64.439 Y85.975 E71.02453
G1 X64.439 Y80.521 E71.46085
G1 X64.599 Y80.521 E71.47365
G1 X64.601 Y89.676 E72.20605
G0 F9000 X65.000 Y89.276
;TYPE:WALL-OUTER
G1 F1020 X65.451 Y89.276 E72.24213
G1 X65.451 Y90.435 E72.33485
G1 X61.059 Y90.435 E72.68621
G1 X61.059 Y89.276 E72.77893
G1 X61.510 Y89.276 E72.81501
G1 X61.511 Y80.695 E73.50149
G1 X61.075 Y80.695 E73.53637
G1 X61.074 Y80.393 E73.56053
G1 X61.346 Y80.121 E73.59130
G1 X62.471 Y80.121 E73.68130
G1 X62.471 Y85.575 E74.11762
G1 X64.039 Y85.575 E74.24306
G1 X64.039 Y80.121 E74.67938
G1 X65.163 Y80.121 E74.76930
G1 X65.435 Y80.393 E74.80007
G1 X65.436 Y80.695 E74.82423
G1 X65.000 Y80.695 E74.85911
G1 X65.000 Y89.276 E75.54559
G0 F9000 X64.000 Y89.276
;LAYER:8
M106 S84
G0 X64.438 Y89.894 Z1.900
;TYPE:FILL
G1 F1020 X62.051 Y87.507 E75.81565
G0 F9000 X62.051 Y87.855
G1 F1020 X63.792 Y86.114 E76.01262
G0 F9000 X64.439 Y85.975
;TYPE:WALL-INNER
G1 F1020 X64.439 Y80.521 E76.44894
G1 X64.598 Y80.521 E76.46166
G1 X64.597 Y89.676 E77.19406
G1 X65.051 Y89.676 E77.23038
G1 X65.051 Y90.035 E77.25910
G1 X61.459 Y90.035 E77.54646
G1 X61.459 Y89.676 E77.57518
G1 X61.911 Y89.676 E77.61134
G1 X61.913 Y88.379 E77.71510
G1 X61.912 Y86.350 E77.87742
G1 X61.913 Y85.605 E77.93702
G1 X61.912 Y81.595 E78.25782
G1 X61.914 Y80.521 E78.34374
G1 X62.071 Y80.521 E78.35630
G1 X62.071 Y85.975 E78.79262
G1 X64.439 Y85.975 E78.98206
G0 F9000 X64.039 Y85.575
;TYPE:WALL-OUTER
G1 F1020 X64.039 Y80.121 E79.41838
G1 X65.159 Y80.121 E79.50798
G1 X65.434 Y80.395 E79.53904
G1 X65.433 Y80.695 E79.56304
G1 X64.998 Y80.695 E79.59784
G1 X64.997 Y89.276 E80.28432
G1 X65.451 Y89.276 E80.32064
G1 X65.451 Y90.435 E80.41336
G1 X61.059 Y90.435 E80.76472
G1 X61.059 Y89.276 E80.85744
G1 X61.512 Y89.276 E80.89368
G1 X61.513 Y80.695 E81.58016
G1 X61.076 Y80.695 E81.61512
G1 X61.077 Y80.393 E81.63928
G1 X61.349 Y80.121 E81.67005
G1 X62.471 Y80.121 E81.75981
G1 X62.471 Y85.575 E82.19613
G1 X64.039 Y85.575 E82.32157
G0 F9000 X63.998 Y86.575
;LAYER:9
M106 S94
G0 X63.792 Y86.114 Z2.100
;TYPE:FILL
G1 F960 X62.074 Y87.832 E82.51594
G0 F9000 X62.074 Y87.529
G1 F960 X64.433 Y89.889 E82.78289
G0 F9000 X64.573 Y89.676
;TYPE:WALL-INNER
G1 F960 X65.051 Y89.676 E82.82113
G1 X65.051 Y90.035 E82.84985
G1 X61.459 Y90.035 E83.13721
G1 X61.459 Y89.676 E83.16593
G1 X61.934 Y89.676 E83.20393
G1 X61.935 Y86.351 E83.46993
