;FLAVOR:UltiGCode
;TIME:9349
;MATERIAL:10089
;MATERIAL2:0

;Layer count: 50
;LAYER:0
M107
G0 F9000 X82.648 Y35.094 Z0.300
;TYPE:SKIRT
G1 F1200 X84.545 Y33.739 E0.27975
G1 X84.794 Y33.569 E0.31593
G1 X86.136 Y32.735 E0.50553
G1 X91.994 Y32.735 E1.20849
G1 X93.521 Y33.715 E1.42622
G1 X95.446 Y35.094 E1.71038
G1 X95.453 Y41.458 E2.47406
G1 X94.556 Y41.458 E2.58170
G1 X94.555 Y42.126 E2.66186
G1 X94.556 Y44.603 E2.95910
G1 X94.555 Y46.386 E3.17306
G1 X94.556 Y47.048 E3.25250
G1 X96.391 Y47.048 E3.47270
G1 X96.391 Y56.685 E4.62914
G1 X81.701 Y56.685 E6.39194
G1 X81.701 Y47.048 E7.54838
G1 X83.534 Y47.048 E7.76834
G1 X83.534 Y46.815 E7.79630
G1 X83.535 Y42.122 E8.35946
G1 X83.533 Y41.700 E8.41010
G1 X83.533 Y41.458 E8.43914
G1 X82.655 Y41.458 E8.54450
G1 X82.648 Y35.094 E9.30818
G0 F9000 X83.048 Y35.300
G1 F1200 X84.774 Y34.067 E9.56272
G1 X85.012 Y33.905 E9.59727
G1 X86.250 Y33.135 E9.77222
G1 X91.876 Y33.135 E10.44734
G1 X93.296 Y34.046 E10.64979
G1 X95.046 Y35.300 E10.90814
G1 X95.053 Y41.058 E11.59910
G1 X94.156 Y41.058 E11.70674
G1 X94.155 Y42.126 E11.83490
G1 X94.156 Y44.603 E12.13214
G1 X94.155 Y46.386 E12.34610
G1 X94.156 Y47.448 E12.47354
G1 X95.991 Y47.448 E12.69374
G1 X95.991 Y56.285 E13.75418
G1 X82.101 Y56.285 E15.42098
G1 X82.101 Y47.448 E16.48142
G1 X83.934 Y47.448 E16.70138
G1 X83.934 Y46.815 E16.77734
G1 X83.935 Y42.122 E17.34050
G1 X83.933 Y41.699 E17.39126
G1 X83.934 Y41.058 E17.46818
G1 X83.055 Y41.058 E17.57366
G1 X83.048 Y35.300 E18.26462
G10
G0 F9000 X87.336 Y36.935
;TYPE:WALL-INNER
G11
G1 F1200 X87.533 Y36.935 E18.28826
G1 X87.533 Y37.258 E18.32702
G1 X86.850 Y37.258 E18.40898
G1 X87.336 Y36.935 E18.47901
G0 F9000 X87.533 Y36.935
G0 X87.592 Y45.403
G0 X90.500 Y45.403
G0 X90.559 Y36.935
G0 X90.762 Y36.935
G1 F1200 X91.248 Y37.253 E18.54870
G1 X90.559 Y37.258 E18.63139
G1 X90.559 Y36.935 E18.67015
G1 X90.762 Y36.935 E18.69451
G0 F9000 X90.415 Y37.317
G0 X90.545 Y41.453
G0 X90.355 Y45.462
G1 F1200 X90.355 Y46.384 E18.80515
G1 X90.356 Y51.248 E19.38883
G1 X92.191 Y51.248 E19.60903
G1 X92.191 Y52.485 E19.75747
G1 X85.901 Y52.485 E20.51227
G1 X85.901 Y51.248 E20.66071
G1 X87.736 Y51.248 E20.88091
G1 X87.735 Y45.462 E21.57523
G1 X90.355 Y45.462 E21.88963
G0 F9000 X90.159 Y45.062
;TYPE:WALL-OUTER
G1 F1200 X90.159 Y36.535 E22.91287
G1 X90.880 Y36.535 E22.99939
G1 X91.383 Y36.858 E23.07112
G1 X91.648 Y37.048 E23.11025
G1 X91.649 Y37.658 E23.18345
G1 X90.756 Y37.658 E23.29061
G1 X90.756 Y50.848 E24.87341
G1 X92.591 Y50.848 E25.09361
G1 X92.591 Y52.885 E25.33805
G1 X85.501 Y52.885 E26.18885
G1 X85.501 Y50.848 E26.43329
G1 X87.336 Y50.848 E26.65349
G1 X87.337 Y37.658 E28.23629
G1 X86.451 Y37.658 E28.34261
G1 X86.450 Y37.048 E28.41581
G1 X86.863 Y36.757 E28.47644
G1 X87.222 Y36.535 E28.52709
G1 X87.933 Y36.535 E28.61241
G1 X87.933 Y45.062 E29.63565
G1 X90.159 Y45.062 E29.90277
G0 F9000 X90.358 Y44.820
;TYPE:SKIN
G1 F900 X90.555 Y44.734 E29.93624
G1 X90.456 Y44.070 E29.96967
G1 X90.456 Y43.504 E30.00295
G1 X90.456 Y42.939 E30.03617
G1 X90.456 Y42.373 E30.06962
G1 X90.456 Y41.807 E30.10290
G1 X90.456 Y41.242 E30.13612
G1 X90.456 Y40.676 E30.16957
G1 X90.358 Y40.295 E30.21678
G0 F9000 X90.459 Y40.295
G0 X90.500 Y45.403
G0 X87.592 Y45.403
G0 X87.732 Y40.497
G1 F900 X87.535 Y40.583 E30.25025
G1 X87.633 Y41.247 E30.28348
G1 X87.633 Y41.812 E30.31670
G1 X87.633 Y42.378 E30.34998
G1 X87.633 Y42.944 E30.38326
G1 X87.633 Y43.509 E30.41648
G1 X87.633 Y44.075 E30.44976
G1 X87.633 Y44.641 E30.48304
G1 X87.732 Y45.022 E30.53028
G0 F9000 X87.874 Y45.730
G1 F900 X90.215 Y48.071 E30.92756
G0 F9000 X90.215 Y47.506
G1 F900 X88.311 Y45.602 E31.25068
G0 F9000 X88.876 Y45.602
G1 F900 X90.215 Y46.940 E31.47783
G0 F9000 X90.215 Y46.374
G1 F900 X89.442 Y45.602 E31.60893
G0 F9000 X90.008 Y45.602
G1 F900 X90.215 Y45.809 E31.64406
G0 F9000 X87.874 Y46.296
G1 F900 X90.215 Y48.637 E32.04134
G0 F9000 X90.215 Y49.203
G1 F900 X87.874 Y46.862 E32.43862
G0 F9000 X87.874 Y47.427
G1 F900 X90.215 Y49.769 E32.83599
G0 F9000 X90.215 Y50.334
G1 F900 X87.874 Y47.993 E33.23327
G0 F9000 X87.874 Y48.559
G1 F900 X90.215 Y50.900 E33.63055
G0 F9000 X90.703 Y51.388
G1 F900 X91.660 Y52.344 E33.79287
G0 F9000 X92.050 Y52.169
G1 F900 X91.269 Y51.388 E33.92541
G0 F9000 X91.834 Y51.388
G1 F900 X92.050 Y51.603 E33.96198
G0 F9000 X91.094 Y52.344
G1 F900 X87.874 Y49.124 E34.50844
G0 F9000 X87.874 Y49.690
G1 F900 X90.528 Y52.344 E34.95883
G0 F9000 X89.963 Y52.344
G1 F900 X87.874 Y50.256 E35.31326
G0 F9000 X87.874 Y50.821
G1 F900 X89.397 Y52.344 E35.57173
G0 F9000 X88.831 Y52.344
G1 F900 X87.874 Y51.388 E35.73405
G0 F9000 X87.309 Y51.388
G1 F900 X88.266 Y52.344 E35.89637
G0 F9000 X87.700 Y52.344
G1 F900 X86.743 Y51.388 E36.05870
G0 F9000 X86.177 Y51.388
G1 F900 X87.134 Y52.344 E36.22102
G0 F9000 X86.568 Y52.344
G1 F900 X86.040 Y51.816 E36.31062
G0 F9000 X87.677 Y51.189
G0 X87.732 Y39.931
G1 F900 X87.633 Y39.550 E36.34381
G1 X87.633 Y38.984 E36.37709
G1 X87.633 Y38.418 E36.41037
G1 X87.633 Y37.853 E36.44359
G1 X87.535 Y37.472 E36.49080
G0 F9000 X87.636 Y37.472
G0 X87.592 Y45.403
G0 X90.500 Y45.403
G0 X90.459 Y37.466
G0 X90.358 Y37.466
G1 F900 X90.456 Y37.848 E36.52428
G1 X90.456 Y38.413 E36.55751
G1 X90.456 Y38.979 E36.59079
G1 X90.456 Y39.545 E36.62424
G1 X90.555 Y39.926 E36.67147
;LAYER:1
M106 S127
G0 F9000 X90.534 Y37.317 Z0.400
G0 X90.883 Y36.935
;TYPE:WALL-INNER
G1 F1800 X91.336 Y37.244 E36.69341
G1 X91.336 Y37.258 E36.69397
G1 X90.559 Y37.258 E36.72505
G1 X90.559 Y36.935 E36.73797
G1 X90.883 Y36.935 E36.75093
G0 F9000 X90.559 Y36.935
G0 X90.500 Y45.403
G0 X87.592 Y45.403
G0 X87.533 Y36.935
G0 X87.214 Y36.935
G1 F1800 X87.533 Y36.935 E36.76369
G1 X87.533 Y37.258 E36.77661
G1 X86.763 Y37.258 E36.80741
G1 X87.214 Y36.935 E36.82960
G0 F9000 X87.559 Y37.317
G0 X87.617 Y45.462
G1 F1800 X90.477 Y45.462 E36.94400
G1 X90.475 Y51.248 E37.17544
G1 X92.191 Y51.248 E37.24408
G1 X92.191 Y52.485 E37.29356
G1 X85.901 Y52.485 E37.54516
G1 X85.901 Y51.248 E37.59464
G1 X87.617 Y51.248 E37.66328
G1 X87.617 Y45.462 E37.89472
G0 F9000 X87.933 Y45.062
;TYPE:WALL-OUTER
G1 F1320 X90.159 Y45.062 E37.98376
G1 X90.159 Y36.535 E38.32484
G1 X91.005 Y36.535 E38.35868
G1 X91.513 Y36.877 E38.38317
G1 X91.736 Y37.045 E38.39434
G1 X91.737 Y37.658 E38.41886
G1 X90.875 Y37.658 E38.45334
G1 X90.879 Y42.084 E38.63038
G1 X90.875 Y50.848 E38.98094
G1 X92.591 Y50.848 E39.04958
G1 X92.591 Y52.885 E39.13106
G1 X85.501 Y52.885 E39.41466
G1 X85.501 Y50.848 E39.49614
G1 X87.217 Y50.848 E39.56478
G1 X87.218 Y37.658 E40.09238
G1 X86.363 Y37.658 E40.12658
G1 X86.362 Y37.047 E40.15102
G1 X87.094 Y36.535 E40.18675
G1 X87.933 Y36.535 E40.22031
G1 X87.933 Y45.062 E40.56139
G0 F9000 X87.732 Y44.921
;TYPE:SKIN
G1 F900 X87.416 Y44.953 E40.57924
G1 X87.574 Y44.230 E40.59708
G1 X87.574 Y43.664 E40.61491
G1 X87.574 Y43.098 E40.63274
G1 X87.574 Y42.533 E40.65053
G1 X87.574 Y41.967 E40.66836
G1 X87.574 Y41.400 E40.68617
G1 X87.574 Y40.835 E40.70391
G1 X87.574 Y40.269 E40.72168
G1 X87.574 Y39.703 E40.73945
G1 X87.574 Y39.138 E40.75719
G1 X87.574 Y38.572 E40.77497
G1 X87.574 Y38.006 E40.79274
G1 X87.732 Y37.567 E40.81140
G0 F9000 X90.459 Y37.769
G0 X90.358 Y37.769
G1 F900 X90.674 Y37.736 E40.82926
G1 X90.516 Y38.459 E40.84709
G1 X90.516 Y39.025 E40.86492
G1 X90.516 Y39.591 E40.88275
G1 X90.516 Y40.156 E40.90055
G1 X90.516 Y40.722 E40.91838
G1 X90.516 Y41.288 E40.93621
G1 X90.516 Y41.853 E40.95400
G1 X90.516 Y42.419 E40.97183
G1 X90.516 Y42.985 E40.98966
G1 X90.516 Y43.550 E41.00746
G1 X90.516 Y44.116 E41.02529
G1 X90.516 Y44.682 E41.04312
G1 X90.358 Y45.123 E41.06186
G0 F9000 X90.335 Y45.711
G1 F900 X87.756 Y48.290 E41.20775
G0 F9000 X87.756 Y48.856
G1 F900 X90.335 Y46.277 E41.35364
G0 F9000 X90.335 Y46.842
G1 F900 X87.756 Y49.421 E41.49953
G0 F9000 X87.756 Y49.987
G1 F900 X90.335 Y47.408 E41.64542
G0 F9000 X90.335 Y47.975
G1 F900 X87.756 Y50.553 E41.79128
G0 F9000 X87.756 Y51.118
G1 F900 X90.335 Y48.540 E41.93714
G0 F9000 X90.335 Y49.106
G1 F900 X87.096 Y52.344 E42.12034
G0 F9000 X87.662 Y52.344
G1 F900 X90.334 Y49.672 E42.27149
G0 F9000 X90.334 Y50.238
G1 F900 X88.227 Y52.344 E42.39065
G0 F9000 X88.793 Y52.344
G1 F900 X90.334 Y50.804 E42.47779
G0 F9000 X90.334 Y51.369
G1 F900 X89.359 Y52.344 E42.53295
G0 F9000 X89.924 Y52.344
G1 F900 X90.882 Y51.387 E42.58711
G0 F9000 X91.447 Y51.387
G1 F900 X90.490 Y52.344 E42.64125
G0 F9000 X91.056 Y52.344
G1 F900 X92.013 Y51.387 E42.69539
G0 F9000 X92.050 Y51.916
G1 F900 X91.621 Y52.344 E42.71963
G0 F9000 X87.488 Y51.387
G1 F900 X86.530 Y52.344 E42.77379
G0 F9000 X86.040 Y52.270
G1 F900 X86.922 Y51.387 E42.82371
G0 F9000 X86.356 Y51.387
G1 F900 X86.040 Y51.704 E42.84162
G0 F9000 X87.558 Y51.189
G0 X87.756 Y47.724
G1 F900 X89.879 Y45.602 E42.96168
G0 F9000 X89.313 Y45.602
G1 F900 X87.756 Y47.159 E43.04976
G0 F9000 X87.756 Y46.593
G1 F900 X88.748 Y45.602 E43.10585
G0 F9000 X88.182 Y45.602
G1 F900 X87.756 Y46.027 E43.12992
;LAYER:2
M106 S255
G0 F9000 X87.533 Y45.462 Z0.500
;TYPE:WALL-INNER
G1 F2400 X90.559 Y45.462 E43.25096
G1 X90.559 Y36.935 E43.59204
G1 X90.993 Y36.935 E43.60940
G1 X91.417 Y37.242 E43.63034
G1 X91.417 Y37.258 E43.63098
G1 X90.581 Y37.258 E43.66442
G1 X90.583 Y38.930 E43.73130
G1 X90.579 Y42.122 E43.85898
G1 X90.582 Y51.248 E44.22402
G1 X92.191 Y51.248 E44.28838
G1 X92.191 Y52.485 E44.33786
G1 X85.901 Y52.485 E44.58946
G1 X85.901 Y51.248 E44.63894
G1 X87.510 Y51.248 E44.70330
G1 X87.508 Y47.278 E44.86210
G1 X87.508 Y42.320 E45.06042
G1 X87.509 Y42.123 E45.06830
G1 X87.508 Y41.230 E45.10402
G1 X87.510 Y37.258 E45.26290
G1 X86.680 Y37.258 E45.29610
G1 X86.680 Y37.243 E45.29670
G1 X87.100 Y36.935 E45.31753
G1 X87.533 Y36.935 E45.33485
G1 X87.533 Y45.462 E45.67593
G0 F9000 X87.933 Y45.062
;TYPE:WALL-OUTER
G1 F1500 X90.159 Y45.062 E45.76497
G1 X90.159 Y36.535 E46.10605
G1 X91.123 Y36.535 E46.14461
G1 X91.728 Y36.972 E46.17446
G1 X91.817 Y37.042 E46.17899
G1 X91.818 Y37.658 E46.20363
G1 X90.982 Y37.658 E46.23707
G1 X90.982 Y50.848 E46.76467
G1 X92.591 Y50.848 E46.82903
G1 X92.591 Y52.885 E46.91051
G1 X85.501 Y52.885 E47.19411
G1 X85.501 Y50.848 E47.27559
G1 X87.110 Y50.848 E47.33995
G1 X87.108 Y42.318 E47.68115
G1 X87.110 Y37.658 E47.86755
G1 X86.281 Y37.658 E47.90071
G1 X86.280 Y37.044 E47.92527
G1 X86.693 Y36.730 E47.94602
G1 X86.974 Y36.535 E47.95971
G1 X87.933 Y36.535 E47.99807
G1 X87.933 Y45.062 E48.33915
G0 F9000 X87.745 Y45.602
;TYPE:SKIN
G1 F900 X90.441 Y48.297 E48.49163
G0 F9000 X90.441 Y48.863
G1 F900 X87.648 Y46.070 E48.64962
G0 F9000 X87.648 Y46.635
G1 F900 X90.441 Y49.428 E48.80762
G0 F9000 X90.441 Y49.994
G1 F900 X87.648 Y47.201 E48.96561
G0 F9000 X87.648 Y47.767
G1 F900 X90.441 Y50.560 E49.12361
G0 F9000 X90.441 Y51.125
G1 F900 X87.648 Y48.332 E49.28161
G0 F9000 X87.648 Y48.899
G1 F900 X91.094 Y52.344 E49.47651
G0 F9000 X90.528 Y52.344
G1 F900 X87.648 Y49.464 E49.63943
G0 F9000 X87.648 Y50.030
G1 F900 X89.963 Y52.344 E49.77036
G0 F9000 X89.397 Y52.344
G1 F900 X87.648 Y50.596 E49.86927
G0 F9000 X87.648 Y51.162
G1 F900 X88.831 Y52.344 E49.93616
G0 F9000 X88.266 Y52.344
G1 F900 X87.308 Y51.387 E49.99032
G0 F9000 X86.742 Y51.387
G1 F900 X87.700 Y52.344 E50.04449
G0 F9000 X87.134 Y52.344
G1 F900 X86.177 Y51.387 E50.09863
G0 F9000 X86.040 Y51.816
G1 F900 X86.568 Y52.344 E50.12849
G0 F9000 X90.702 Y51.387
G1 F900 X91.660 Y52.344 E50.18266
G0 F9000 X92.050 Y52.169
G1 F900 X91.268 Y51.387 E50.22689
G0 F9000 X91.834 Y51.387
G1 F900 X92.050 Y51.603 E50.23911
G0 F9000 X90.641 Y51.189
G0 X90.441 Y47.731
G1 F900 X88.311 Y45.602 E50.35958
G0 F9000 X88.876 Y45.602
G1 F900 X90.441 Y47.166 E50.44808
G0 F9000 X90.441 Y46.600
G1 F900 X89.442 Y45.602 E50.50456
G0 F9000 X90.008 Y45.602
G1 F900 X90.441 Y46.034 E50.52903
;LAYER:3
G0 F9000 X90.680 Y46.132 Z0.600
;TYPE:WALL-INNER
G1 F3000 X90.677 Y51.248 E50.73367
G1 X92.191 Y51.248 E50.79423
G1 X92.191 Y52.485 E50.84371
G1 X85.901 Y52.485 E51.09531
G1 X85.901 Y51.248 E51.14479
G1 X87.414 Y51.248 E51.20531
G1 X87.415 Y37.258 E51.76491
G1 X86.606 Y37.258 E51.79727
G1 X86.606 Y37.236 E51.79815
G1 X87.003 Y36.935 E51.81808
G1 X87.533 Y36.935 E51.83928
G1 X87.533 Y45.462 E52.18036
G1 X90.559 Y45.462 E52.30140
G1 X90.559 Y36.935 E52.64248
G1 X91.094 Y36.935 E52.66388
G1 X91.492 Y37.232 E52.68374
G1 X91.492 Y37.258 E52.68478
G1 X90.678 Y37.258 E52.71734
G1 X90.680 Y41.759 E52.89738
G1 X90.679 Y42.121 E52.91186
G1 X90.680 Y46.132 E53.07230
G0 F9000 X90.159 Y45.062
;TYPE:WALL-OUTER
G1 F1620 X90.159 Y36.535 E53.41338
G1 X91.225 Y36.535 E53.45602
G1 X91.695 Y36.882 E53.47939
G1 X91.892 Y37.041 E53.48951
G1 X91.893 Y37.658 E53.51419
G1 X91.078 Y37.658 E53.54679
G1 X91.078 Y50.848 E54.07439
G1 X92.591 Y50.848 E54.13491
G1 X92.591 Y52.885 E54.21639
G1 X85.501 Y52.885 E54.49999
G1 X85.501 Y50.848 E54.58147
G1 X87.014 Y50.848 E54.64199
G1 X87.015 Y37.658 E55.16959
G1 X86.206 Y37.658 E55.20195
G1 X86.205 Y37.042 E55.22659
G1 X86.580 Y36.747 E55.24568
G1 X86.873 Y36.535 E55.26015
G1 X87.933 Y36.535 E55.30255
G1 X87.933 Y45.062 E55.64363
G1 X90.159 Y45.062 E55.73267
G0 F9000 X89.879 Y45.602
;TYPE:SKIN
G1 F900 X87.553 Y47.928 E55.86424
G0 F9000 X87.553 Y48.494
G1 F900 X90.445 Y45.602 E56.02784
G0 F9000 X90.535 Y46.077
G1 F900 X87.553 Y49.059 E56.19653
G0 F9000 X87.553 Y49.625
G1 F900 X90.535 Y46.642 E56.36524
G0 F9000 X90.535 Y47.208
G1 F900 X87.553 Y50.191 E56.53396
G0 F9000 X87.553 Y50.756
G1 F900 X90.535 Y47.774 E56.70265
G0 F9000 X90.535 Y48.339
G1 F900 X87.553 Y51.322 E56.87136
G0 F9000 X87.488 Y51.387
G1 F900 X86.530 Y52.344 E56.92553
G0 F9000 X86.040 Y52.270
G1 F900 X86.922 Y51.387 E56.97545
G0 F9000 X86.356 Y51.387
G1 F900 X86.040 Y51.704 E56.99335
G0 F9000 X87.096 Y52.344
G1 F900 X90.535 Y48.905 E57.18789
G0 F9000 X90.535 Y49.471
G1 F900 X87.662 Y52.344 E57.35041
G0 F9000 X88.227 Y52.344
G1 F900 X90.535 Y50.036 E57.48097
G0 F9000 X90.535 Y50.602
G1 F900 X88.793 Y52.344 E57.57952
G0 F9000 X89.359 Y52.344
G1 F900 X90.535 Y51.168 E57.64604
G0 F9000 X90.882 Y51.387
G1 F900 X89.924 Y52.344 E57.70020
G0 F9000 X90.490 Y52.344
G1 F900 X91.447 Y51.387 E57.75434
G0 F9000 X92.013 Y51.387
G1 F900 X91.056 Y52.344 E57.80848
G0 F9000 X91.621 Y52.344
G1 F900 X92.050 Y51.916 E57.83272
G0 F9000 X90.737 Y51.189
G0 X87.553 Y47.362
G1 F900 X89.313 Y45.602 E57.93228
G0 F9000 X88.748 Y45.602
G1 F900 X87.553 Y46.797 E57.99988
G0 F9000 X87.553 Y46.231
G1 F900 X88.182 Y45.602 E58.03546
G0 F9000 X87.616 Y45.602
G1 F900 X87.553 Y45.665 E58.03902
;LAYER:4
G0 F9000 X87.533 Y45.462 Z0.700
;TYPE:WALL-INNER
G1 F3600 X90.559 Y45.462 E58.16006
G1 X90.559 Y36.935 E58.50114
G1 X91.181 Y36.935 E58.52602
G1 X91.564 Y37.235 E58.54548
G1 X91.564 Y37.258 E58.54640
G1 X90.768 Y37.258 E58.57824
G1 X90.768 Y51.248 E59.13784
G1 X92.191 Y51.248 E59.19476
G1 X92.191 Y52.485 E59.24424
G1 X85.901 Y52.485 E59.49584
G1 X85.901 Y51.248 E59.54532
G1 X87.324 Y51.248 E59.60224
G1 X87.323 Y42.366 E59.95752
G1 X87.324 Y37.258 E60.16184
G1 X86.532 Y37.258 E60.19352
G1 X86.532 Y37.232 E60.19456
G1 X86.910 Y36.935 E60.21379
G1 X87.533 Y36.935 E60.23871
G1 X87.533 Y45.462 E60.57979
G0 F9000 X87.933 Y45.062
;TYPE:WALL-OUTER
G1 F1800 X90.159 Y45.062 E60.66883
G1 X90.159 Y36.535 E61.00991
G1 X91.320 Y36.535 E61.05635
G1 X91.964 Y37.039 E61.08906
G1 X91.965 Y37.658 E61.11382
G1 X91.168 Y37.658 E61.14570
G1 X91.168 Y50.848 E61.67330
G1 X92.591 Y50.848 E61.73022
G1 X92.591 Y52.885 E61.81170
G1 X85.501 Y52.885 E62.09530
G1 X85.501 Y50.848 E62.17678
G1 X86.924 Y50.848 E62.23370
G1 X86.924 Y37.658 E62.76130
G1 X86.133 Y37.658 E62.79294
G1 X86.132 Y37.041 E62.81762
G1 X86.529 Y36.721 E62.83802
G1 X86.777 Y36.535 E62.85042
G1 X87.933 Y36.535 E62.89666
G1 X87.933 Y45.062 E63.23774
G0 F9000 X87.745 Y45.602
;TYPE:SKIN
G1 F900 X90.627 Y48.484 E63.40077
G0 F9000 X90.627 Y49.049
G1 F900 X87.462 Y45.884 E63.57981
G0 F9000 X87.462 Y46.450
G1 F900 X90.627 Y49.615 E63.75885
G0 F9000 X90.627 Y50.181
G1 F900 X87.462 Y47.016 E63.93789
G0 F9000 X87.462 Y47.581
G1 F900 X90.627 Y50.746 E64.11693
G0 F9000 X90.627 Y51.312
G1 F900 X87.462 Y48.147 E64.29597
G0 F9000 X87.462 Y48.713
G1 F900 X91.094 Y52.344 E64.50139
G0 F9000 X90.528 Y52.344
G1 F900 X87.462 Y49.278 E64.67483
G0 F9000 X87.462 Y49.844
