;FLAVOR:UltiGCode
;TIME:6948
;MATERIAL:16595
;MATERIAL2:0

;Layer count: 94
;LAYER:0
M107
G0 F9000 X43.602 Y25.959 Z0.300
;TYPE:SKIRT
G1 F1800 X48.109 Y25.949 E0.54084
G1 X51.016 Y25.953 E0.88968
G1 X52.581 Y25.936 E1.07749
G1 X57.326 Y25.998 E1.64694
G1 X57.326 Y37.682 E3.04902
G1 X58.211 Y37.682 E3.15522
G1 X58.303 Y41.381 E3.59924
G1 X58.271 Y42.294 E3.70887
G1 X58.253 Y43.112 E3.80705
G1 X58.235 Y43.972 E3.91027
G1 X58.203 Y45.684 E4.11575
G1 X58.204 Y45.684 E4.11587
G1 X58.174 Y47.416 E4.32374
G1 X58.175 Y47.416 E4.32386
G1 X58.161 Y48.278 E4.42731
G1 X58.149 Y49.136 E4.53028
G1 X58.145 Y49.635 E4.59016
G1 X58.134 Y50.531 E4.69769
G1 X58.118 Y54.605 E5.18658
G1 X57.012 Y54.605 E5.31930
G1 X57.012 Y65.381 E6.61242
G1 X52.563 Y65.397 E7.14630
G1 X49.910 Y65.393 E7.46466
G1 X48.357 Y65.398 E7.65102
G1 X43.916 Y65.377 E8.18395
G1 X43.916 Y54.605 E9.47659
G1 X42.846 Y54.605 E9.60499
G1 X42.789 Y50.552 E10.09140
G1 X42.776 Y49.593 E10.20649
G1 X42.764 Y48.634 E10.32158
G1 X42.734 Y46.730 E10.55008
G1 X42.735 Y46.730 E10.55020
G1 X42.719 Y45.776 E10.66470
G1 X42.686 Y43.893 E10.89069
G1 X42.685 Y43.893 E10.89081
G1 X42.671 Y43.350 E10.95600
G1 X42.650 Y42.336 E11.07770
G1 X42.629 Y41.493 E11.17889
G1 X42.629 Y37.682 E11.63621
G1 X43.602 Y37.682 E11.75297
G1 X43.602 Y25.959 E13.15973
G0 F9000 X44.002 Y26.358
G1 F1800 X48.110 Y26.349 E13.65269
G1 X51.054 Y26.353 E14.00598
G1 X52.580 Y26.336 E14.18911
G1 X56.926 Y26.393 E14.71067
G1 X56.926 Y38.082 E16.11335
G1 X57.821 Y38.082 E16.22075
G1 X57.902 Y41.379 E16.61651
G1 X57.871 Y42.280 E16.72469
G1 X57.853 Y43.103 E16.82348
G1 X57.835 Y43.964 E16.92682
G1 X57.803 Y45.678 E17.13254
G1 X57.804 Y45.678 E17.13266
G1 X57.790 Y46.546 E17.23683
G1 X57.775 Y47.413 E17.34089
G1 X57.761 Y48.272 E17.44398
G1 X57.749 Y49.130 E17.54695
G1 X57.745 Y49.631 E17.60707
G1 X57.734 Y50.526 E17.71448
G1 X57.720 Y54.205 E18.15596
G1 X56.612 Y54.205 E18.28892
G1 X56.612 Y64.983 E19.58228
G1 X52.562 Y64.997 E20.06829
G1 X50.069 Y64.993 E20.36745
G1 X48.357 Y64.998 E20.57289
G1 X44.316 Y64.979 E21.05781
G1 X44.316 Y54.205 E22.35069
G1 X43.240 Y54.205 E22.47981
G1 X43.189 Y50.546 E22.91893
G1 X43.176 Y49.588 E23.03391
G1 X43.164 Y48.629 E23.14899
G1 X43.134 Y46.724 E23.37762
G1 X43.118 Y45.769 E23.49224
G1 X43.119 Y45.769 E23.49236
G1 X43.085 Y43.883 E23.71872
G1 X43.071 Y43.340 E23.78390
G1 X43.050 Y42.328 E23.90536
G1 X43.029 Y41.488 E24.00620
G1 X43.029 Y38.082 E24.41492
G1 X44.002 Y38.082 E24.53168
G1 X44.002 Y26.358 E25.93856
G10
G0 F9000 X47.802 Y30.150
;TYPE:WALL-INNER
G11
G1 F1800 X48.296 Y30.149 E25.99784
G1 X48.296 Y41.882 E27.40580
G1 X52.632 Y41.882 E27.92612
G1 X52.632 Y30.137 E29.33552
G1 X53.126 Y30.143 E29.39480
G1 X53.126 Y41.882 E30.80348
G1 X54.082 Y41.882 E30.91820
G1 X54.036 Y43.885 E31.15862
G1 X54.004 Y45.616 E31.36638
G1 X53.961 Y48.211 E31.67782
G1 X53.949 Y49.080 E31.78211
G1 X53.945 Y49.592 E31.84355
G1 X53.935 Y50.405 E31.94112
G1 X52.812 Y50.405 E32.07588
G1 X52.812 Y61.196 E33.37080
G1 X52.475 Y61.197 E33.41124
G1 X52.475 Y50.408 E34.70592
G1 X48.434 Y50.409 E35.19084
G1 X48.435 Y61.198 E36.48552
G1 X48.116 Y61.197 E36.52380
G1 X48.116 Y50.405 E37.81884
G1 X46.988 Y50.405 E37.95420
G1 X46.964 Y48.580 E38.17322
G1 X46.918 Y45.706 E38.51814
G1 X46.884 Y43.786 E38.74858
G1 X46.870 Y43.249 E38.81304
G1 X46.849 Y42.247 E38.93331
G1 X46.840 Y41.882 E38.97712
G1 X47.802 Y41.882 E39.09256
G1 X47.802 Y30.150 E40.50040
G0 F9000 X47.402 Y29.751
;TYPE:WALL-OUTER
G1 F1800 X48.696 Y29.750 E40.65568
G1 X48.696 Y41.482 E42.06352
G1 X52.232 Y41.482 E42.48784
G1 X52.232 Y29.740 E43.89688
G1 X52.576 Y29.736 E43.93816
G1 X53.526 Y29.748 E44.05217
G1 X53.526 Y41.482 E45.46025
G1 X54.497 Y41.482 E45.57677
G1 X54.473 Y42.163 E45.65854
G1 X54.404 Y45.622 E46.07371
G1 X54.349 Y49.084 E46.48920
G1 X54.334 Y50.805 E46.69573
G1 X53.212 Y50.805 E46.83037
G1 X53.212 Y61.594 E48.12505
G1 X52.075 Y61.596 E48.26149
G1 X52.075 Y50.808 E49.55605
G1 X48.834 Y50.809 E49.94497
G1 X48.835 Y61.597 E51.23953
G1 X48.360 Y61.598 E51.29653
G1 X47.716 Y61.595 E51.37381
G1 X47.716 Y50.805 E52.66861
G1 X46.593 Y50.805 E52.80337
G1 X46.484 Y43.795 E53.64467
G1 X46.470 Y43.260 E53.70889
G1 X46.430 Y41.482 E53.92231
G1 X47.402 Y41.482 E54.03895
G1 X47.402 Y29.751 E55.44667
G0 F9000 X47.941 Y30.688
;TYPE:SKIN
G1 F1800 X48.048 Y31.077 E55.48273
G1 X48.048 Y31.643 E55.51873
G1 X48.048 Y32.209 E55.55490
G1 X48.048 Y32.775 E55.59107
G1 X48.048 Y33.340 E55.62717
G1 X48.048 Y33.906 E55.66334
G1 X48.048 Y34.472 E55.69950
G1 X48.048 Y35.037 E55.73561
G1 X48.048 Y35.603 E55.77178
G1 X48.048 Y36.169 E55.80794
G1 X48.048 Y36.734 E55.84405
G1 X48.048 Y37.300 E55.88021
G1 X48.048 Y37.866 E55.91638
G1 X48.048 Y38.431 E55.95248
G1 X48.048 Y38.997 E55.98848
G1 X48.048 Y39.563 E56.02465
G1 X48.155 Y39.952 E56.07306
G0 F9000 X48.355 Y41.823
G0 X52.573 Y41.823
G0 X52.771 Y39.477
G1 F1800 X52.985 Y39.409 E56.10951
G1 X52.878 Y38.736 E56.14569
G1 X52.878 Y38.170 E56.18186
G1 X52.878 Y37.604 E56.21803
G1 X52.878 Y37.039 E56.25413
G1 X52.878 Y36.473 E56.29030
G1 X52.878 Y35.907 E56.32647
G1 X52.878 Y35.341 E56.36280
G1 X52.878 Y34.776 E56.39891
G1 X52.878 Y34.210 E56.43507
G1 X52.878 Y33.644 E56.47141
G1 X52.878 Y33.079 E56.50751
G1 X52.878 Y32.513 E56.54368
G1 X52.878 Y31.947 E56.58002
G1 X52.878 Y31.382 E56.61612
G1 X52.878 Y30.816 E56.65229
G1 X52.771 Y30.426 E56.70082
G0 F9000 X52.771 Y40.043
G1 F1800 X52.878 Y40.433 E56.73709
G1 X52.878 Y40.998 E56.77320
G1 X52.878 Y41.564 E56.80954
G1 X52.985 Y41.954 E56.85806
G0 F9000 X53.052 Y42.021
G1 F1800 X53.923 Y42.892 E57.00588
G0 F9000 X53.914 Y43.448
G1 F1800 X52.487 Y42.021 E57.24805
G0 F9000 X51.921 Y42.021
G1 F1800 X53.904 Y44.004 E57.58457
G0 F9000 X53.894 Y44.560
G1 F1800 X51.355 Y42.021 E58.01546
G0 F9000 X50.790 Y42.021
G1 F1800 X53.885 Y45.116 E58.54070
G0 F9000 X53.875 Y45.672
G1 F1800 X50.224 Y42.021 E59.16029
G0 F9000 X49.658 Y42.021
G1 F1800 X53.865 Y46.228 E59.87424
G0 F9000 X53.856 Y46.785
G1 F1800 X49.093 Y42.021 E60.68264
G0 F9000 X48.527 Y42.021
G1 F1800 X53.846 Y47.340 E61.58530
G0 F9000 X53.836 Y47.897
G1 F1800 X47.941 Y42.002 E62.58571
G0 F9000 X48.155 Y41.650
G1 F1800 X48.048 Y41.260 E62.62199
G1 X48.048 Y40.694 E62.65816
G1 X47.941 Y40.305 E62.70657
G0 F9000 X47.743 Y41.823
G0 X47.396 Y42.022
G1 F1800 X53.827 Y48.453 E63.79795
G0 F9000 X53.817 Y49.008
G1 F1800 X46.984 Y42.176 E64.95746
G0 F9000 X46.994 Y42.751
G1 F1800 X53.807 Y49.565 E66.11375
G0 F9000 X53.798 Y50.121
G1 F1800 X47.004 Y43.327 E67.26673
G0 F9000 X47.014 Y43.903
G1 F1800 X53.375 Y50.264 E68.34623
G0 F9000 X52.810 Y50.264
G1 F1800 X47.024 Y44.479 E69.32806
G0 F9000 X47.034 Y45.054
G1 F1800 X52.248 Y50.268 E70.21291
G0 F9000 X51.682 Y50.268
G1 F1800 X47.044 Y45.630 E71.00000
G0 F9000 X47.055 Y46.206
G1 F1800 X51.116 Y50.268 E71.68926
G0 F9000 X50.551 Y50.268
G1 F1800 X47.065 Y46.782 E72.28085
G0 F9000 X47.074 Y47.357
G1 F1800 X49.985 Y50.268 E72.77487
G0 F9000 X49.419 Y50.268
G1 F1800 X47.084 Y47.933 E73.17113
G0 F9000 X47.094 Y48.508
G1 F1800 X48.854 Y50.268 E73.46981
G0 F9000 X48.288 Y50.268
G1 F1800 X47.104 Y49.084 E73.67074
G0 F9000 X47.115 Y49.660
G1 F1800 X47.718 Y50.263 E73.77308
G0 F9000 X53.933 Y42.336
G1 F1800 X53.618 Y42.021 E73.82653
;LAYER:1
M106 S255
G0 F9000 X53.126 Y41.882 Z0.500
;TYPE:WALL-INNER
G1 F2520 X54.485 Y41.882 E73.93525
G1 X54.461 Y42.468 E73.98217
G1 X54.428 Y43.359 E74.05350
G1 X54.397 Y44.251 E74.12490
G1 X54.369 Y45.142 E74.19622
G1 X54.297 Y47.750 E74.40494
G1 X54.276 Y48.605 E74.47336
G1 X54.257 Y49.460 E74.54178
G1 X54.240 Y50.317 E74.61035
G1 X54.239 Y50.405 E74.61739
G1 X52.812 Y50.405 E74.73155
G1 X52.812 Y61.902 E75.65131
G1 X52.475 Y61.904 E75.67827
G1 X52.475 Y50.407 E76.59803
G1 X48.435 Y50.410 E76.92123
G1 X48.435 Y61.905 E77.84083
G1 X48.116 Y61.903 E77.86635
G1 X48.116 Y50.405 E78.78619
G1 X46.686 Y50.405 E78.90059
G1 X46.670 Y49.534 E78.97028
G1 X46.629 Y47.618 E79.12360
G1 X46.605 Y46.658 E79.20042
G1 X46.578 Y45.698 E79.27725
G1 X46.517 Y43.777 E79.43101
G1 X46.493 Y43.219 E79.47569
G1 X46.454 Y42.191 E79.55799
G1 X46.441 Y41.882 E79.58273
G1 X47.802 Y41.882 E79.69161
G1 X47.802 Y29.444 E80.68665
G1 X48.296 Y29.443 E80.72617
G1 X48.296 Y41.882 E81.72129
G1 X52.632 Y41.882 E82.06817
G1 X52.632 Y29.432 E83.06417
G1 X53.126 Y29.438 E83.10370
G1 X53.126 Y41.882 E84.09922
G0 F9000 X53.526 Y41.482
;TYPE:WALL-OUTER
G1 F1920 X54.902 Y41.482 E84.20930
G1 X54.828 Y43.373 E84.36069
G1 X54.769 Y45.154 E84.50325
G1 X54.676 Y48.614 E84.78015
G1 X54.640 Y50.323 E84.91690
G1 X54.634 Y50.805 E84.95546
G1 X53.212 Y50.805 E85.06922
G1 X53.212 Y62.301 E85.98890
G1 X52.075 Y62.303 E86.07986
G1 X52.075 Y50.808 E86.99946
G1 X48.835 Y50.809 E87.25866
G1 X48.835 Y62.304 E88.17826
G1 X48.518 Y62.305 E88.20362
G1 X47.716 Y62.301 E88.26778
G1 X47.716 Y50.805 E89.18746
G1 X46.293 Y50.805 E89.30130
G1 X46.229 Y47.628 E89.55552
G1 X46.178 Y45.710 E89.70901
G1 X46.117 Y43.792 E89.86253
G1 X46.025 Y41.519 E90.04452
G1 X46.024 Y41.482 E90.04748
G1 X47.402 Y41.482 E90.15772
G1 X47.402 Y29.045 E91.15268
G1 X48.696 Y29.042 E91.25620
G1 X48.696 Y41.482 E92.25140
G1 X52.232 Y41.482 E92.53428
G1 X52.232 Y29.028 E93.53060
G1 X53.526 Y29.043 E93.63412
G1 X53.526 Y41.482 E94.62924
G0 F9000 X53.296 Y42.021
;TYPE:SKIN
G1 F1740 X46.779 Y48.538 E95.36656
G0 F9000 X46.765 Y47.987
G1 F1740 X52.730 Y42.021 E96.04148
G0 F9000 X52.771 Y41.980
G1 F1740 X52.877 Y41.591 E96.06551
G1 X52.877 Y41.025 E96.08951
G1 X52.877 Y40.459 E96.11350
G1 X52.984 Y40.070 E96.14578
G0 F9000 X52.573 Y41.823
G0 X52.164 Y42.021
G1 F1740 X46.751 Y47.435 E96.75825
G0 F9000 X46.736 Y46.884
G1 F1740 X51.598 Y42.021 E97.30838
G0 F9000 X51.033 Y42.021
G1 F1740 X46.722 Y46.332 E97.79611
G0 F9000 X46.708 Y45.780
G1 F1740 X50.467 Y42.021 E98.22139
G0 F9000 X49.901 Y42.021
G1 F1740 X46.694 Y45.229 E98.58428
G0 F9000 X46.679 Y44.678
G1 F1740 X49.336 Y42.021 E98.88489
G0 F9000 X48.770 Y42.021
G1 F1740 X46.665 Y44.126 E99.12304
G0 F9000 X46.648 Y43.578
G1 F1740 X48.204 Y42.021 E99.29914
G0 F9000 X47.941 Y41.719
G1 F1740 X48.048 Y41.329 E99.32332
G1 X48.048 Y40.763 E99.34732
G1 X48.048 Y40.198 E99.37139
G1 X48.048 Y39.632 E99.39550
G1 X48.048 Y39.066 E99.41950
G1 X48.048 Y38.501 E99.44357
G1 X48.048 Y37.935 E99.46768
G1 X48.048 Y37.369 E99.49179
G1 X48.048 Y36.804 E99.51586
G1 X48.048 Y36.238 E99.53997
G1 X48.048 Y35.672 E99.56408
G1 X48.048 Y35.107 E99.58815
G1 X48.048 Y34.541 E99.61226
G1 X48.048 Y33.975 E99.63637
G1 X48.048 Y33.410 E99.66044
G1 X48.048 Y32.844 E99.68456
G1 X48.048 Y32.278 E99.70867
G1 X48.048 Y31.712 E99.73267
G1 X48.048 Y31.147 E99.75673
G1 X48.048 Y30.581 E99.78085
G1 X48.048 Y30.015 E99.80484
G1 X48.155 Y29.626 E99.83712
G0 F9000 X48.355 Y41.823
G0 X52.573 Y41.823
G0 X52.771 Y30.101
G1 F1740 X52.984 Y30.170 E99.86126
G1 X52.877 Y30.843 E99.88524
G1 X52.877 Y31.408 E99.90931
G1 X52.877 Y31.974 E99.93331
G1 X52.877 Y32.540 E99.95731
G1 X52.877 Y33.105 E99.98138
G1 X52.877 Y33.671 E100.00538
G1 X52.877 Y34.237 E100.02938
G1 X52.877 Y34.803 E100.05337
G1 X52.877 Y35.368 E100.07744
G1 X52.877 Y35.934 E100.10144
G1 X52.877 Y36.500 E100.12544
G1 X52.877 Y37.065 E100.14951
G1 X52.877 Y37.631 E100.17351
G1 X52.877 Y38.197 E100.19751
G1 X52.877 Y38.762 E100.22157
G1 X52.877 Y39.328 E100.24557
G1 X52.771 Y39.718 E100.27790
G0 F9000 X53.185 Y41.823
G0 X53.861 Y42.021
G1 F1740 X46.793 Y49.090 E101.07761
G0 F9000 X46.807 Y49.641
G1 F1740 X54.334 Y42.114 E101.92920
G0 F9000 X54.317 Y42.697
G1 F1740 X46.821 Y50.193 E102.77727
G0 F9000 X47.316 Y50.263
G1 F1740 X54.299 Y43.281 E103.56725
G0 F9000 X54.281 Y43.865
G1 F1740 X47.882 Y50.263 E104.29116
G0 F9000 X48.442 Y50.269
G1 F1740 X54.263 Y44.448 E104.94973
G0 F9000 X54.244 Y45.032
G1 F1740 X49.008 Y50.269 E105.54217
G0 F9000 X49.574 Y50.268
G1 F1740 X54.227 Y45.616 E106.06854
G0 F9000 X54.208 Y46.200
G1 F1740 X50.140 Y50.268 E106.52878
G0 F9000 X50.706 Y50.268
G1 F1740 X54.191 Y46.783 E106.92307
G0 F9000 X54.172 Y47.367
G1 F1740 X51.272 Y50.268 E107.25122
G0 F9000 X51.838 Y50.267
G1 F1740 X54.155 Y47.951 E107.51330
G0 F9000 X54.136 Y48.535
G1 F1740 X52.404 Y50.267 E107.70926
G0 F9000 X52.972 Y50.264
G1 F1740 X54.124 Y49.113 E107.83953
G0 F9000 X54.112 Y49.691
G1 F1740 X53.538 Y50.264 E107.90442
G0 F9000 X46.626 Y43.034
G1 F1740 X47.639 Y42.021 E108.01903
G0 F9000 X47.073 Y42.021
G1 F1740 X46.604 Y42.490 E108.07209
;LAYER:2
G0 F9000 X46.194 Y42.807 Z0.700
;TYPE:WALL-INNER
G1 F3300 X46.143 Y41.882 E108.14620
G1 X47.802 Y41.882 E108.27892
G1 X47.802 Y28.917 E109.31612
G1 X48.296 Y28.916 E109.35564
G1 X48.296 Y41.882 E110.39292
G1 X52.632 Y41.882 E110.73980
G1 X52.632 Y28.905 E111.77796
G1 X53.126 Y28.910 E111.81748
G1 X53.126 Y41.882 E112.85524
G1 X54.781 Y41.882 E112.98764
G1 X54.730 Y42.798 E113.06104
G1 X54.705 Y43.353 E113.10548
G1 X54.663 Y44.243 E113.17676
G1 X54.623 Y45.135 E113.24819
G1 X54.587 Y46.026 E113.31953
G1 X54.556 Y46.916 E113.39077
G1 X54.528 Y47.807 E113.46209
G1 X54.503 Y48.696 E113.53324
G1 X54.460 Y50.405 E113.67000
G1 X52.812 Y50.405 E113.80184
G1 X52.812 Y62.430 E114.76384
G1 X52.475 Y62.431 E114.79080
G1 X52.475 Y50.407 E115.75272
G1 X48.437 Y50.410 E116.07576
G1 X48.437 Y62.431 E117.03744
G1 X48.263 Y62.432 E117.05136
G1 X48.116 Y62.431 E117.06312
G1 X48.116 Y50.405 E118.02520
G1 X46.469 Y50.405 E118.15696
G1 X46.429 Y48.781 E118.28692
G1 X46.399 Y47.750 E118.36943
G1 X46.333 Y45.886 E118.51865
G1 X46.286 Y44.733 E118.61096
G1 X46.247 Y43.858 E118.68103
G1 X46.194 Y42.807 E118.76522
G0 F9000 X45.742 Y41.867
;TYPE:WALL-OUTER
G1 F2100 X45.717 Y41.482 E118.79609
G1 X47.402 Y41.482 E118.93089
G1 X47.402 Y28.517 E119.96809
G1 X48.696 Y28.516 E120.07161
G1 X48.696 Y41.482 E121.10889
G1 X52.232 Y41.482 E121.39177
G1 X52.232 Y28.507 E122.42977
G1 X52.564 Y28.504 E122.45633
G1 X53.526 Y28.515 E122.53329
G1 X53.526 Y41.482 E123.57065
G1 X55.209 Y41.482 E123.70529
G1 X55.129 Y42.818 E123.81236
G1 X55.022 Y45.152 E123.99928
G1 X54.956 Y46.929 E124.14154
G1 X54.903 Y48.706 E124.28376
G1 X54.859 Y50.440 E124.42253
G1 X54.850 Y50.805 E124.45173
G1 X53.212 Y50.805 E124.58277
G1 X53.212 Y62.829 E125.54469
G1 X52.659 Y62.831 E125.58893
G1 X52.075 Y62.830 E125.63565
G1 X52.075 Y50.808 E126.59741
G1 X48.837 Y50.809 E126.85646
G1 X48.837 Y62.830 E127.81814
G1 X48.262 Y62.832 E127.86414
G1 X47.716 Y62.829 E127.90782
G1 X47.716 Y50.805 E128.86974
G1 X46.078 Y50.805 E129.00078
G1 X46.029 Y48.792 E129.16186
G1 X45.999 Y47.763 E129.24422
G1 X45.933 Y45.901 E129.39327
G1 X45.848 Y43.878 E129.55525
G1 X45.742 Y41.867 E129.71636
G0 F9000 X46.290 Y42.048
;TYPE:SKIN
G1 F1800 X54.327 Y50.085 E130.62564
G0 F9000 X53.941 Y50.264
G1 F1800 X46.322 Y42.645 E131.48763
G0 F9000 X46.353 Y43.242
G1 F1800 X53.375 Y50.264 E132.28208
G0 F9000 X52.810 Y50.264
G1 F1800 X46.385 Y43.839 E133.00899
G0 F9000 X46.405 Y44.425
G1 F1800 X52.246 Y50.266 E133.66982
G0 F9000 X51.681 Y50.266
G1 F1800 X46.425 Y45.011 E134.26441
G0 F9000 X46.445 Y45.597
G1 F1800 X51.116 Y50.267 E134.79282
G0 F9000 X50.550 Y50.267
G1 F1800 X46.466 Y46.183 E135.25487
G0 F9000 X46.485 Y46.768
G1 F1800 X49.985 Y50.268 E135.65085
G0 F9000 X49.419 Y50.268
G1 F1800 X46.505 Y47.354 E135.98053
G0 F9000 X46.526 Y47.940
G1 F1800 X48.854 Y50.268 E136.24392
G0 F9000 X48.289 Y50.268
G1 F1800 X46.546 Y48.525 E136.44111
G0 F9000 X46.566 Y49.112
G1 F1800 X47.718 Y50.263 E136.57139
G0 F9000 X47.152 Y50.263
G1 F1800 X46.586 Y49.697 E136.63543
G0 F9000 X46.830 Y42.021
G1 F1800 X54.343 Y49.535 E137.48548
G0 F9000 X54.360 Y48.986
G1 F1800 X47.395 Y42.021 E138.27348
G0 F9000 X47.941 Y42.002
G1 F1800 X54.375 Y48.436 E139.00141
G0 F9000 X54.392 Y47.886
G1 F1800 X48.527 Y42.021 E139.66495
G0 F9000 X48.155 Y41.650
G1 F1800 X48.048 Y41.260 E139.68914
G1 X48.048 Y40.694 E139.71325
G1 X47.941 Y40.305 E139.74553
G0 F9000 X48.355 Y41.823
G0 X49.093 Y42.021
G1 F1800 X54.408 Y47.337 E140.34691
G0 F9000 X54.424 Y46.787
G1 F1800 X49.658 Y42.021 E140.88612
G0 F9000 X50.224 Y42.021
G1 F1800 X54.440 Y46.237 E141.36310
G0 F9000 X54.462 Y45.693
G1 F1800 X50.790 Y42.021 E141.77854
G0 F9000 X51.355 Y42.021
G1 F1800 X54.486 Y45.153 E142.13283
