;FLAVOR:UltiGCode
;TIME:2124
;MATERIAL:4675
;MATERIAL2:0

;Layer count: 10
;LAYER:0
M107
G0 F9000 X25.609 Y53.973 Z0.300
;TYPE:SKIRT
G1 F1800 X26.333 Y53.733 E0.09153
G1 X27.409 Y53.561 E0.22229
G1 X28.497 Y53.625 E0.35307
G1 X29.240 Y53.792 E0.44446
G1 X30.247 Y54.197 E0.57471
G1 X31.153 Y54.812 E0.70611
G1 X31.702 Y55.339 E0.79743
G1 X32.303 Y56.129 E0.91654
G1 X32.652 Y56.788 E1.00603
G1 X32.916 Y57.545 E1.10223
G1 X32.999 Y57.875 E1.14307
G1 X33.103 Y58.496 E1.21862
G1 X33.117 Y65.243 E2.02827
G1 X33.117 Y81.083 E3.92907
G1 X35.193 Y81.090 E4.17819
G1 X42.272 Y81.090 E5.02767
G1 X42.280 Y77.968 E5.40231
G1 X42.280 Y67.044 E6.71319
G1 X42.315 Y66.433 E6.78663
G1 X42.506 Y65.478 E6.90350
G1 X42.785 Y64.704 E7.00223
G1 X43.118 Y64.051 E7.09019
G1 X43.613 Y63.355 E7.19268
G1 X43.836 Y63.082 E7.23498
G1 X44.280 Y62.638 E7.31033
G1 X44.823 Y62.201 E7.39397
G1 X45.664 Y61.700 E7.51144
G1 X46.426 Y61.391 E7.61011
G1 X47.071 Y61.218 E7.69025
G1 X47.690 Y61.121 E7.76543
G1 X48.323 Y61.085 E7.84152
G1 X49.170 Y61.132 E7.94331
G1 X49.998 Y61.262 E8.04389
G1 X50.812 Y61.480 E8.14501
G1 X51.599 Y61.782 E8.24617
G1 X52.350 Y62.165 E8.34733
G1 X53.058 Y62.625 E8.44865
G1 X53.712 Y63.155 E8.54966
G1 X54.307 Y63.750 E8.65064
G1 X54.837 Y64.404 E8.75165
G1 X55.297 Y65.112 E8.85297
G1 X55.680 Y65.863 E8.95413
G1 X55.982 Y66.650 E9.05529
G1 X56.200 Y67.464 E9.15641
G1 X56.330 Y68.292 E9.25699
G1 X56.372 Y69.048 E9.34785
G1 X56.372 Y71.856 E9.68481
G1 X56.317 Y72.468 E9.75854
G1 X56.120 Y73.213 E9.85102
G1 X55.788 Y73.909 E9.94355
G1 X55.355 Y74.522 E10.03361
G1 X54.822 Y75.051 E10.12373
G1 X54.202 Y75.486 E10.21461
G1 X53.507 Y75.809 E10.30658
G1 X52.757 Y76.007 E10.39966
G1 X52.002 Y76.064 E10.49052
G1 X51.283 Y75.999 E10.57715
G1 X50.245 Y75.742 E10.70547
G1 X50.245 Y82.097 E11.46807
G1 X50.209 Y82.749 E11.54643
G1 X50.094 Y83.474 E11.63452
G1 X49.886 Y84.252 E11.73116
G1 X49.425 Y85.317 E11.87042
G1 X48.924 Y86.127 E11.98471
G1 X48.436 Y86.727 E12.07752
G1 X47.917 Y87.246 E12.16559
G1 X47.343 Y87.713 E12.25439
G1 X46.719 Y88.117 E12.34359
G1 X46.065 Y88.448 E12.43155
G1 X45.379 Y88.713 E12.51980
G1 X44.664 Y88.904 E12.60861
G1 X43.862 Y89.031 E12.70605
G1 X40.226 Y89.055 E13.14238
G1 X32.112 Y89.055 E14.11606
G1 X31.459 Y89.019 E14.19454
G1 X30.733 Y88.904 E14.28274
G1 X29.954 Y88.696 E14.37950
G1 X28.892 Y88.235 E14.51843
G1 X28.082 Y87.735 E14.63266
G1 X27.480 Y87.246 E14.72572
G1 X26.959 Y86.725 E14.81414
G1 X26.496 Y86.153 E14.90245
G1 X26.092 Y85.532 E14.99135
G1 X25.757 Y84.871 E15.08028
G1 X25.494 Y84.185 E15.16844
G1 X25.305 Y83.478 E15.25626
G1 X25.175 Y82.671 E15.35435
G1 X25.151 Y75.201 E16.25075
G1 X25.146 Y71.510 E16.69367
G1 X25.143 Y63.828 E17.61551
G1 X25.071 Y63.798 E17.62487
G1 X24.175 Y63.176 E17.75576
G1 X23.693 Y62.707 E17.83646
G1 X23.319 Y62.259 E17.90649
G1 X22.944 Y61.695 E17.98777
G1 X22.535 Y60.783 E18.10771
G1 X22.359 Y60.136 E18.18817
G1 X22.269 Y59.557 E18.25849
G1 X22.240 Y58.965 E18.32961
G1 X22.279 Y58.371 E18.40104
G1 X22.377 Y57.801 E18.47045
G1 X22.538 Y57.237 E18.54083
G1 X22.761 Y56.687 E18.61205
G1 X23.082 Y56.096 E18.69276
G1 X23.694 Y55.298 E18.81343
G1 X24.191 Y54.838 E18.89470
G1 X24.723 Y54.438 E18.97457
G1 X25.609 Y53.973 E19.09464
G10
G0 F9000 X27.102 Y57.481
;TYPE:WALL-INNER
G11
G1 F1800 X27.237 Y57.436 E19.11172
G1 X27.598 Y57.379 E19.15558
G1 X27.970 Y57.400 E19.20029
G1 X28.102 Y57.430 E19.21653
G1 X28.452 Y57.571 E19.26181
G1 X28.753 Y57.775 E19.30545
G1 X28.855 Y57.873 E19.32242
G1 X29.092 Y58.185 E19.36944
G1 X29.157 Y58.309 E19.38624
G1 X29.275 Y58.648 E19.42931
G1 X29.304 Y58.820 E19.45024
G1 X29.317 Y65.246 E20.22137
G1 X29.317 Y82.024 E22.23473
G1 X29.331 Y82.310 E22.26909
G1 X29.378 Y82.607 E22.30517
G1 X29.456 Y82.900 E22.34155
G1 X29.709 Y83.465 E22.41584
G1 X30.045 Y83.927 E22.48439
G1 X30.271 Y84.152 E22.52266
G1 X30.516 Y84.351 E22.56054
G1 X31.011 Y84.637 E22.62914
G1 X31.308 Y84.751 E22.66731
G1 X31.598 Y84.828 E22.70332
G1 X31.911 Y84.879 E22.74138
G1 X35.181 Y84.890 E23.13378
G1 X43.213 Y84.890 E24.09762
G1 X43.500 Y84.877 E24.13209
G1 X43.799 Y84.828 E24.16845
G1 X44.090 Y84.751 E24.20457
G1 X44.386 Y84.637 E24.24264
G1 X44.895 Y84.343 E24.31317
G1 X45.343 Y83.940 E24.38548
G1 X45.688 Y83.465 E24.45593
G1 X45.941 Y82.900 E24.53022
G1 X46.019 Y82.607 E24.56660
G1 X46.069 Y82.303 E24.60357
G1 X46.080 Y77.977 E25.12270
G1 X46.080 Y67.153 E26.42158
G1 X46.094 Y66.913 E26.45043
G1 X46.176 Y66.502 E26.50072
G1 X46.277 Y66.221 E26.53655
G1 X46.377 Y66.026 E26.56285
G1 X46.658 Y65.634 E26.62072
G1 X46.820 Y65.472 E26.64822
G1 X46.996 Y65.330 E26.67535
G1 X47.362 Y65.112 E26.72647
G1 X47.637 Y65.001 E26.76206
G1 X48.094 Y64.904 E26.81812
G1 X48.327 Y64.891 E26.84613
G1 X48.765 Y64.915 E26.89877
G1 X49.207 Y64.985 E26.95247
G1 X49.641 Y65.101 E27.00637
G1 X50.049 Y65.258 E27.05883
G1 X50.449 Y65.461 E27.11266
G1 X50.820 Y65.702 E27.16575
G1 X51.169 Y65.985 E27.21967
G1 X51.477 Y66.293 E27.27194
G1 X51.760 Y66.642 E27.32586
G1 X52.001 Y67.013 E27.37895
G1 X52.204 Y67.413 E27.43277
G1 X52.361 Y67.821 E27.48523
G1 X52.477 Y68.255 E27.53914
G1 X52.547 Y68.697 E27.59284
G1 X52.572 Y71.680 E27.95081
G1 X52.560 Y71.811 E27.96660
G1 X52.537 Y71.897 E27.97728
G1 X52.498 Y71.980 E27.98829
G1 X52.444 Y72.057 E27.99957
G1 X52.371 Y72.129 E28.01188
G1 X52.298 Y72.180 E28.02256
G1 X52.199 Y72.224 E28.03556
G1 X52.207 Y69.122 E28.40781
G1 X52.188 Y68.731 E28.45478
G1 X52.124 Y68.329 E28.50363
G1 X52.018 Y67.936 E28.55247
G1 X51.873 Y67.557 E28.60117
G1 X51.688 Y67.195 E28.64995
G1 X51.467 Y66.854 E28.69871
G1 X51.212 Y66.538 E28.74744
G1 X50.924 Y66.250 E28.79632
G1 X50.608 Y65.995 E28.84504
G1 X50.267 Y65.774 E28.89381
G1 X49.905 Y65.589 E28.94259
G1 X49.526 Y65.444 E28.99128
G1 X49.133 Y65.338 E29.04013
G1 X48.731 Y65.274 E29.08898
G1 X48.323 Y65.254 E29.13800
G1 X48.081 Y65.269 E29.16709
G1 X47.818 Y65.321 E29.19926
G1 X47.400 Y65.494 E29.25355
G1 X47.180 Y65.641 E29.28530
G1 X46.992 Y65.805 E29.31524
G1 X46.830 Y65.992 E29.34493
G1 X46.695 Y66.195 E29.37418
G1 X46.587 Y66.416 E29.40370
G1 X46.507 Y66.647 E29.43303
G1 X46.455 Y66.909 E29.46509
G1 X46.445 Y71.168 E29.97617
G1 X46.445 Y81.994 E31.27529
G1 X46.426 Y82.342 E31.31711
G1 X46.372 Y82.683 E31.35854
G1 X46.287 Y82.999 E31.39781
G1 X46.047 Y83.554 E31.47037
G1 X45.820 Y83.920 E31.52205
G1 X45.607 Y84.183 E31.56266
G1 X45.373 Y84.417 E31.60237
G1 X45.107 Y84.633 E31.64349
G1 X44.817 Y84.821 E31.68497
G1 X44.522 Y84.970 E31.72462
G1 X44.201 Y85.094 E31.76592
G1 X43.873 Y85.182 E31.80667
G1 X43.548 Y85.233 E31.84615
G1 X40.212 Y85.255 E32.24648
G1 X32.214 Y85.255 E33.20624
G1 X31.865 Y85.236 E33.24818
G1 X31.524 Y85.182 E33.28961
G1 X31.205 Y85.096 E33.32926
G1 X30.659 Y84.860 E33.40063
G1 X30.285 Y84.628 E33.45345
G1 X30.024 Y84.417 E33.49372
G1 X29.791 Y84.184 E33.53326
G1 X29.573 Y83.914 E33.57491
G1 X29.387 Y83.629 E33.61575
G1 X29.236 Y83.330 E33.65594
G1 X29.115 Y83.015 E33.69643
G1 X28.974 Y82.364 E33.77637
G1 X28.951 Y75.192 E34.63701
G1 X28.941 Y60.405 E36.41145
G1 X28.173 Y60.578 E36.50592
G1 X28.150 Y60.580 E36.50869
G1 X27.751 Y60.642 E36.55714
G1 X27.577 Y60.640 E36.57803
G1 X27.396 Y60.618 E36.59991
G1 X27.242 Y60.582 E36.61888
G1 X26.899 Y60.441 E36.66339
G1 X26.597 Y60.231 E36.70753
G1 X26.371 Y59.985 E36.74761
G1 X26.281 Y59.850 E36.76708
G1 X26.124 Y59.500 E36.81311
G1 X26.082 Y59.347 E36.83215
G1 X26.054 Y59.167 E36.85401
G1 X26.046 Y59.001 E36.87396
G1 X26.058 Y58.815 E36.89632
G1 X26.135 Y58.478 E36.93781
G1 X26.278 Y58.173 E36.97823
G1 X26.512 Y57.868 E37.02436
G1 X26.631 Y57.758 E37.04381
G1 X26.760 Y57.660 E37.06325
G1 X27.102 Y57.481 E37.10957
G0 F9000 X26.942 Y57.113
;TYPE:WALL-OUTER
G1 F1800 X27.145 Y57.046 E37.13522
G1 X27.576 Y56.977 E37.18760
G1 X28.025 Y57.003 E37.24157
G1 X28.222 Y57.048 E37.26582
G1 X28.643 Y57.217 E37.32026
G1 X29.006 Y57.463 E37.37288
G1 X29.155 Y57.607 E37.39774
G1 X29.427 Y57.964 E37.45160
G1 X29.527 Y58.154 E37.47736
G1 X29.670 Y58.579 E37.53117
G1 X29.704 Y58.782 E37.55587
G1 X29.717 Y82.014 E40.34371
G1 X29.730 Y82.269 E40.37435
G1 X29.770 Y82.524 E40.40533
G1 X29.837 Y82.777 E40.43673
G1 X29.930 Y83.019 E40.46784
G1 X30.051 Y83.255 E40.49967
G1 X30.350 Y83.666 E40.56066
G1 X30.743 Y84.020 E40.62413
G1 X31.184 Y84.275 E40.68526
G1 X31.431 Y84.370 E40.71702
G1 X31.682 Y84.437 E40.74819
G1 X31.944 Y84.479 E40.78003
G1 X43.203 Y84.490 E42.13112
G1 X43.459 Y84.478 E42.16187
G1 X43.715 Y84.437 E42.19298
G1 X43.967 Y84.370 E42.22427
G1 X44.213 Y84.275 E42.25592
G1 X44.658 Y84.018 E42.31758
G1 X45.044 Y83.671 E42.37987
G1 X45.346 Y83.255 E42.44155
G1 X45.467 Y83.019 E42.47338
G1 X45.560 Y82.777 E42.50449
G1 X45.627 Y82.524 E42.53590
G1 X45.669 Y82.266 E42.56726
G1 X45.680 Y67.147 E44.38154
G1 X45.696 Y66.862 E44.41580
G1 X45.790 Y66.393 E44.47320
G1 X45.911 Y66.059 E44.51583
G1 X46.033 Y65.819 E44.54813
G1 X46.367 Y65.359 E44.61635
G1 X46.548 Y65.178 E44.64707
G1 X46.772 Y64.998 E44.68155
G1 X47.184 Y64.752 E44.73913
G1 X47.509 Y64.620 E44.78123
G1 X47.771 Y64.550 E44.81377
G1 X48.051 Y64.506 E44.84778
G1 X48.326 Y64.491 E44.88083
G1 X48.810 Y64.517 E44.93900
G1 X49.296 Y64.594 E44.99804
G1 X49.756 Y64.717 E45.05518
G1 X50.219 Y64.895 E45.11471
G1 X50.645 Y65.112 E45.17208
G1 X51.060 Y65.382 E45.23149
G1 X51.437 Y65.687 E45.28968
G1 X51.775 Y66.025 E45.34704
G1 X52.080 Y66.402 E45.40523
G1 X52.350 Y66.817 E45.46464
G1 X52.567 Y67.243 E45.52201
G1 X52.745 Y67.706 E45.58154
G1 X52.868 Y68.166 E45.63868
G1 X52.945 Y68.652 E45.69773
G1 X52.972 Y71.705 E46.06410
G1 X52.956 Y71.878 E46.08495
G1 X52.915 Y72.037 E46.10465
G1 X52.844 Y72.184 E46.12424
G1 X52.751 Y72.316 E46.14362
G1 X52.633 Y72.433 E46.16356
G1 X52.493 Y72.531 E46.18407
G1 X52.348 Y72.598 E46.20323
G1 X52.189 Y72.640 E46.22297
G1 X52.028 Y72.653 E46.24235
G1 X51.797 Y72.624 E46.27029
G1 X51.807 Y69.131 E46.68945
G1 X51.789 Y68.772 E46.73258
G1 X51.732 Y68.412 E46.77632
G1 X51.637 Y68.060 E46.82007
G1 X51.507 Y67.720 E46.86375
G1 X51.341 Y67.395 E46.90755
G1 X51.143 Y67.089 E46.95128
G1 X50.914 Y66.806 E46.99497
G1 X50.656 Y66.548 E47.03875
G1 X50.373 Y66.319 E47.08244
G1 X50.067 Y66.121 E47.12618
G1 X49.742 Y65.955 E47.16997
G1 X49.402 Y65.825 E47.21365
G1 X49.050 Y65.730 E47.25740
G1 X48.690 Y65.673 E47.30114
G1 X48.325 Y65.655 E47.34499
G1 X48.132 Y65.666 E47.36819
G1 X47.935 Y65.706 E47.39231
G1 X47.589 Y65.849 E47.43724
G1 X47.276 Y66.088 E47.48450
G1 X47.149 Y66.235 E47.50781
G1 X47.042 Y66.395 E47.53091
G1 X46.957 Y66.569 E47.55414
G1 X46.894 Y66.752 E47.57737
G1 X46.855 Y66.949 E47.60147
G1 X46.845 Y81.998 E49.40735
G1 X46.824 Y82.388 E49.45422
G1 X46.763 Y82.771 E49.50075
G1 X46.667 Y83.128 E49.54512
G1 X46.402 Y83.741 E49.62526
G1 X46.147 Y84.153 E49.68340
G1 X45.905 Y84.451 E49.72947
G1 X45.641 Y84.715 E49.77427
G1 X45.345 Y84.955 E49.82000
G1 X45.015 Y85.169 E49.86719
G1 X44.690 Y85.334 E49.91093
G1 X44.319 Y85.477 E49.95865
G1 X43.961 Y85.573 E50.00312
G1 X43.581 Y85.633 E50.04929
G1 X40.215 Y85.655 E50.45322
G1 X32.210 Y85.655 E51.41382
G1 X31.819 Y85.634 E51.46080
G1 X31.436 Y85.573 E51.50734
G1 X31.076 Y85.476 E51.55208
G1 X30.470 Y85.214 E51.63131
G1 X30.054 Y84.956 E51.69005
G1 X29.756 Y84.715 E51.73604
G1 X29.497 Y84.456 E51.78000
G1 X29.249 Y84.149 E51.82735
G1 X29.036 Y83.822 E51.87418
G1 X28.873 Y83.499 E51.91760
G1 X28.731 Y83.130 E51.96505
G1 X28.633 Y82.763 E52.01063
G1 X28.574 Y82.397 E52.05512
G1 X28.541 Y60.905 E54.63416
G1 X28.230 Y60.975 E54.67241
G1 X28.207 Y60.977 E54.67518
G1 X28.056 Y61.009 E54.69371
G1 X28.040 Y61.010 E54.69563
G1 X27.986 Y61.021 E54.70224
G1 X27.767 Y61.043 E54.72865
G1 X27.551 Y61.039 E54.75458
G1 X27.325 Y61.012 E54.78189
G1 X27.118 Y60.964 E54.80739
G1 X26.707 Y60.795 E54.86072
G1 X26.342 Y60.541 E54.91408
G1 X26.195 Y60.399 E54.93861
G1 X26.050 Y60.225 E54.96579
G1 X25.928 Y60.041 E54.99228
G1 X25.746 Y59.636 E55.04556
G1 X25.691 Y59.433 E55.07080
G1 X25.656 Y59.209 E55.09800
G1 X25.646 Y58.994 E55.12383
G1 X25.661 Y58.767 E55.15113
G1 X25.698 Y58.555 E55.17696
G1 X25.757 Y58.344 E55.20325
G1 X25.838 Y58.145 E55.22903
G1 X25.941 Y57.956 E55.25486
G1 X26.217 Y57.596 E55.30929
G1 X26.545 Y57.321 E55.36066
G1 X26.942 Y57.113 E55.41444
G0 F9000 X27.303 Y57.567
;TYPE:SKIN
G1 F1800 X29.164 Y59.428 E55.73026
G0 F9000 X29.164 Y58.863
G1 F1800 X27.833 Y57.532 E55.95614
G0 F9000 X26.909 Y57.739
G1 F1800 X29.165 Y59.995 E56.33900
G0 F9000 X28.878 Y60.274
G1 F1800 X26.594 Y57.989 E56.72669
G0 F9000 X26.361 Y58.322
G1 F1800 X28.417 Y60.378 E57.07560
G0 F9000 X27.942 Y60.469
G1 F1800 X26.216 Y58.743 E57.36852
G0 F9000 X26.218 Y59.310
G1 F1800 X27.374 Y60.467 E57.56478
;LAYER:1
M106 S255
G0 F9000 X27.197 Y60.743 Z0.500
;TYPE:WALL-INNER
G1 F2520 X26.813 Y60.585 E57.59800
G1 X26.499 Y60.368 E57.62853
G1 X26.231 Y60.077 E57.66018
G1 X26.140 Y59.939 E57.67341
G1 X25.969 Y59.560 E57.70667
G1 X25.888 Y59.185 E57.73736
G1 X25.880 Y58.997 E57.75242
G1 X25.892 Y58.805 E57.76781
G1 X25.974 Y58.439 E57.79781
G1 X26.150 Y58.064 E57.83095
G1 X26.305 Y57.852 E57.85196
G1 X26.422 Y57.725 E57.86577
G1 X26.688 Y57.507 E57.89329
G1 X26.840 Y57.416 E57.90746
G1 X27.011 Y57.338 E57.92250
G1 X27.412 Y57.229 E57.95574
G1 X27.576 Y57.212 E57.96893
G1 X27.981 Y57.235 E58.00138
G1 X28.349 Y57.339 E58.03198
G1 X28.695 Y57.524 E58.06336
G1 X29.004 Y57.787 E58.09583
G1 X29.112 Y57.915 E58.10922
G1 X29.307 Y58.235 E58.13920
G1 X29.443 Y58.641 E58.17346
G1 X29.470 Y58.809 E58.18707
G1 X29.483 Y82.022 E60.04411
G1 X29.496 Y82.308 E60.06701
G1 X29.611 Y82.850 E60.11134
G1 X29.843 Y83.369 E60.15682
G1 X30.177 Y83.829 E60.20230
G1 X30.599 Y84.209 E60.24773
G1 X31.078 Y84.486 E60.29199
G1 X31.373 Y84.599 E60.31726
G1 X31.912 Y84.715 E60.36137
G1 X35.700 Y84.726 E60.66441
G1 X43.213 Y84.725 E61.26545
G1 X43.498 Y84.712 E61.28828
G1 X44.024 Y84.599 E61.33132
G1 X44.305 Y84.492 E61.35537
G1 X44.558 Y84.362 E61.37813
G1 X44.796 Y84.207 E61.40085
G1 X45.029 Y84.019 E61.42480
G1 X45.399 Y83.608 E61.46904
G1 X45.676 Y83.129 E61.51331
G1 X45.789 Y82.834 E61.53858
G1 X45.905 Y82.296 E61.58261
G1 X45.916 Y77.275 E61.98429
G1 X45.915 Y67.153 E62.79405
G1 X45.929 Y66.901 E62.81424
G1 X46.016 Y66.464 E62.84989
G1 X46.128 Y66.151 E62.87648
G1 X46.238 Y65.934 E62.89594
G1 X46.539 Y65.520 E62.93689
G1 X46.908 Y65.189 E62.97655
G1 X47.124 Y65.048 E62.99718
G1 X47.346 Y64.935 E63.01711
G1 X47.573 Y64.848 E63.03656
G1 X47.998 Y64.752 E63.07142
G1 X48.330 Y64.727 E63.09805
G1 X48.783 Y64.751 E63.13434
G1 X49.242 Y64.823 E63.17151
G1 X49.693 Y64.944 E63.20887
G1 X50.116 Y65.107 E63.24513
G1 X50.532 Y65.319 E63.28249
G1 X50.917 Y65.568 E63.31917
G1 X51.279 Y65.862 E63.35647
G1 X51.600 Y66.183 E63.39279
G1 X51.894 Y66.545 E63.43010
G1 X52.143 Y66.930 E63.46678
G1 X52.355 Y67.346 E63.50413
G1 X52.518 Y67.769 E63.54040
G1 X52.639 Y68.220 E63.57775
G1 X52.711 Y68.679 E63.61492
G1 X52.737 Y71.683 E63.85525
G1 X52.724 Y71.835 E63.86746
G1 X52.692 Y71.955 E63.87739
G1 X52.637 Y72.072 E63.88773
G1 X52.573 Y72.164 E63.89670
G1 X52.479 Y72.257 E63.90728
G1 X52.384 Y72.323 E63.91653
G1 X52.268 Y72.377 E63.92677
G1 X52.151 Y72.407 E63.93643
G1 X52.037 Y72.417 E63.94559
G1 X52.042 Y69.122 E64.20919
G1 X52.024 Y68.747 E64.23922
G1 X51.962 Y68.363 E64.27034
G1 X51.862 Y67.988 E64.30139
G1 X51.722 Y67.624 E64.33259
G1 X51.545 Y67.277 E64.36375
G1 X51.333 Y66.951 E64.39486
G1 X51.080 Y66.639 E64.42699
G1 X50.611 Y66.208 E64.47795
G1 X50.191 Y65.920 E64.51869
G1 X49.838 Y65.740 E64.55039
G1 X49.474 Y65.600 E64.58159
G1 X49.099 Y65.500 E64.61264
G1 X48.716 Y65.439 E64.64367
G1 X48.321 Y65.418 E64.67531
G1 X48.080 Y65.434 E64.69463
G1 X47.667 Y65.545 E64.72884
G1 X47.295 Y65.760 E64.76322
G1 X47.110 Y65.921 E64.78284
G1 X46.948 Y66.106 E64.80251
G1 X46.734 Y66.479 E64.83691
G1 X46.619 Y66.911 E64.87268
G1 X46.609 Y71.870 E65.26940
G1 X46.610 Y81.994 E66.07932
G1 X46.590 Y82.361 E66.10872
G1 X46.533 Y82.723 E66.13804
G1 X46.442 Y83.060 E66.16596
G1 X46.319 Y83.383 E66.19361
G1 X46.007 Y83.939 E66.24462
G1 X45.730 Y84.293 E66.28058
G1 X45.483 Y84.540 E66.30852
G1 X45.202 Y84.768 E66.33747
G1 X44.905 Y84.961 E66.36581
