;FLAVOR:UltiGCode
;TIME:4351
;MATERIAL:11334
;MATERIAL2:0

;Layer count: 175
;LAYER:0
M107
G0 F9000 X25.330 Y38.108 Z0.300
;TYPE:SKIRT
G1 F1800 X64.698 Y38.108 E4.72416
G1 X68.062 Y41.472 E5.29505
G1 X68.062 Y50.727 E6.40565
G1 X64.698 Y54.091 E6.97654
G1 X60.533 Y54.091 E7.47634
G1 X60.533 Y57.938 E7.93798
G1 X33.218 Y57.938 E11.21578
G1 X29.495 Y57.911 E11.66255
G1 X29.495 Y54.091 E12.12095
G1 X25.330 Y54.091 E12.62075
G1 X21.966 Y50.727 E13.19164
G1 X21.966 Y41.472 E14.30224
G1 X25.330 Y38.108 E14.87313
G0 F9000 X25.496 Y38.508
G1 F1800 X64.532 Y38.508 E19.55745
G1 X67.662 Y41.638 E20.08863
G1 X67.662 Y50.561 E21.15939
G1 X64.532 Y53.691 E21.69057
G1 X60.133 Y53.691 E22.21845
G1 X60.133 Y57.538 E22.68009
G1 X33.219 Y57.538 E25.90977
G1 X29.895 Y57.514 E26.30866
G1 X29.895 Y53.691 E26.76742
G1 X25.496 Y53.691 E27.29530
G1 X22.366 Y50.561 E27.82648
G1 X22.366 Y41.638 E28.89724
G1 X25.496 Y38.508 E29.42842
G10
G0 F9000 X27.115 Y42.458
;TYPE:FILL
G11
G1 F1800 X27.651 Y42.994 E29.51938
G0 F9000 X26.845 Y43.803
G1 F1800 X26.307 Y43.265 E29.61068
G0 F9000 X26.305 Y48.108
G1 F1800 X27.947 Y49.750 E29.88934
G0 F9000 X60.498 Y49.811
G0 X61.715 Y49.602
G1 F1800 X61.863 Y49.750 E29.91445
G0 F9000 X62.681 Y48.953
G1 F1800 X63.189 Y49.462 E30.00075
G0 F9000 X63.721 Y48.378
G1 F1800 X63.404 Y48.061 E30.05454
G0 F9000 X63.808 Y46.097
G0 X63.721 Y43.533
G1 F1800 X62.635 Y42.447 E30.23884
G0 F9000 X62.959 Y42.308
;TYPE:WALL-INNER
G1 F1800 X63.862 Y43.211 E30.39209
G1 X63.862 Y48.988 E31.08533
G1 X62.959 Y49.891 E31.23857
G1 X54.885 Y49.891 E32.20745
G1 X54.885 Y51.028 E32.34389
G1 X56.333 Y53.537 E32.69152
G1 X56.333 Y53.738 E32.71564
G1 X33.695 Y53.738 E35.43220
G1 X33.695 Y53.537 E35.45632
G1 X35.054 Y51.182 E35.78259
G1 X35.143 Y51.033 E35.80342
G1 X35.143 Y49.891 E35.94046
G1 X27.069 Y49.891 E36.90934
G1 X26.166 Y48.988 E37.06259
G1 X26.166 Y43.211 E37.75583
G1 X27.069 Y42.308 E37.90907
G1 X62.959 Y42.308 E42.21587
G0 F9000 X62.439 Y43.208
G1 F1800 X61.990 Y42.893 E42.28169
G1 X61.502 Y42.648 E42.34721
G1 X61.012 Y42.482 E42.40930
G1 X60.497 Y42.386 E42.47216
G1 X59.919 Y42.364 E42.54157
G1 X59.367 Y42.428 E42.60825
G1 X58.831 Y42.574 E42.67492
G1 X58.319 Y42.798 E42.74198
G1 X57.843 Y43.101 E42.80969
G1 X57.449 Y43.437 E42.87183
G1 X57.083 Y43.854 E42.93841
G1 X56.804 Y44.283 E42.99982
G1 X56.572 Y44.781 E43.06575
G1 X56.417 Y45.309 E43.13178
G1 X56.342 Y45.825 E43.19435
G1 X56.341 Y46.345 E43.25675
G1 X56.421 Y46.919 E43.32630
G1 X56.584 Y47.452 E43.39318
G1 X56.824 Y47.953 E43.45984
G1 X57.139 Y48.419 E43.52734
G1 X57.487 Y48.802 E43.58944
G1 X57.887 Y49.134 E43.65182
G1 X58.387 Y49.436 E43.72191
G1 X58.834 Y49.626 E43.78020
G1 X59.397 Y49.776 E43.85011
G1 X59.897 Y49.832 E43.91049
G1 X59.969 Y49.834 E43.91913
G1 X60.499 Y49.813 E43.98278
G1 X61.042 Y49.709 E44.04913
G1 X61.534 Y49.539 E44.11159
G1 X62.024 Y49.287 E44.17771
G1 X62.482 Y48.955 E44.24559
G1 X62.884 Y48.557 E44.31348
G1 X63.194 Y48.153 E44.37458
G1 X63.461 Y47.672 E44.44060
G1 X63.654 Y47.160 E44.50626
G1 X63.769 Y46.649 E44.56911
G1 X63.809 Y46.098 E44.63541
G1 X63.763 Y45.520 E44.70499
G1 X63.646 Y45.009 E44.76789
G1 X63.445 Y44.494 E44.83423
G1 X63.168 Y44.007 E44.90147
G1 X62.814 Y43.564 E44.96951
G1 X62.439 Y43.208 E45.03156
G0 F9000 X60.497 Y42.387
G0 X58.319 Y42.799
G0 X56.805 Y44.284
G0 X56.118 Y45.010
G1 F1800 X55.917 Y44.494 E45.09801
G1 X55.639 Y44.007 E45.16531
G1 X55.286 Y43.564 E45.23328
G1 X54.910 Y43.208 E45.29541
G1 X54.462 Y42.893 E45.36113
G1 X53.974 Y42.648 E45.42666
G1 X53.483 Y42.482 E45.48886
G1 X52.969 Y42.386 E45.55160
G1 X52.390 Y42.364 E45.62113
G1 X51.838 Y42.428 E45.68782
G1 X51.303 Y42.574 E45.75436
G1 X50.791 Y42.798 E45.82143
G1 X50.315 Y43.101 E45.88914
G1 X49.921 Y43.437 E45.95127
G1 X49.556 Y43.854 E46.01778
G1 X49.275 Y44.283 E46.07932
G1 X49.044 Y44.781 E46.14519
G1 X48.890 Y45.308 E46.21108
G1 X48.813 Y45.824 E46.27368
G1 X48.812 Y46.346 E46.33632
G1 X48.894 Y46.920 E46.40590
G1 X49.056 Y47.452 E46.47264
G1 X49.295 Y47.953 E46.53925
G1 X49.612 Y48.419 E46.60688
G1 X49.959 Y48.802 E46.66890
G1 X50.359 Y49.134 E46.73128
G1 X50.859 Y49.436 E46.80137
G1 X51.306 Y49.626 E46.85966
G1 X51.868 Y49.776 E46.92946
G1 X52.368 Y49.832 E46.98983
G1 X52.440 Y49.834 E46.99848
G1 X52.971 Y49.813 E47.06225
G1 X53.513 Y49.709 E47.12847
G1 X54.005 Y49.539 E47.19094
G1 X54.496 Y49.287 E47.25716
G1 X54.953 Y48.955 E47.32495
G1 X55.356 Y48.557 E47.39292
G1 X55.666 Y48.153 E47.45402
G1 X55.933 Y47.672 E47.52004
G1 X56.126 Y47.159 E47.58581
G1 X56.240 Y46.649 E47.64852
G1 X56.281 Y46.098 E47.71483
G1 X56.234 Y45.520 E47.78442
G1 X56.118 Y45.010 E47.84718
G0 F9000 X54.909 Y43.210
G0 X52.969 Y42.387
G0 X50.791 Y42.799
G0 X49.276 Y44.283
G0 X48.743 Y45.854
G1 F1800 X48.661 Y45.280 E47.91676
G1 X48.499 Y44.748 E47.98349
G1 X48.261 Y44.249 E48.04983
G1 X47.975 Y43.819 E48.11181
G1 X47.599 Y43.400 E48.17936
G1 X47.197 Y43.065 E48.24216
G1 X46.694 Y42.762 E48.31262
G1 X46.188 Y42.553 E48.37832
G1 X45.685 Y42.422 E48.44069
G1 X45.187 Y42.367 E48.50081
G1 X45.115 Y42.365 E48.50946
G1 X44.585 Y42.386 E48.57311
G1 X44.043 Y42.490 E48.63933
G1 X43.552 Y42.660 E48.70169
G1 X43.060 Y42.912 E48.76802
G1 X42.603 Y43.244 E48.83580
G1 X42.200 Y43.642 E48.90377
G1 X41.890 Y44.047 E48.96497
G1 X41.623 Y44.529 E49.03110
G1 X41.431 Y45.041 E49.09671
G1 X41.316 Y45.551 E49.15945
G1 X41.276 Y46.102 E49.22574
G1 X41.322 Y46.680 E49.29532
G1 X41.439 Y47.190 E49.35811
G1 X41.639 Y47.706 E49.42452
G1 X41.916 Y48.190 E49.49144
G1 X42.234 Y48.598 E49.55352
G1 X42.645 Y48.990 E49.62167
G1 X43.094 Y49.306 E49.68756
G1 X43.586 Y49.552 E49.75357
G1 X44.104 Y49.723 E49.81903
G1 X44.614 Y49.815 E49.88121
G1 X45.114 Y49.835 E49.94126
G1 X45.188 Y49.833 E49.95014
G1 X45.717 Y49.771 E50.01406
G1 X46.252 Y49.625 E50.08061
G1 X46.765 Y49.401 E50.14778
G1 X47.241 Y49.098 E50.21549
G1 X47.633 Y48.764 E50.27729
G1 X47.977 Y48.378 E50.33933
G1 X48.280 Y47.917 E50.40553
G1 X48.511 Y47.419 E50.47141
G1 X48.665 Y46.892 E50.53730
G1 X48.742 Y46.376 E50.59990
G1 X48.743 Y45.854 E50.66254
G0 F9000 X47.975 Y43.820
G0 X46.187 Y42.554
G0 X44.044 Y42.491
G0 X42.200 Y43.643
G0 X41.216 Y45.854
G1 F1800 X41.134 Y45.280 E50.73212
G1 X40.972 Y44.748 E50.79885
G1 X40.734 Y44.249 E50.86520
G1 X40.448 Y43.819 E50.92717
G1 X40.070 Y43.400 E50.99488
G1 X39.669 Y43.065 E51.05759
G1 X39.169 Y42.763 E51.12768
G1 X38.722 Y42.573 E51.18597
G1 X38.160 Y42.423 E51.25577
G1 X37.660 Y42.367 E51.31614
G1 X37.588 Y42.365 E51.32479
G1 X37.057 Y42.386 E51.38856
G1 X36.515 Y42.490 E51.45478
G1 X36.023 Y42.660 E51.51725
G1 X35.532 Y42.912 E51.58347
G1 X35.075 Y43.244 E51.65126
G1 X34.672 Y43.642 E51.71923
G1 X34.362 Y44.047 E51.78043
G1 X34.095 Y44.528 E51.84645
G1 X33.902 Y45.041 E51.91222
G1 X33.788 Y45.551 E51.97493
G1 X33.747 Y46.102 E52.04123
G1 X33.794 Y46.680 E52.11082
G1 X33.910 Y47.190 E52.17358
G1 X34.111 Y47.706 E52.24004
G1 X34.389 Y48.193 E52.30733
G1 X34.742 Y48.635 E52.37521
G1 X35.118 Y48.991 E52.43734
G1 X35.566 Y49.306 E52.50306
G1 X36.057 Y49.552 E52.56896
G1 X36.576 Y49.723 E52.63454
G1 X37.086 Y49.815 E52.69672
G1 X37.587 Y49.835 E52.75689
G1 X37.661 Y49.833 E52.76577
G1 X38.190 Y49.771 E52.82969
G1 X38.725 Y49.625 E52.89624
G1 X39.237 Y49.401 E52.96330
G1 X39.713 Y49.098 E53.03101
G1 X40.105 Y48.764 E53.09281
G1 X40.450 Y48.379 E53.15485
G1 X40.753 Y47.917 E53.22114
G1 X40.984 Y47.419 E53.28702
G1 X41.138 Y46.892 E53.35291
G1 X41.215 Y46.376 E53.41551
G1 X41.216 Y45.854 E53.47815
G0 F9000 X40.447 Y43.820
G0 X38.722 Y42.574
G0 X36.516 Y42.490
G0 X34.672 Y43.643
G0 X33.687 Y45.855
G1 F1800 X33.607 Y45.281 E53.54770
G1 X33.444 Y44.748 E53.61458
G1 X33.205 Y44.249 E53.68098
G1 X32.921 Y43.819 E53.74281
G1 X32.542 Y43.400 E53.81061
G1 X32.141 Y43.065 E53.87331
G1 X31.641 Y42.763 E53.94341
G1 X31.194 Y42.573 E54.00169
G1 X30.631 Y42.423 E54.07161
G1 X30.131 Y42.367 E54.13199
G1 X30.059 Y42.365 E54.14063
G1 X29.529 Y42.386 E54.20428
G1 X28.986 Y42.490 E54.27062
G1 X28.494 Y42.660 E54.33309
G1 X28.004 Y42.912 E54.39921
G1 X27.546 Y43.244 E54.46709
G1 X27.144 Y43.643 E54.53506
G1 X26.834 Y44.047 E54.59616
G1 X26.567 Y44.528 E54.66218
G1 X26.374 Y45.040 E54.72784
G1 X26.259 Y45.551 E54.79069
G1 X26.219 Y46.102 E54.85699
G1 X26.265 Y46.680 E54.92657
G1 X26.382 Y47.191 E54.98947
G1 X26.583 Y47.706 E55.05581
G1 X26.860 Y48.193 E55.12305
G1 X27.214 Y48.635 E55.19100
G1 X27.589 Y48.991 E55.25305
G1 X28.038 Y49.306 E55.31887
G1 X28.528 Y49.552 E55.38466
G1 X29.047 Y49.723 E55.45023
G1 X29.558 Y49.815 E55.51254
G1 X30.058 Y49.835 E55.57259
G1 X30.132 Y49.833 E55.58147
G1 X30.661 Y49.771 E55.64539
G1 X31.197 Y49.625 E55.71205
G1 X31.709 Y49.401 E55.77911
G1 X32.185 Y49.098 E55.84682
G1 X32.577 Y48.764 E55.90862
G1 X32.922 Y48.378 E55.97075
G1 X33.224 Y47.917 E56.03688
G1 X33.456 Y47.419 E56.10281
G1 X33.611 Y46.891 E56.16884
G1 X33.686 Y46.375 E56.23141
G1 X33.687 Y45.855 E56.29381
G0 F9000 X33.287 Y45.882
;TYPE:WALL-OUTER
G1 F1800 X33.215 Y45.368 E56.35609
G1 X33.070 Y44.893 E56.41569
G1 X32.856 Y44.447 E56.47505
G1 X32.604 Y44.065 E56.52997
G1 X32.264 Y43.689 E56.59080
G1 X31.908 Y43.392 E56.64643
G1 X31.458 Y43.120 E56.70953
G1 X31.063 Y42.952 E56.76104
G1 X30.557 Y42.817 E56.82389
G1 X30.102 Y42.766 E56.87883
G1 X30.060 Y42.765 E56.88387
G1 X29.575 Y42.785 E56.94212
G1 X29.089 Y42.877 E57.00147
G1 X28.652 Y43.029 E57.05700
G1 X28.214 Y43.254 E57.11609
G1 X27.805 Y43.550 E57.17667
G1 X27.445 Y43.908 E57.23759
G1 X27.169 Y44.267 E57.29193
G1 X26.931 Y44.697 E57.35091
G1 X26.758 Y45.155 E57.40966
G1 X26.656 Y45.610 E57.46562
G1 X26.620 Y46.101 E57.52469
G1 X26.662 Y46.619 E57.58706
G1 X26.765 Y47.073 E57.64292
G1 X26.945 Y47.533 E57.70220
G1 X27.192 Y47.968 E57.76223
G1 X27.509 Y48.364 E57.82310
G1 X27.843 Y48.680 E57.87827
G1 X28.244 Y48.962 E57.93710
G1 X28.681 Y49.181 E57.99576
G1 X29.146 Y49.334 E58.05450
G1 X29.602 Y49.416 E58.11010
G1 X30.059 Y49.435 E58.16498
G1 X30.101 Y49.434 E58.17003
G1 X30.585 Y49.377 E58.22851
G1 X31.064 Y49.247 E58.28807
G1 X31.520 Y49.047 E58.34782
G1 X31.947 Y48.775 E58.40857
G1 X32.297 Y48.477 E58.46373
G1 X32.604 Y48.134 E58.51897
G1 X32.873 Y47.722 E58.57802
G1 X33.081 Y47.278 E58.63685
G1 X33.219 Y46.806 E58.69586
G1 X33.286 Y46.346 E58.75165
G1 X33.287 Y45.882 E58.80733
G0 F9000 X34.148 Y46.101
G1 F1800 X34.191 Y46.619 E58.86970
G1 X34.293 Y47.073 E58.92554
G1 X34.473 Y47.533 E58.98481
G1 X34.721 Y47.968 E59.04490
G1 X35.037 Y48.364 E59.10570
G1 X35.372 Y48.680 E59.16096
G1 X35.772 Y48.962 E59.21969
G1 X36.210 Y49.181 E59.27845
G1 X36.675 Y49.334 E59.33720
G1 X37.130 Y49.416 E59.39268
G1 X37.588 Y49.435 E59.44768
G1 X37.630 Y49.434 E59.45272
G1 X38.114 Y49.377 E59.51121
G1 X38.592 Y49.247 E59.57065
G1 X39.048 Y49.047 E59.63040
G1 X39.475 Y48.775 E59.69115
G1 X39.825 Y48.477 E59.74632
G1 X40.132 Y48.134 E59.80155
G1 X40.402 Y47.722 E59.86066
G1 X40.609 Y47.278 E59.91945
G1 X40.747 Y46.806 E59.97846
G1 X40.815 Y46.346 E60.03426
G1 X40.816 Y45.882 E60.08994
G1 X40.743 Y45.367 E60.15236
G1 X40.598 Y44.893 E60.21184
G1 X40.385 Y44.447 E60.27115
G1 X40.131 Y44.065 E60.32620
G1 X39.792 Y43.689 E60.38695
G1 X39.436 Y43.392 E60.44259
G1 X38.986 Y43.120 E60.50568
G1 X38.591 Y42.952 E60.55719
G1 X38.086 Y42.817 E60.61992
G1 X37.631 Y42.766 E60.67486
G1 X37.589 Y42.765 E60.67990
G1 X37.103 Y42.785 E60.73827
G1 X36.618 Y42.877 E60.79751
G1 X36.180 Y43.029 E60.85315
G1 X35.742 Y43.254 E60.91224
G1 X35.334 Y43.550 E60.97272
G1 X34.973 Y43.907 E61.03365
G1 X34.697 Y44.267 E61.08808
G1 X34.459 Y44.697 E61.14706
G1 X34.286 Y45.156 E61.20592
G1 X34.185 Y45.610 E61.26173
G1 X34.148 Y46.101 E61.32082
G0 F9000 X33.851 Y46.080
G0 X33.910 Y47.189
G0 X35.043 Y50.291
G0 X34.743 Y50.291
G1 F1800 X26.903 Y50.291 E62.26162
G1 X25.766 Y49.154 E62.45458
G1 X25.766 Y43.045 E63.18766
G1 X26.903 Y41.908 E63.38061
G1 X63.125 Y41.908 E67.72725
G1 X64.262 Y43.045 E67.92021
G1 X64.262 Y49.154 E68.65329
G1 X63.125 Y50.291 E68.84624
G1 X55.285 Y50.291 E69.78704
G1 X55.285 Y50.921 E69.86264
G1 X56.733 Y53.429 E70.21016
G1 X56.733 Y54.138 E70.29524
G1 X33.295 Y54.138 E73.10780
G1 X33.295 Y53.429 E73.19288
G1 X34.705 Y50.985 E73.53147
G1 X34.743 Y50.922 E73.54030
G1 X34.743 Y50.291 E73.61602
G0 F9000 X35.043 Y50.291
G0 X39.237 Y49.400
G0 X41.721 Y47.641
G0 X42.001 Y47.533
G1 F1800 X42.249 Y47.967 E73.67600
G1 X42.531 Y48.329 E73.73107
G1 X42.900 Y48.680 E73.79218
G1 X43.300 Y48.962 E73.85091
G1 X43.739 Y49.181 E73.90978
G1 X44.203 Y49.334 E73.96841
G1 X44.658 Y49.416 E74.02389
G1 X45.115 Y49.435 E74.07878
G1 X45.157 Y49.434 E74.08382
G1 X45.641 Y49.377 E74.14230
G1 X46.119 Y49.247 E74.20174
G1 X46.576 Y49.047 E74.26160
G1 X47.003 Y48.775 E74.32236
G1 X47.353 Y48.477 E74.37752
G1 X47.659 Y48.134 E74.43268
G1 X47.929 Y47.722 E74.49179
G1 X48.136 Y47.278 E74.55057
G1 X48.274 Y46.806 E74.60959
G1 X48.342 Y46.346 E74.66539
G1 X48.343 Y45.882 E74.72107
G1 X48.270 Y45.367 E74.78348
G1 X48.125 Y44.893 E74.84297
G1 X47.912 Y44.447 E74.90228
G1 X47.658 Y44.065 E74.95732
G1 X47.320 Y43.689 E75.01799
G1 X46.964 Y43.392 E75.07363
G1 X46.513 Y43.120 E75.13683
G1 X46.061 Y42.933 E75.19553
G1 X45.612 Y42.817 E75.25118
G1 X45.158 Y42.766 E75.30600
G1 X45.116 Y42.765 E75.31104
G1 X44.631 Y42.785 E75.36929
G1 X44.146 Y42.877 E75.42853
G1 X43.709 Y43.029 E75.48405
G1 X43.270 Y43.254 E75.54325
G1 X42.862 Y43.550 E75.60373
G1 X42.501 Y43.907 E75.66466
G1 X42.225 Y44.267 E75.71909
G1 X41.987 Y44.697 E75.77807
G1 X41.815 Y45.156 E75.83689
G1 X41.713 Y45.610 E75.89273
G1 X41.677 Y46.101 E75.95181
G1 X41.719 Y46.619 E76.01417
G1 X41.822 Y47.073 E76.07004
G1 X42.001 Y47.533 E76.12927
G0 F9000 X41.721 Y47.641
G0 X42.645 Y48.989
G0 X44.615 Y49.814
G0 X46.765 Y49.400
G0 X48.278 Y47.917
G0 X48.913 Y46.317
G0 X49.212 Y46.318
G1 F1800 X49.285 Y46.833 E76.19169
G1 X49.430 Y47.307 E76.25117
G1 X49.643 Y47.754 E76.31059
G1 X49.927 Y48.171 E76.37113
G1 X50.236 Y48.512 E76.42635
G1 X50.592 Y48.807 E76.48183
G1 X51.042 Y49.079 E76.54493
G1 X51.437 Y49.247 E76.59644
G1 X51.942 Y49.382 E76.65917
G1 X52.397 Y49.433 E76.71411
G1 X52.439 Y49.434 E76.71915
G1 X52.925 Y49.414 E76.77752
G1 X53.410 Y49.322 E76.83676
G1 X53.848 Y49.170 E76.89239
G1 X54.286 Y48.945 E76.95148
G1 X54.694 Y48.649 E77.01197
G1 X55.055 Y48.292 E77.07289
G1 X55.331 Y47.933 E77.12723
G1 X55.569 Y47.503 E77.18621
G1 X55.742 Y47.044 E77.24507
G1 X55.843 Y46.590 E77.30089
G1 X55.880 Y46.099 E77.35997
G1 X55.837 Y45.581 E77.42235
G1 X55.735 Y45.127 E77.47818
G1 X55.555 Y44.667 E77.53746
G1 X55.307 Y44.232 E77.59755
G1 X54.991 Y43.835 E77.65844
G1 X54.656 Y43.519 E77.71370
G1 X54.256 Y43.237 E77.77243
G1 X53.819 Y43.018 E77.83109
G1 X53.382 Y42.870 E77.88645
G1 X52.924 Y42.785 E77.94235
G1 X52.405 Y42.765 E78.00468
G1 X51.914 Y42.822 E78.06399
G1 X51.436 Y42.952 E78.12343
G1 X50.980 Y43.152 E78.18319
G1 X50.553 Y43.424 E78.24394
G1 X50.202 Y43.722 E78.29919
G1 X49.875 Y44.096 E78.35881
G1 X49.626 Y44.478 E78.41353
G1 X49.419 Y44.922 E78.47231
G1 X49.281 Y45.394 E78.53132
G1 X49.213 Y45.854 E78.58712
G1 X49.212 Y46.318 E78.64280
G0 F9000 X48.913 Y46.317
G0 X49.276 Y44.283
G0 X50.791 Y42.799
G0 X52.969 Y42.387
G0 X54.909 Y43.210
G0 X56.118 Y45.011
G0 X56.442 Y46.317
G0 X56.741 Y46.318
G1 F1800 X56.813 Y46.832 E78.70509
G1 X56.958 Y47.307 E78.76468
G1 X57.172 Y47.754 E78.82415
G1 X57.454 Y48.171 E78.88456
G1 X57.764 Y48.512 E78.93986
G1 X58.120 Y48.807 E78.99534
G1 X58.570 Y49.079 E79.05844
G1 X58.965 Y49.247 E79.10995
G1 X59.471 Y49.382 E79.17279
G1 X59.926 Y49.433 E79.22774
G1 X59.968 Y49.434 E79.23278
G1 X60.453 Y49.414 E79.29103
G1 X60.939 Y49.322 E79.35038
G1 X61.376 Y49.170 E79.40590
G1 X61.814 Y48.945 E79.46499
G1 X62.223 Y48.649 E79.52558
G1 X62.583 Y48.292 E79.58642
G1 X62.859 Y47.933 E79.64076
G1 X63.097 Y47.503 E79.69974
G1 X63.270 Y47.045 E79.75849
G1 X63.372 Y46.590 E79.81444
G1 X63.408 Y46.099 E79.87352
G1 X63.366 Y45.581 E79.93588
G1 X63.263 Y45.127 E79.99175
G1 X63.083 Y44.667 E80.05102
G1 X62.836 Y44.232 E80.11105
G1 X62.519 Y43.835 E80.17202
G1 X62.185 Y43.519 E80.22719
G1 X61.784 Y43.237 E80.28602
G1 X61.347 Y43.018 E80.34467
G1 X60.911 Y42.870 E80.39993
