;FLAVOR:UltiGCode
;TIME:2345
;MATERIAL:4724
;MATERIAL2:0

;Layer count: 10
;LAYER:0
M107
G0 F9000 X25.609 Y52.884 Z0.300
;TYPE:SKIRT
G1 F1800 X26.333 Y52.644 E0.09153
G1 X27.409 Y52.472 E0.22229
G1 X28.497 Y52.536 E0.35307
G1 X29.240 Y52.703 E0.44446
G1 X30.247 Y53.108 E0.57471
G1 X31.153 Y53.723 E0.70611
G1 X31.702 Y54.250 E0.79743
G1 X32.303 Y55.040 E0.91654
G1 X32.652 Y55.699 E1.00603
G1 X32.916 Y56.456 E1.10223
G1 X32.999 Y56.786 E1.14307
G1 X33.103 Y57.407 E1.21862
G1 X33.117 Y64.154 E2.02827
G1 X33.117 Y79.994 E3.92907
G1 X35.193 Y80.001 E4.17819
G1 X42.272 Y80.001 E5.02767
G1 X42.280 Y76.879 E5.40231
G1 X42.280 Y65.955 E6.71319
G1 X42.315 Y65.344 E6.78663
G1 X42.506 Y64.389 E6.90350
G1 X42.785 Y63.615 E7.00223
G1 X43.118 Y62.962 E7.09019
G1 X43.613 Y62.266 E7.19268
G1 X43.836 Y61.993 E7.23498
G1 X44.280 Y61.549 E7.31033
G1 X44.823 Y61.112 E7.39397
G1 X45.664 Y60.611 E7.51144
G1 X46.426 Y60.302 E7.61011
G1 X47.071 Y60.129 E7.69025
G1 X47.690 Y60.032 E7.76543
G1 X48.323 Y59.996 E7.84152
G1 X49.170 Y60.043 E7.94331
G1 X49.998 Y60.173 E8.04389
G1 X50.812 Y60.391 E8.14501
G1 X51.599 Y60.693 E8.24617
G1 X52.350 Y61.076 E8.34733
G1 X53.058 Y61.536 E8.44865
G1 X53.712 Y62.066 E8.54966
G1 X54.307 Y62.661 E8.65064
G1 X54.837 Y63.315 E8.75165
G1 X55.297 Y64.023 E8.85297
G1 X55.680 Y64.774 E8.95413
G1 X55.982 Y65.561 E9.05529
G1 X56.200 Y66.375 E9.15641
G1 X56.330 Y67.203 E9.25699
G1 X56.372 Y67.959 E9.34785
G1 X56.372 Y70.767 E9.68481
G1 X56.317 Y71.379 E9.75854
G1 X56.120 Y72.124 E9.85102
G1 X55.788 Y72.820 E9.94355
G1 X55.355 Y73.433 E10.03361
G1 X54.822 Y73.962 E10.12373
G1 X54.202 Y74.397 E10.21461
G1 X53.507 Y74.720 E10.30658
G1 X52.757 Y74.918 E10.39966
G1 X52.002 Y74.975 E10.49052
G1 X51.283 Y74.910 E10.57715
G1 X50.245 Y74.653 E10.70547
G1 X50.245 Y81.008 E11.46807
G1 X50.209 Y81.660 E11.54643
G1 X50.094 Y82.385 E11.63452
G1 X49.886 Y83.163 E11.73116
G1 X49.425 Y84.228 E11.87042
G1 X48.924 Y85.038 E11.98471
G1 X48.436 Y85.638 E12.07752
G1 X47.917 Y86.157 E12.16559
G1 X47.343 Y86.624 E12.25439
G1 X46.719 Y87.028 E12.34359
G1 X46.065 Y87.359 E12.43155
G1 X45.379 Y87.624 E12.51980
G1 X44.664 Y87.815 E12.60861
G1 X43.862 Y87.942 E12.70605
G1 X40.226 Y87.966 E13.14238
G1 X32.112 Y87.966 E14.11606
G1 X31.459 Y87.930 E14.19454
G1 X30.733 Y87.815 E14.28274
G1 X29.954 Y87.607 E14.37950
G1 X28.892 Y87.146 E14.51843
G1 X28.082 Y86.646 E14.63266
G1 X27.480 Y86.157 E14.72572
G1 X26.959 Y85.636 E14.81414
G1 X26.496 Y85.064 E14.90245
G1 X26.092 Y84.443 E14.99135
G1 X25.757 Y83.782 E15.08028
G1 X25.494 Y83.096 E15.16844
G1 X25.305 Y82.389 E15.25626
G1 X25.175 Y81.582 E15.35435
G1 X25.151 Y74.112 E16.25075
G1 X25.146 Y70.421 E16.69367
G1 X25.143 Y62.739 E17.61551
G1 X25.071 Y62.709 E17.62487
G1 X24.175 Y62.087 E17.75576
G1 X23.693 Y61.618 E17.83646
G1 X23.319 Y61.170 E17.90649
G1 X22.944 Y60.606 E17.98777
G1 X22.535 Y59.694 E18.10771
G1 X22.359 Y59.047 E18.18817
G1 X22.269 Y58.468 E18.25849
G1 X22.240 Y57.876 E18.32961
G1 X22.279 Y57.282 E18.40104
G1 X22.377 Y56.712 E18.47045
G1 X22.538 Y56.148 E18.54083
G1 X22.761 Y55.598 E18.61205
G1 X23.082 Y55.007 E18.69276
G1 X23.694 Y54.209 E18.81343
G1 X24.191 Y53.749 E18.89470
G1 X24.723 Y53.349 E18.97457
G1 X25.609 Y52.884 E19.09464
G10
G0 F9000 X27.102 Y56.392
;TYPE:WALL-INNER
G11
G1 F1800 X27.237 Y56.347 E19.11172
G1 X27.598 Y56.290 E19.15558
G1 X27.970 Y56.311 E19.20029
G1 X28.102 Y56.341 E19.21653
G1 X28.452 Y56.482 E19.26181
G1 X28.753 Y56.686 E19.30545
G1 X28.855 Y56.784 E19.32242
G1 X29.092 Y57.096 E19.36944
G1 X29.157 Y57.220 E19.38624
G1 X29.275 Y57.559 E19.42931
G1 X29.304 Y57.731 E19.45024
G1 X29.317 Y64.157 E20.22137
G1 X29.317 Y80.935 E22.23473
G1 X29.331 Y81.221 E22.26909
G1 X29.378 Y81.518 E22.30517
G1 X29.456 Y81.811 E22.34155
G1 X29.709 Y82.376 E22.41584
G1 X30.045 Y82.838 E22.48439
G1 X30.271 Y83.063 E22.52266
G1 X30.516 Y83.262 E22.56054
G1 X31.011 Y83.548 E22.62914
G1 X31.308 Y83.662 E22.66731
G1 X31.598 Y83.739 E22.70332
G1 X31.911 Y83.790 E22.74138
G1 X35.181 Y83.801 E23.13378
G1 X43.213 Y83.801 E24.09762
G1 X43.500 Y83.788 E24.13209
G1 X43.799 Y83.739 E24.16845
G1 X44.090 Y83.662 E24.20457
G1 X44.386 Y83.548 E24.24264
G1 X44.895 Y83.254 E24.31317
G1 X45.343 Y82.851 E24.38548
G1 X45.688 Y82.376 E24.45593
G1 X45.941 Y81.811 E24.53022
G1 X46.019 Y81.518 E24.56660
G1 X46.069 Y81.214 E24.60357
G1 X46.080 Y76.888 E25.12270
G1 X46.080 Y66.064 E26.42158
G1 X46.094 Y65.824 E26.45043
G1 X46.176 Y65.413 E26.50072
G1 X46.277 Y65.132 E26.53655
G1 X46.377 Y64.937 E26.56285
G1 X46.658 Y64.545 E26.62072
G1 X46.820 Y64.383 E26.64822
G1 X46.996 Y64.241 E26.67535
G1 X47.362 Y64.023 E26.72647
G1 X47.637 Y63.912 E26.76206
G1 X48.094 Y63.815 E26.81812
G1 X48.327 Y63.802 E26.84613
G1 X48.765 Y63.826 E26.89877
G1 X49.207 Y63.896 E26.95247
G1 X49.641 Y64.012 E27.00637
G1 X50.049 Y64.169 E27.05883
G1 X50.449 Y64.372 E27.11266
G1 X50.820 Y64.613 E27.16575
G1 X51.169 Y64.896 E27.21967
G1 X51.477 Y65.204 E27.27194
G1 X51.760 Y65.553 E27.32586
G1 X52.001 Y65.924 E27.37895
G1 X52.204 Y66.324 E27.43277
G1 X52.361 Y66.732 E27.48523
G1 X52.477 Y67.166 E27.53914
G1 X52.547 Y67.608 E27.59284
G1 X52.572 Y70.591 E27.95081
G1 X52.560 Y70.722 E27.96660
G1 X52.537 Y70.808 E27.97728
G1 X52.498 Y70.891 E27.98829
G1 X52.444 Y70.968 E27.99957
G1 X52.371 Y71.040 E28.01188
G1 X52.298 Y71.091 E28.02256
G1 X52.199 Y71.135 E28.03556
G1 X52.207 Y68.033 E28.40781
G1 X52.188 Y67.642 E28.45478
G1 X52.124 Y67.240 E28.50363
G1 X52.018 Y66.847 E28.55247
G1 X51.873 Y66.468 E28.60117
G1 X51.688 Y66.106 E28.64995
G1 X51.467 Y65.765 E28.69871
G1 X51.212 Y65.449 E28.74744
G1 X50.924 Y65.161 E28.79632
G1 X50.608 Y64.906 E28.84504
G1 X50.267 Y64.685 E28.89381
G1 X49.905 Y64.500 E28.94259
G1 X49.526 Y64.355 E28.99128
G1 X49.133 Y64.249 E29.04013
G1 X48.731 Y64.185 E29.08898
G1 X48.323 Y64.165 E29.13800
G1 X48.081 Y64.180 E29.16709
G1 X47.818 Y64.232 E29.19926
G1 X47.400 Y64.405 E29.25355
G1 X47.180 Y64.552 E29.28530
G1 X46.992 Y64.716 E29.31524
G1 X46.830 Y64.903 E29.34493
G1 X46.695 Y65.106 E29.37418
G1 X46.587 Y65.327 E29.40370
G1 X46.507 Y65.558 E29.43303
G1 X46.455 Y65.820 E29.46509
G1 X46.445 Y70.079 E29.97617
G1 X46.445 Y80.905 E31.27529
G1 X46.426 Y81.253 E31.31711
G1 X46.372 Y81.594 E31.35854
G1 X46.287 Y81.910 E31.39781
G1 X46.047 Y82.465 E31.47037
G1 X45.820 Y82.831 E31.52205
G1 X45.607 Y83.094 E31.56266
G1 X45.373 Y83.328 E31.60237
G1 X45.107 Y83.544 E31.64349
G1 X44.817 Y83.732 E31.68497
G1 X44.522 Y83.881 E31.72462
G1 X44.201 Y84.005 E31.76592
G1 X43.873 Y84.093 E31.80667
G1 X43.548 Y84.144 E31.84615
G1 X40.212 Y84.166 E32.24648
G1 X32.214 Y84.166 E33.20624
G1 X31.865 Y84.147 E33.24818
G1 X31.524 Y84.093 E33.28961
G1 X31.205 Y84.007 E33.32926
G1 X30.659 Y83.771 E33.40063
G1 X30.285 Y83.539 E33.45345
G1 X30.024 Y83.328 E33.49372
G1 X29.791 Y83.095 E33.53326
G1 X29.573 Y82.825 E33.57491
G1 X29.387 Y82.540 E33.61575
G1 X29.236 Y82.241 E33.65594
G1 X29.115 Y81.926 E33.69643
G1 X28.974 Y81.275 E33.77637
G1 X28.951 Y74.103 E34.63701
G1 X28.941 Y59.316 E36.41145
G1 X28.173 Y59.489 E36.50592
G1 X28.150 Y59.491 E36.50869
G1 X27.751 Y59.553 E36.55714
G1 X27.577 Y59.551 E36.57803
G1 X27.396 Y59.529 E36.59991
G1 X27.242 Y59.493 E36.61888
G1 X26.899 Y59.352 E36.66339
G1 X26.597 Y59.142 E36.70753
G1 X26.371 Y58.896 E36.74761
G1 X26.281 Y58.761 E36.76708
G1 X26.124 Y58.411 E36.81311
G1 X26.082 Y58.258 E36.83215
G1 X26.054 Y58.078 E36.85401
G1 X26.046 Y57.912 E36.87396
G1 X26.058 Y57.726 E36.89632
G1 X26.135 Y57.389 E36.93781
G1 X26.278 Y57.084 E36.97823
G1 X26.512 Y56.779 E37.02436
G1 X26.631 Y56.669 E37.04381
G1 X26.760 Y56.571 E37.06325
G1 X27.102 Y56.392 E37.10957
G0 F9000 X26.942 Y56.024
;TYPE:WALL-OUTER
G1 F1800 X27.145 Y55.957 E37.13522
G1 X27.576 Y55.888 E37.18760
G1 X28.025 Y55.914 E37.24157
G1 X28.222 Y55.959 E37.26582
G1 X28.643 Y56.128 E37.32026
G1 X29.006 Y56.374 E37.37288
G1 X29.155 Y56.518 E37.39774
G1 X29.427 Y56.875 E37.45160
G1 X29.527 Y57.065 E37.47736
G1 X29.670 Y57.490 E37.53117
G1 X29.704 Y57.693 E37.55587
G1 X29.717 Y80.925 E40.34371
G1 X29.730 Y81.180 E40.37435
G1 X29.770 Y81.435 E40.40533
G1 X29.837 Y81.688 E40.43673
G1 X29.930 Y81.930 E40.46784
G1 X30.051 Y82.166 E40.49967
G1 X30.350 Y82.577 E40.56066
G1 X30.743 Y82.931 E40.62413
G1 X31.184 Y83.186 E40.68526
G1 X31.431 Y83.281 E40.71702
G1 X31.682 Y83.348 E40.74819
G1 X31.944 Y83.390 E40.78003
G1 X43.203 Y83.401 E42.13112
G1 X43.459 Y83.389 E42.16187
G1 X43.715 Y83.348 E42.19298
G1 X43.967 Y83.281 E42.22427
G1 X44.213 Y83.186 E42.25592
G1 X44.658 Y82.929 E42.31758
G1 X45.044 Y82.582 E42.37987
G1 X45.346 Y82.166 E42.44155
G1 X45.467 Y81.930 E42.47338
G1 X45.560 Y81.688 E42.50449
G1 X45.627 Y81.435 E42.53590
G1 X45.669 Y81.177 E42.56726
G1 X45.680 Y66.058 E44.38154
G1 X45.696 Y65.773 E44.41580
G1 X45.790 Y65.304 E44.47320
G1 X45.911 Y64.970 E44.51583
G1 X46.033 Y64.730 E44.54813
G1 X46.367 Y64.270 E44.61635
G1 X46.548 Y64.089 E44.64707
G1 X46.772 Y63.909 E44.68155
G1 X47.184 Y63.663 E44.73913
G1 X47.509 Y63.531 E44.78123
G1 X47.771 Y63.461 E44.81377
G1 X48.051 Y63.417 E44.84778
G1 X48.326 Y63.402 E44.88083
G1 X48.810 Y63.428 E44.93900
G1 X49.296 Y63.505 E44.99804
G1 X49.756 Y63.628 E45.05518
G1 X50.219 Y63.806 E45.11471
G1 X50.645 Y64.023 E45.17208
G1 X51.060 Y64.293 E45.23149
G1 X51.437 Y64.598 E45.28968
G1 X51.775 Y64.936 E45.34704
G1 X52.080 Y65.313 E45.40523
G1 X52.350 Y65.728 E45.46464
G1 X52.567 Y66.154 E45.52201
G1 X52.745 Y66.617 E45.58154
G1 X52.868 Y67.077 E45.63868
G1 X52.945 Y67.563 E45.69773
G1 X52.972 Y70.616 E46.06410
G1 X52.956 Y70.789 E46.08495
G1 X52.915 Y70.948 E46.10465
G1 X52.844 Y71.095 E46.12424
G1 X52.751 Y71.227 E46.14362
G1 X52.633 Y71.344 E46.16356
G1 X52.493 Y71.442 E46.18407
G1 X52.348 Y71.509 E46.20323
G1 X52.189 Y71.551 E46.22297
G1 X52.028 Y71.564 E46.24235
G1 X51.797 Y71.535 E46.27029
G1 X51.807 Y68.042 E46.68945
G1 X51.789 Y67.683 E46.73258
G1 X51.732 Y67.323 E46.77632
G1 X51.637 Y66.971 E46.82007
G1 X51.507 Y66.631 E46.86375
G1 X51.341 Y66.306 E46.90755
G1 X51.143 Y66.000 E46.95128
G1 X50.914 Y65.717 E46.99497
G1 X50.656 Y65.459 E47.03875
G1 X50.373 Y65.230 E47.08244
G1 X50.067 Y65.032 E47.12618
G1 X49.742 Y64.866 E47.16997
G1 X49.402 Y64.736 E47.21365
G1 X49.050 Y64.641 E47.25740
G1 X48.690 Y64.584 E47.30114
G1 X48.325 Y64.566 E47.34499
G1 X48.132 Y64.577 E47.36819
G1 X47.935 Y64.617 E47.39231
G1 X47.589 Y64.760 E47.43724
G1 X47.276 Y64.999 E47.48450
G1 X47.149 Y65.146 E47.50781
G1 X47.042 Y65.306 E47.53091
G1 X46.957 Y65.480 E47.55414
G1 X46.894 Y65.663 E47.57737
G1 X46.855 Y65.860 E47.60147
G1 X46.845 Y80.909 E49.40735
G1 X46.824 Y81.299 E49.45422
G1 X46.763 Y81.682 E49.50075
G1 X46.667 Y82.039 E49.54512
G1 X46.402 Y82.652 E49.62526
G1 X46.147 Y83.064 E49.68340
G1 X45.905 Y83.362 E49.72947
G1 X45.641 Y83.626 E49.77427
G1 X45.345 Y83.866 E49.82000
G1 X45.015 Y84.080 E49.86719
G1 X44.690 Y84.245 E49.91093
G1 X44.319 Y84.388 E49.95865
G1 X43.961 Y84.484 E50.00312
G1 X43.581 Y84.544 E50.04929
G1 X40.215 Y84.566 E50.45322
G1 X32.210 Y84.566 E51.41382
G1 X31.819 Y84.545 E51.46080
G1 X31.436 Y84.484 E51.50734
G1 X31.076 Y84.387 E51.55208
G1 X30.470 Y84.125 E51.63131
G1 X30.054 Y83.867 E51.69005
G1 X29.756 Y83.626 E51.73604
G1 X29.497 Y83.367 E51.78000
G1 X29.249 Y83.060 E51.82735
G1 X29.036 Y82.733 E51.87418
G1 X28.873 Y82.410 E51.91760
G1 X28.731 Y82.041 E51.96505
G1 X28.633 Y81.674 E52.01063
G1 X28.574 Y81.308 E52.05512
G1 X28.541 Y59.816 E54.63416
G1 X28.230 Y59.886 E54.67241
G1 X28.207 Y59.888 E54.67518
G1 X28.056 Y59.920 E54.69371
G1 X28.040 Y59.921 E54.69563
G1 X27.986 Y59.932 E54.70224
G1 X27.767 Y59.954 E54.72865
G1 X27.551 Y59.950 E54.75458
G1 X27.325 Y59.923 E54.78189
G1 X27.118 Y59.875 E54.80739
G1 X26.707 Y59.706 E54.86072
G1 X26.342 Y59.452 E54.91408
G1 X26.195 Y59.310 E54.93861
G1 X26.050 Y59.136 E54.96579
G1 X25.928 Y58.952 E54.99228
G1 X25.746 Y58.547 E55.04556
G1 X25.691 Y58.344 E55.07080
G1 X25.656 Y58.120 E55.09800
G1 X25.646 Y57.905 E55.12383
G1 X25.661 Y57.678 E55.15113
G1 X25.698 Y57.466 E55.17696
G1 X25.757 Y57.255 E55.20325
G1 X25.838 Y57.056 E55.22903
G1 X25.941 Y56.867 E55.25486
G1 X26.217 Y56.507 E55.30929
G1 X26.545 Y56.232 E55.36066
G1 X26.942 Y56.024 E55.41444
G0 F9000 X27.340 Y56.473
;TYPE:SKIN
G1 F1800 X29.165 Y58.298 E55.72415
G0 F9000 X29.165 Y58.863
G1 F1800 X26.937 Y56.636 E56.10217
G0 F9000 X26.612 Y56.876
G1 F1800 X28.913 Y59.177 E56.49266
G0 F9000 X28.451 Y59.281
G1 F1800 X26.375 Y57.204 E56.84506
G0 F9000 X26.225 Y57.620
G1 F1800 X27.979 Y59.375 E57.14281
G0 F9000 X27.428 Y59.389
G1 F1800 X26.210 Y58.171 E57.34951
G0 F9000 X27.879 Y56.446
G1 F1800 X29.163 Y57.730 E57.56741
;LAYER:1
M106 S255
G0 F9000 X29.470 Y57.720 Z0.500
;TYPE:WALL-INNER
G1 F2040 X29.483 Y80.933 E59.42445
G1 X29.496 Y81.219 E59.44735
G1 X29.611 Y81.761 E59.49168
G1 X29.843 Y82.280 E59.53716
G1 X30.177 Y82.740 E59.58264
G1 X30.599 Y83.120 E59.62807
G1 X31.078 Y83.397 E59.67233
G1 X31.373 Y83.510 E59.69760
G1 X31.912 Y83.626 E59.74171
G1 X35.700 Y83.637 E60.04475
G1 X43.213 Y83.636 E60.64579
G1 X43.498 Y83.623 E60.66862
G1 X44.024 Y83.510 E60.71166
G1 X44.305 Y83.403 E60.73571
G1 X44.558 Y83.273 E60.75847
G1 X44.796 Y83.118 E60.78119
G1 X45.029 Y82.930 E60.80514
G1 X45.399 Y82.519 E60.84938
G1 X45.676 Y82.040 E60.89365
G1 X45.789 Y81.745 E60.91892
G1 X45.905 Y81.207 E60.96295
G1 X45.916 Y76.186 E61.36463
G1 X45.915 Y66.064 E62.17439
G1 X45.929 Y65.812 E62.19458
G1 X46.016 Y65.375 E62.23023
G1 X46.128 Y65.062 E62.25682
G1 X46.238 Y64.845 E62.27628
G1 X46.539 Y64.431 E62.31723
G1 X46.908 Y64.100 E62.35689
G1 X47.124 Y63.959 E62.37753
G1 X47.346 Y63.846 E62.39745
G1 X47.573 Y63.759 E62.41690
G1 X47.998 Y63.663 E62.45176
G1 X48.330 Y63.638 E62.47839
G1 X48.783 Y63.662 E62.51468
G1 X49.242 Y63.734 E62.55185
G1 X49.693 Y63.855 E62.58921
G1 X50.116 Y64.018 E62.62547
G1 X50.532 Y64.230 E62.66283
G1 X50.917 Y64.479 E62.69951
G1 X51.279 Y64.773 E62.73682
G1 X51.600 Y65.094 E62.77313
G1 X51.894 Y65.456 E62.81044
G1 X52.143 Y65.841 E62.84712
G1 X52.355 Y66.257 E62.88447
G1 X52.518 Y66.680 E62.92074
G1 X52.639 Y67.131 E62.95809
G1 X52.711 Y67.590 E62.99526
G1 X52.737 Y70.594 E63.23559
G1 X52.724 Y70.746 E63.24780
G1 X52.692 Y70.866 E63.25773
G1 X52.637 Y70.983 E63.26807
G1 X52.573 Y71.075 E63.27704
G1 X52.479 Y71.168 E63.28762
G1 X52.384 Y71.234 E63.29687
G1 X52.268 Y71.288 E63.30711
G1 X52.151 Y71.318 E63.31677
G1 X52.037 Y71.328 E63.32593
G1 X52.042 Y68.033 E63.58953
G1 X52.024 Y67.658 E63.61956
G1 X51.962 Y67.274 E63.65068
G1 X51.862 Y66.899 E63.68173
G1 X51.722 Y66.535 E63.71293
G1 X51.545 Y66.188 E63.74409
G1 X51.333 Y65.862 E63.77520
G1 X51.080 Y65.550 E63.80734
G1 X50.611 Y65.119 E63.85829
G1 X50.191 Y64.831 E63.89903
G1 X49.838 Y64.651 E63.93073
G1 X49.474 Y64.511 E63.96193
G1 X49.099 Y64.411 E63.99298
G1 X48.716 Y64.350 E64.02401
G1 X48.321 Y64.329 E64.05565
G1 X48.080 Y64.345 E64.07497
G1 X47.667 Y64.456 E64.10919
G1 X47.295 Y64.671 E64.14356
G1 X47.110 Y64.832 E64.16318
G1 X46.948 Y65.017 E64.18285
G1 X46.734 Y65.390 E64.21725
G1 X46.619 Y65.822 E64.25302
G1 X46.609 Y70.781 E64.64974
G1 X46.610 Y80.905 E65.45966
G1 X46.590 Y81.272 E65.48906
G1 X46.533 Y81.634 E65.51838
G1 X46.442 Y81.971 E65.54630
G1 X46.319 Y82.294 E65.57395
G1 X46.007 Y82.850 E65.62496
G1 X45.730 Y83.204 E65.66092
G1 X45.483 Y83.451 E65.68886
G1 X45.202 Y83.679 E65.71781
G1 X44.905 Y83.872 E65.74615
G1 X44.582 Y84.036 E65.77513
G1 X44.250 Y84.163 E65.80356
G1 X43.913 Y84.254 E65.83149
G1 X43.567 Y84.308 E65.85951
G1 X39.694 Y84.330 E66.16935
G1 X32.214 Y84.331 E66.76775
G1 X31.846 Y84.311 E66.79723
G1 X31.484 Y84.254 E66.82655
G1 X31.147 Y84.163 E66.85448
G1 X30.824 Y84.040 E66.88213
G1 X30.268 Y83.728 E66.93313
G1 X29.914 Y83.451 E66.96909
G1 X29.667 Y83.204 E66.99704
G1 X29.439 Y82.923 E67.02598
G1 X29.246 Y82.626 E67.05432
G1 X29.082 Y82.303 E67.08330
G1 X28.956 Y81.976 E67.11134
G1 X28.865 Y81.631 E67.13988
G1 X28.810 Y81.287 E67.16775
G1 X28.781 Y66.844 E68.32319
G1 X28.779 Y59.550 E68.90671
G1 X28.043 Y59.692 E68.96668
G1 X27.767 Y59.717 E68.98885
G1 X27.364 Y59.693 E69.02114
G1 X27.197 Y59.654 E69.03486
