;FLAVOR:UltiGCode
;TIME:9386
;MATERIAL:19551
;MATERIAL2:0

;Layer count: 215
;LAYER:0
M107
G0 F9000 X98.525 Y27.339 Z0.300
;TYPE:SKIRT
G1 F1800 X137.246 Y27.339 E4.64652
G1 X137.246 Y43.879 E6.63132
G1 X127.031 Y43.879 E7.85712
G1 X127.031 Y46.279 E8.14512
G1 X112.420 Y46.288 E9.89844
G1 X108.740 Y46.288 E10.34004
G1 X108.740 Y43.879 E10.62912
G1 X98.525 Y43.879 E11.85492
G1 X98.525 Y27.339 E13.83972
G0 F9000 X98.925 Y27.739
G1 F1800 X136.846 Y27.739 E18.39024
G1 X136.846 Y43.479 E20.27904
G1 X126.631 Y43.479 E21.50484
G1 X126.631 Y45.879 E21.79284
G1 X112.420 Y45.888 E23.49816
G1 X109.140 Y45.888 E23.89176
G1 X109.140 Y43.479 E24.18084
G1 X98.925 Y43.479 E25.40664
G1 X98.925 Y27.739 E27.29544
G10
G0 F9000 X113.874 Y39.712
;TYPE:WALL-INNER
G11
G1 F1800 X121.896 Y39.712 E28.25808
G1 X121.896 Y40.837 E28.39308
G1 X122.831 Y42.004 E28.57252
G1 X122.831 Y42.081 E28.58176
G1 X112.940 Y42.088 E29.76868
G1 X112.940 Y42.011 E29.77792
G1 X113.739 Y41.006 E29.93199
G1 X113.874 Y40.832 E29.95842
G1 X113.874 Y39.712 E30.09282
G0 F9000 X113.474 Y40.695
;TYPE:WALL-OUTER
G1 F1800 X113.474 Y40.079 E30.16674
G1 X102.325 Y40.079 E31.50462
G1 X102.325 Y31.139 E32.57742
G1 X133.446 Y31.139 E36.31194
G1 X133.446 Y40.079 E37.38474
G1 X122.296 Y40.079 E38.72274
G1 X122.296 Y40.696 E38.79678
G1 X123.231 Y41.864 E38.97632
G1 X123.231 Y42.481 E39.05036
G1 X112.540 Y42.488 E40.33328
G1 X112.540 Y41.871 E40.40732
G1 X113.424 Y40.759 E40.57779
G1 X113.474 Y40.695 E40.58753
G0 F9000 X113.708 Y40.880
G0 X113.815 Y39.738
G0 X102.750 Y39.653
G0 X102.791 Y39.312
G0 X103.091 Y39.312
G1 F1800 X132.674 Y39.312 E44.13749
G1 X132.674 Y31.906 E45.02621
G1 X103.091 Y31.907 E48.57617
G1 X103.091 Y39.312 E49.46477
G0 F9000 X103.152 Y39.512
;TYPE:SKIN
G1 F1800 X103.617 Y39.695 E49.52684
G1 X104.183 Y39.695 E49.58881
G1 X104.749 Y39.695 E49.65079
G1 X105.314 Y39.695 E49.71283
G1 X105.880 Y39.695 E49.77497
G1 X106.446 Y39.695 E49.83695
G1 X107.011 Y39.695 E49.89899
G1 X107.577 Y39.695 E49.96114
G1 X108.143 Y39.695 E50.02311
G1 X108.708 Y39.695 E50.08515
G1 X109.274 Y39.695 E50.14730
G1 X109.840 Y39.695 E50.20927
G1 X110.405 Y39.695 E50.27131
G1 X110.971 Y39.695 E50.33346
G1 X111.537 Y39.695 E50.39543
G1 X112.102 Y39.695 E50.45747
G1 X112.668 Y39.695 E50.51962
G1 X113.234 Y39.695 E50.58160
G1 X113.693 Y39.871 E50.64059
G0 F9000 X114.240 Y39.852
G1 F1800 X116.332 Y41.944 E50.99561
G0 F9000 X115.767 Y41.945
G1 F1800 X114.013 Y40.191 E51.29327
G0 F9000 X114.013 Y40.756
G1 F1800 X115.201 Y41.945 E51.49497
G0 F9000 X114.636 Y41.946
G1 F1800 X113.817 Y41.126 E51.63404
G0 F9000 X113.567 Y41.442
G1 F1800 X113.788 Y41.946 E51.71940
G1 X113.318 Y41.758 E51.78014
G0 F9000 X114.805 Y39.852
G1 F1800 X116.898 Y41.944 E52.13525
G0 F9000 X117.463 Y41.944
G1 F1800 X115.371 Y39.852 E52.49028
G0 F9000 X115.937 Y39.852
G1 F1800 X118.028 Y41.943 E52.84513
G0 F9000 X118.593 Y41.943
G1 F1800 X116.502 Y39.852 E53.19998
G0 F9000 X117.068 Y39.852
G1 F1800 X119.158 Y41.942 E53.55467
G0 F9000 X119.724 Y41.942
G1 F1800 X117.634 Y39.852 E53.90935
G0 F9000 X118.199 Y39.852
G1 F1800 X120.289 Y41.942 E54.26404
G0 F9000 X120.854 Y41.941
G1 F1800 X118.765 Y39.852 E54.61855
G0 F9000 X119.331 Y39.852
G1 F1800 X121.420 Y41.941 E54.97307
G0 F9000 X121.985 Y41.940
G1 F1800 X119.897 Y39.852 E55.32741
G0 F9000 X102.750 Y39.653
G0 X102.750 Y31.566
G0 X119.670 Y31.705
G1 F1800 X119.203 Y31.521 E55.38976
G1 X118.637 Y31.521 E55.45190
G1 X118.071 Y31.521 E55.51405
G1 X117.506 Y31.522 E55.57626
G1 X116.941 Y31.522 E55.63863
G1 X116.375 Y31.522 E55.70095
G1 X115.809 Y31.522 E55.76326
G1 X115.244 Y31.522 E55.82547
G1 X114.678 Y31.522 E55.88779
G1 X114.112 Y31.522 E55.95010
G1 X113.547 Y31.522 E56.01231
G1 X112.981 Y31.522 E56.07463
G1 X112.415 Y31.522 E56.13694
G1 X111.850 Y31.522 E56.19915
G1 X111.284 Y31.522 E56.26147
G1 X110.718 Y31.522 E56.32378
G1 X110.153 Y31.522 E56.38599
G1 X109.587 Y31.522 E56.44831
G1 X109.021 Y31.522 E56.51062
G1 X108.456 Y31.522 E56.57283
G1 X107.890 Y31.522 E56.63515
G1 X107.324 Y31.522 E56.69746
G1 X106.758 Y31.522 E56.75978
G1 X106.193 Y31.522 E56.82199
G1 X105.627 Y31.522 E56.88430
G1 X105.061 Y31.522 E56.94662
G1 X104.496 Y31.522 E57.00883
G1 X103.930 Y31.522 E57.07114
G1 X103.364 Y31.522 E57.13346
G1 X102.711 Y31.434 E57.19573
G1 X102.707 Y31.996 E57.25760
G1 X102.707 Y32.561 E57.31964
G1 X102.707 Y33.127 E57.38179
G1 X102.707 Y33.693 E57.44376
G1 X102.707 Y34.259 E57.50574
G1 X102.707 Y34.824 E57.56778
G1 X102.707 Y35.390 E57.62975
G1 X102.707 Y35.956 E57.69173
G1 X102.707 Y36.521 E57.75377
G1 X102.707 Y37.087 E57.81592
G1 X102.707 Y37.653 E57.87789
G1 X102.707 Y38.218 E57.93993
G1 X102.707 Y38.784 E58.00208
G1 X102.707 Y39.350 E58.06405
G1 X102.952 Y39.878 E58.13390
G0 F9000 X102.750 Y39.653
G0 X102.750 Y31.566
G0 X119.868 Y31.439
G0 X119.868 Y31.338
G1 F1800 X120.334 Y31.521 E58.19623
G1 X120.900 Y31.521 E58.25838
G1 X121.466 Y31.521 E58.32053
G1 X122.031 Y31.521 E58.38273
G1 X122.597 Y31.521 E58.44488
G1 X123.163 Y31.521 E58.50703
G1 X123.728 Y31.521 E58.56923
G1 X124.294 Y31.521 E58.63138
G1 X124.860 Y31.521 E58.69353
G1 X125.425 Y31.521 E58.75573
G1 X125.991 Y31.521 E58.81788
G1 X126.557 Y31.521 E58.88003
G1 X127.122 Y31.521 E58.94223
G1 X127.688 Y31.521 E59.00438
G1 X128.254 Y31.521 E59.06653
G1 X128.820 Y31.521 E59.12867
G1 X129.385 Y31.521 E59.19088
G1 X129.951 Y31.521 E59.25303
G1 X130.517 Y31.521 E59.31517
G1 X131.082 Y31.521 E59.37738
G1 X131.648 Y31.521 E59.43953
G1 X132.214 Y31.521 E59.50167
G1 X132.776 Y31.801 E59.56402
G1 X133.059 Y32.366 E59.62715
G1 X133.059 Y32.932 E59.69015
G1 X133.059 Y33.498 E59.75314
G1 X133.059 Y34.064 E59.81614
G1 X133.059 Y34.629 E59.87919
G1 X133.059 Y35.195 E59.94219
G1 X133.059 Y35.761 E60.00518
G1 X133.059 Y36.326 E60.06824
G1 X133.059 Y36.892 E60.13123
G1 X133.059 Y37.458 E60.19423
G1 X133.059 Y38.023 E60.25728
G1 X133.059 Y38.589 E60.32028
G1 X133.059 Y39.155 E60.38328
G1 X133.089 Y39.751 E60.44647
G1 X132.467 Y39.695 E60.50849
G1 X131.901 Y39.695 E60.57063
G1 X131.336 Y39.695 E60.63267
G1 X130.770 Y39.695 E60.69465
G1 X130.204 Y39.695 E60.75679
G1 X129.639 Y39.695 E60.81883
G1 X129.073 Y39.695 E60.88081
G1 X128.507 Y39.695 E60.94295
G1 X127.942 Y39.695 E61.00499
G1 X127.376 Y39.695 E61.06697
G1 X126.810 Y39.695 E61.12912
G1 X126.245 Y39.695 E61.19115
G1 X125.679 Y39.695 E61.25313
G1 X125.113 Y39.695 E61.31528
G1 X124.548 Y39.695 E61.37731
G1 X123.982 Y39.695 E61.43929
G1 X123.416 Y39.695 E61.50127
G1 X122.851 Y39.695 E61.56330
G1 X122.229 Y39.639 E61.62532
G1 X121.970 Y39.945 E61.64408
G1 X121.594 Y39.852 E61.69056
G0 F9000 X121.028 Y39.852
G1 F1800 X121.755 Y40.579 E61.81394
G0 F9000 X120.462 Y39.852
G1 F1800 X122.526 Y41.915 E62.16412
G0 F9000 X121.908 Y40.832
G0 X121.955 Y39.738
G0 X102.750 Y39.653
G0 X102.750 Y31.566
G0 X132.879 Y31.439
G0 X132.879 Y31.338
G1 F1800 X133.245 Y31.705 E62.22632
;LAYER:1
M106 S255
G0 F9000 X133.015 Y39.653 Z0.500
G0 X121.896 Y39.712
;TYPE:WALL-INNER
G1 F2040 X121.896 Y40.837 E62.31632
G1 X122.831 Y42.005 E62.43601
G1 X122.831 Y42.088 E62.44265
G1 X112.940 Y42.088 E63.23393
G1 X112.940 Y42.005 E63.24057
G1 X113.729 Y41.018 E63.34166
G1 X113.874 Y40.841 E63.35997
G1 X113.874 Y39.712 E63.45029
G1 X121.896 Y39.712 E64.09205
G0 F9000 X122.296 Y40.696
;TYPE:WALL-OUTER
G1 F1920 X123.231 Y41.864 E64.21174
G1 X123.231 Y42.488 E64.26166
G1 X112.540 Y42.488 E65.11694
G1 X112.540 Y41.864 E65.16686
G1 X113.414 Y40.770 E65.27888
G1 X113.474 Y40.698 E65.28637
G1 X113.474 Y40.079 E65.33589
G1 X102.325 Y40.079 E66.22781
G1 X102.325 Y31.139 E66.94301
G1 X133.446 Y31.139 E69.43269
G1 X133.446 Y40.079 E70.14789
G1 X122.296 Y40.079 E71.03989
G1 X122.296 Y40.696 E71.08925
G0 F9000 X121.996 Y40.696
G0 X121.955 Y39.738
G0 X132.674 Y39.612
G0 X132.674 Y39.312
G1 F1920 X132.674 Y31.906 E71.68173
G1 X103.091 Y31.907 E74.04837
G1 X103.091 Y39.312 E74.64077
G1 X132.674 Y39.312 E77.00741
G0 F9000 X132.739 Y39.511
;TYPE:SKIN
G1 F1740 X132.272 Y39.694 E77.04895
G1 X131.707 Y39.694 E77.09042
G1 X131.141 Y39.694 E77.13185
G1 X130.575 Y39.694 E77.17328
G1 X130.010 Y39.694 E77.21475
G1 X129.444 Y39.694 E77.25618
G1 X128.878 Y39.694 E77.29761
G1 X128.313 Y39.694 E77.33908
G1 X127.747 Y39.694 E77.38051
G1 X127.181 Y39.694 E77.42195
G1 X126.615 Y39.694 E77.46338
G1 X126.050 Y39.694 E77.50485
G1 X125.484 Y39.694 E77.54628
G1 X124.918 Y39.694 E77.58771
G1 X124.353 Y39.694 E77.62918
G1 X123.787 Y39.694 E77.67061
G1 X123.221 Y39.694 E77.71204
G1 X122.656 Y39.694 E77.75351
G1 X122.190 Y39.878 E77.79360
G0 F9000 X121.651 Y39.851
G1 F1740 X119.554 Y41.948 E78.03084
G0 F9000 X118.989 Y41.948
G1 F1740 X121.085 Y39.851 E78.26804
G0 F9000 X120.519 Y39.851
G1 F1740 X118.423 Y41.948 E78.50523
G0 F9000 X117.857 Y41.948
G1 F1740 X119.954 Y39.851 E78.74248
G0 F9000 X119.388 Y39.851
G1 F1740 X117.292 Y41.948 E78.97967
G0 F9000 X116.726 Y41.948
G1 F1740 X118.822 Y39.851 E79.21686
G0 F9000 X118.257 Y39.851
G1 F1740 X116.160 Y41.948 E79.45411
G0 F9000 X115.594 Y41.948
G1 F1740 X117.691 Y39.851 E79.69136
G0 F9000 X117.125 Y39.851
G1 F1740 X115.029 Y41.948 E79.92855
G0 F9000 X114.463 Y41.948
G1 F1740 X116.560 Y39.851 E80.16580
G0 F9000 X115.994 Y39.851
G1 F1740 X113.897 Y41.948 E80.40305
G0 F9000 X113.332 Y41.948
G1 F1740 X115.428 Y39.851 E80.64024
G0 F9000 X114.863 Y39.851
G1 F1740 X114.013 Y40.701 E80.73640
G0 F9000 X114.013 Y40.136
G1 F1740 X114.297 Y39.851 E80.76859
G0 F9000 X113.505 Y39.512
G1 F1740 X113.039 Y39.695 E80.80995
G1 X112.473 Y39.695 E80.85126
G1 X111.907 Y39.695 E80.89269
G1 X111.342 Y39.695 E80.93405
G1 X110.776 Y39.695 E80.97537
G1 X110.210 Y39.695 E81.01680
G1 X109.645 Y39.695 E81.05816
G1 X109.079 Y39.695 E81.09948
G1 X108.513 Y39.695 E81.14091
G1 X107.948 Y39.695 E81.18227
G1 X107.382 Y39.695 E81.22358
G1 X106.816 Y39.695 E81.26490
G1 X106.250 Y39.695 E81.30633
G1 X105.685 Y39.695 E81.34769
G1 X105.119 Y39.695 E81.38901
G1 X104.553 Y39.695 E81.43044
G1 X103.988 Y39.695 E81.47180
G1 X103.422 Y39.695 E81.51312
G1 X102.740 Y39.811 E81.55449
G1 X102.707 Y39.279 E81.59574
G1 X102.707 Y38.713 E81.63706
G1 X102.707 Y38.148 E81.67831
G1 X102.707 Y37.582 E81.71962
G1 X102.707 Y37.016 E81.76094
G1 X102.707 Y36.450 E81.80215
G1 X102.707 Y35.885 E81.84339
G1 X102.707 Y35.319 E81.88471
G1 X102.707 Y34.753 E81.92591
G1 X102.707 Y34.188 E81.96716
G1 X102.707 Y33.622 E82.00848
G1 X102.707 Y33.056 E82.04979
G1 X102.707 Y32.491 E82.09104
G1 X102.707 Y31.925 E82.13236
G1 X103.109 Y31.522 E82.18734
G1 X103.675 Y31.522 E82.22900
G1 X104.240 Y31.522 E82.27059
G1 X104.806 Y31.522 E82.31224
G1 X105.372 Y31.522 E82.35390
G1 X105.938 Y31.522 E82.39556
G1 X106.503 Y31.522 E82.43714
G1 X107.069 Y31.522 E82.47880
G1 X107.635 Y31.522 E82.52046
G1 X108.200 Y31.522 E82.56204
G1 X108.766 Y31.522 E82.60370
G1 X109.332 Y31.522 E82.64536
G1 X109.897 Y31.522 E82.68694
G1 X110.463 Y31.522 E82.72860
G1 X111.029 Y31.522 E82.77026
G1 X111.594 Y31.522 E82.81184
G1 X112.160 Y31.522 E82.85350
G1 X112.726 Y31.522 E82.89516
G1 X113.291 Y31.522 E82.93674
G1 X113.857 Y31.522 E82.97840
G1 X114.423 Y31.522 E83.02006
G1 X114.988 Y31.522 E83.06164
G1 X115.554 Y31.522 E83.10330
G1 X116.120 Y31.522 E83.14495
G1 X116.686 Y31.522 E83.18661
G1 X117.251 Y31.522 E83.22820
G1 X117.818 Y31.522 E83.26981
G1 X118.383 Y31.522 E83.31128
G1 X118.949 Y31.522 E83.35283
G1 X119.515 Y31.522 E83.39437
G1 X120.080 Y31.522 E83.43584
G1 X120.646 Y31.522 E83.47739
G1 X121.212 Y31.522 E83.51893
G1 X121.777 Y31.522 E83.56040
G1 X122.343 Y31.522 E83.60195
G1 X122.909 Y31.522 E83.64349
G1 X123.474 Y31.522 E83.68496
G1 X124.040 Y31.522 E83.72651
G1 X124.606 Y31.522 E83.76805
G1 X125.172 Y31.522 E83.80960
G1 X125.737 Y31.522 E83.85107
G1 X126.303 Y31.522 E83.89261
G1 X126.869 Y31.522 E83.93416
G1 X127.434 Y31.522 E83.97563
G1 X128.000 Y31.522 E84.01717
G1 X128.566 Y31.522 E84.05872
G1 X129.131 Y31.522 E84.10019
G1 X129.697 Y31.522 E84.14173
G1 X130.263 Y31.522 E84.18328
G1 X130.828 Y31.522 E84.22475
G1 X131.394 Y31.522 E84.26629
G1 X131.960 Y31.522 E84.30784
G1 X132.525 Y31.522 E84.34931
G1 X133.118 Y31.495 E84.39086
G1 X133.059 Y32.120 E84.43292
G1 X133.059 Y32.686 E84.47492
G1 X133.059 Y33.252 E84.51692
G1 X133.059 Y33.817 E84.55895
G1 X133.059 Y34.383 E84.60095
G1 X133.059 Y34.949 E84.64295
G1 X133.059 Y35.515 E84.68494
G1 X133.059 Y36.080 E84.72687
G1 X133.059 Y36.646 E84.76886
G1 X133.059 Y37.212 E84.81086
G1 X133.059 Y37.777 E84.85290
G1 X133.059 Y38.343 E84.89489
G1 X133.059 Y38.909 E84.93689
G1 X133.059 Y39.474 E84.97893
G1 X132.938 Y39.878 E85.01267
G0 F9000 X121.955 Y39.738
G0 X121.908 Y40.832
G0 X122.506 Y41.825
G1 F1740 X122.319 Y41.729 E85.02650
G1 X121.817 Y41.948 E85.07031
G0 F9000 X121.251 Y41.948
G1 F1740 X122.003 Y41.196 E85.15539
G0 F9000 X121.755 Y40.879
G1 F1740 X120.686 Y41.948 E85.27634
G0 F9000 X120.120 Y41.948
G1 F1740 X121.755 Y40.313 E85.46131
;LAYER:2
G0 F9000 X121.896 Y40.837 Z0.700
;TYPE:WALL-INNER
G1 F2400 X122.831 Y42.004 E85.58094
G1 X122.831 Y42.088 E85.58766
G1 X112.940 Y42.088 E86.37894
G1 X112.940 Y42.005 E86.38558
G1 X113.874 Y40.836 E86.50529
G1 X113.874 Y39.712 E86.59521
G1 X121.896 Y39.712 E87.23697
G1 X121.896 Y40.837 E87.32697
G0 F9000 X122.296 Y40.696
;TYPE:WALL-OUTER
G1 F2100 X123.231 Y41.864 E87.44666
G1 X123.231 Y42.488 E87.49658
G1 X112.540 Y42.488 E88.35186
G1 X112.540 Y41.864 E88.40178
G1 X113.474 Y40.696 E88.52142
G1 X113.474 Y40.079 E88.57078
G1 X102.325 Y40.079 E89.46270
G1 X102.325 Y31.139 E90.17790
G1 X133.446 Y31.139 E92.66758
G1 X133.446 Y40.079 E93.38278
G1 X122.296 Y40.079 E94.27478
G1 X122.296 Y40.696 E94.32414
G0 F9000 X121.996 Y40.696
G0 X121.955 Y39.738
G0 X132.674 Y39.612
G0 X132.674 Y39.312
G1 F2100 X132.674 Y31.906 E94.91662
G1 X103.091 Y31.907 E97.28326
G1 X103.091 Y39.312 E97.87566
G1 X132.674 Y39.312 E100.24230
G0 F9000 X132.873 Y39.252
;TYPE:SKIN
G1 F1800 X133.089 Y39.751 E100.28439
G1 X132.467 Y39.695 E100.32573
G1 X131.901 Y39.695 E100.36716
G1 X131.336 Y39.695 E100.40852
G1 X130.770 Y39.695 E100.44984
G1 X130.204 Y39.695 E100.49127
G1 X129.639 Y39.695 E100.53263
G1 X129.073 Y39.695 E100.57394
G1 X128.507 Y39.695 E100.61537
G1 X127.942 Y39.695 E100.65673
G1 X127.376 Y39.695 E100.69805
G1 X126.810 Y39.695 E100.73948
G1 X126.245 Y39.695 E100.78084
G1 X125.679 Y39.695 E100.82216
G1 X125.113 Y39.695 E100.86359
G1 X124.548 Y39.695 E100.90495
G1 X123.982 Y39.695 E100.94627
G1 X123.416 Y39.695 E100.98758
G1 X122.851 Y39.695 E101.02894
G1 X122.229 Y39.639 E101.07028
G1 X121.970 Y39.945 E101.08279
G1 X121.594 Y39.852 E101.11378
G0 F9000 X121.028 Y39.852
G1 F1800 X121.755 Y40.579 E101.19603
G0 F9000 X121.992 Y41.947
G1 F1800 X119.897 Y39.852 E101.43305
G0 F9000 X119.331 Y39.852
G1 F1800 X121.426 Y41.947 E101.67007
G0 F9000 X120.860 Y41.947
G1 F1800 X118.765 Y39.852 E101.90710
G0 F9000 X118.199 Y39.852
G1 F1800 X120.295 Y41.947 E102.14417
G0 F9000 X120.462 Y39.852
G1 F1800 X122.531 Y41.921 E102.37826
G0 F9000 X119.729 Y41.947
G1 F1800 X117.634 Y39.852 E102.61528
G0 F9000 X117.068 Y39.852
G1 F1800 X119.163 Y41.947 E102.85230
G0 F9000 X118.598 Y41.947
G1 F1800 X116.502 Y39.852 E103.08938
G0 F9000 X115.937 Y39.852
G1 F1800 X118.032 Y41.947 E103.32640
G0 F9000 X117.466 Y41.947
G1 F1800 X115.371 Y39.852 E103.56342
G0 F9000 X114.805 Y39.852
G1 F1800 X116.901 Y41.947 E103.80050
G0 F9000 X116.335 Y41.947
G1 F1800 X114.240 Y39.852 E104.03752
G0 F9000 X113.693 Y39.871
G1 F1800 X113.234 Y39.695 E104.07813
G1 X112.668 Y39.695 E104.11945
G1 X112.102 Y39.695 E104.16088
G1 X111.537 Y39.695 E104.20224
G1 X110.971 Y39.695 E104.24355
G1 X110.405 Y39.695 E104.28499
G1 X109.840 Y39.695 E104.32634
G1 X109.274 Y39.695 E104.36766
G1 X108.708 Y39.695 E104.40909
G1 X108.143 Y39.695 E104.45045
G1 X107.577 Y39.695 E104.49177
G1 X107.011 Y39.695 E104.53320
G1 X106.446 Y39.695 E104.57456
G1 X105.880 Y39.695 E104.61588
G1 X105.314 Y39.695 E104.65731
G1 X104.749 Y39.695 E104.69866
G1 X104.183 Y39.695 E104.73998
G1 X103.617 Y39.695 E104.78130
G1 X103.021 Y39.381 E104.82266
G1 X102.707 Y38.784 E104.86395
G1 X102.707 Y38.218 E104.90538
G1 X102.707 Y37.653 E104.94673
G1 X102.707 Y37.087 E104.98805
G1 X102.707 Y36.521 E105.02948
G1 X102.707 Y35.956 E105.07084
