;FLAVOR:UltiGCode
;TIME:4439
;MATERIAL:7670
;MATERIAL2:0

;Layer count: 16
;LAYER:0
M107
G0 F9000 X48.219 Y62.433 Z0.300
;TYPE:SKIRT
G1 F1200 X48.831 Y62.009 E0.08934
G1 X49.670 Y61.517 E0.20606
G1 X50.614 Y61.075 E0.33114
G1 X51.558 Y60.732 E0.45167
G1 X52.564 Y60.470 E0.57641
G1 X53.552 Y60.301 E0.69669
G1 X54.515 Y60.232 E0.81255
G1 X54.978 Y60.220 E0.86813
G1 X56.249 Y60.297 E1.02093
G1 X57.251 Y60.471 E1.14297
G1 X58.260 Y60.730 E1.26797
G1 X59.201 Y61.077 E1.38833
G1 X60.148 Y61.516 E1.51358
G1 X61.011 Y62.027 E1.63394
G1 X61.864 Y62.632 E1.75943
G1 X62.565 Y63.244 E1.87110
G1 X62.886 Y63.552 E1.92448
G1 X63.369 Y64.069 E2.00938
G1 X63.970 Y64.824 E2.12518
G1 X64.547 Y65.691 E2.25016
G1 X65.021 Y66.577 E2.37073
G1 X65.430 Y67.535 E2.49573
G1 X65.737 Y68.493 E2.61645
G1 X65.963 Y69.510 E2.74147
G1 X66.093 Y70.506 E2.86200
G1 X66.130 Y71.547 E2.98700
G1 X66.078 Y72.548 E3.10728
G1 X65.924 Y73.579 E3.23238
G1 X65.692 Y74.555 E3.35276
G1 X65.353 Y75.542 E3.47799
G1 X64.950 Y76.457 E3.59797
G1 X64.465 Y77.320 E3.71676
G1 X63.905 Y78.153 E3.83721
G1 X63.424 Y78.755 E3.92968
G1 X62.767 Y79.450 E4.04444
G1 X61.996 Y80.149 E4.16933
G1 X61.184 Y80.745 E4.29020
G1 X60.295 Y81.291 E4.41539
G1 X59.395 Y81.728 E4.53545
G1 X58.420 Y82.104 E4.66085
G1 X57.454 Y82.372 E4.78115
G1 X56.427 Y82.564 E4.90652
G1 X55.499 Y82.646 E5.01832
G1 X55.016 Y82.664 E5.07632
G1 X54.067 Y82.633 E5.19026
G1 X53.034 Y82.509 E5.31511
G1 X52.050 Y82.296 E5.43592
G1 X51.057 Y81.985 E5.56079
G1 X50.127 Y81.598 E5.68167
G1 X49.205 Y81.108 E5.80696
G1 X48.368 Y80.563 E5.92682
G1 X47.550 Y79.916 E6.05197
G1 X46.821 Y79.227 E6.17234
G1 X46.132 Y78.437 E6.29813
G1 X45.544 Y77.630 E6.41795
G1 X45.041 Y76.784 E6.53606
G1 X44.580 Y75.843 E6.66180
G1 X44.233 Y74.900 E6.78238
G1 X43.954 Y73.896 E6.90742
G1 X43.782 Y72.906 E7.02800
G1 X43.694 Y71.900 E7.14918
G1 X43.689 Y71.146 E7.23967
G1 X43.757 Y70.188 E7.35491
G1 X43.913 Y69.189 E7.47625
G1 X44.082 Y68.488 E7.56278
G1 X44.291 Y67.802 E7.64883
G1 X44.646 Y66.902 E7.76493
G1 X45.109 Y65.969 E7.88992
G1 X45.637 Y65.120 E8.00989
G1 X46.245 Y64.308 E8.13162
G1 X46.744 Y63.744 E8.22199
G1 X47.434 Y63.072 E8.33757
G1 X48.219 Y62.433 E8.45903
G0 F9000 X48.460 Y62.753
G1 F1200 X49.047 Y62.346 E8.54475
G1 X49.856 Y61.871 E8.65732
G1 X50.767 Y61.445 E8.77801
G1 X51.677 Y61.114 E8.89421
G1 X52.648 Y60.861 E9.01462
G1 X53.600 Y60.699 E9.13050
G1 X54.535 Y60.631 E9.24299
G1 X54.971 Y60.620 E9.29533
G1 X56.203 Y60.695 E9.44345
G1 X57.167 Y60.863 E9.56087
G1 X58.141 Y61.113 E9.68154
G1 X59.048 Y61.446 E9.79748
G1 X59.962 Y61.870 E9.91839
G1 X60.793 Y62.362 E10.03428
G1 X61.616 Y62.947 E10.15544
G1 X62.295 Y63.540 E10.26362
G1 X62.601 Y63.833 E10.31446
G1 X63.066 Y64.331 E10.39622
G1 X63.646 Y65.060 E10.50801
G1 X64.204 Y65.897 E10.62873
G1 X64.660 Y66.750 E10.74479
G1 X65.055 Y67.675 E10.86549
G1 X65.350 Y68.598 E10.98177
G1 X65.569 Y69.579 E11.10239
G1 X65.694 Y70.539 E11.21856
G1 X65.729 Y71.544 E11.33923
G1 X65.679 Y72.508 E11.45507
G1 X65.531 Y73.503 E11.57578
G1 X65.308 Y74.443 E11.69171
G1 X64.980 Y75.396 E11.81266
G1 X64.592 Y76.278 E11.92829
G1 X64.124 Y77.110 E12.04284
G1 X63.582 Y77.916 E12.15939
G1 X63.122 Y78.492 E12.24785
G1 X62.486 Y79.164 E12.35888
G1 X61.743 Y79.839 E12.47934
G1 X60.960 Y80.413 E12.59584
G1 X60.103 Y80.940 E12.71657
G1 X59.235 Y81.361 E12.83233
G1 X58.295 Y81.724 E12.95325
G1 X57.364 Y81.982 E13.06918
G1 X56.373 Y82.168 E13.19018
G1 X55.474 Y82.247 E13.29848
G1 X55.015 Y82.264 E13.35359
G1 X54.098 Y82.234 E13.46369
G1 X53.100 Y82.114 E13.58431
G1 X52.152 Y81.909 E13.70070
G1 X51.194 Y81.608 E13.82120
G1 X50.298 Y81.236 E13.93762
G1 X49.409 Y80.763 E14.05846
G1 X48.601 Y80.238 E14.17409
G1 X47.812 Y79.613 E14.29488
G1 X47.110 Y78.949 E14.41083
G1 X46.445 Y78.188 E14.53211
G1 X45.879 Y77.409 E14.64766
G1 X45.393 Y76.594 E14.76152
G1 X44.949 Y75.685 E14.88292
G1 X44.614 Y74.777 E14.99906
G1 X44.345 Y73.808 E15.11974
G1 X44.179 Y72.854 E15.23594
G1 X44.094 Y71.881 E15.35314
G1 X44.089 Y71.159 E15.43979
G1 X44.155 Y70.233 E15.55119
G1 X44.306 Y69.266 E15.66863
G1 X44.468 Y68.593 E15.75170
G1 X44.669 Y67.934 E15.83438
G1 X45.012 Y67.065 E15.94649
G1 X45.459 Y66.164 E16.06718
G1 X45.968 Y65.346 E16.18279
G1 X46.556 Y64.560 E16.30058
G1 X47.033 Y64.020 E16.38705
G1 X47.700 Y63.371 E16.49872
G1 X48.460 Y62.753 E16.61627
G0 F9000 X48.700 Y63.073
G1 F1200 X49.262 Y62.684 E16.69829
G1 X50.043 Y62.226 E16.80693
G1 X50.921 Y61.815 E16.92327
G1 X51.796 Y61.496 E17.03503
G1 X52.732 Y61.253 E17.15107
G1 X53.648 Y61.097 E17.26257
G1 X54.554 Y61.031 E17.37158
G1 X54.964 Y61.021 E17.42080
G1 X56.156 Y61.093 E17.56410
G1 X57.083 Y61.254 E17.67700
G1 X58.022 Y61.495 E17.79333
G1 X58.894 Y61.816 E17.90484
G1 X59.775 Y62.225 E18.02140
G1 X60.575 Y62.698 E18.13292
G1 X61.368 Y63.262 E18.24969
G1 X62.025 Y63.835 E18.35431
G1 X62.317 Y64.115 E18.40285
G1 X62.763 Y64.592 E18.48122
G1 X63.323 Y65.296 E18.58916
G1 X63.860 Y66.103 E18.70548
G1 X64.299 Y66.923 E18.81710
G1 X64.680 Y67.815 E18.93349
G1 X64.964 Y68.702 E19.04526
G1 X65.175 Y69.649 E19.16168
G1 X65.295 Y70.572 E19.27337
G1 X65.329 Y71.541 E19.38973
G1 X65.281 Y72.468 E19.50112
G1 X65.138 Y73.427 E19.61747
G1 X64.923 Y74.332 E19.72909
G1 X64.607 Y75.251 E19.84571
G1 X64.234 Y76.099 E19.95688
G1 X63.783 Y76.900 E20.06719
G1 X63.259 Y77.679 E20.17985
G1 X62.820 Y78.230 E20.26439
G1 X62.206 Y78.878 E20.37151
G1 X61.489 Y79.528 E20.48764
G1 X60.737 Y80.081 E20.59966
G1 X59.910 Y80.588 E20.71606
G1 X59.076 Y80.994 E20.82737
G1 X58.169 Y81.344 E20.94403
G1 X57.273 Y81.592 E21.05559
G1 X56.318 Y81.771 E21.17219
G1 X55.449 Y81.848 E21.27688
G1 X55.014 Y81.864 E21.32911
G1 X54.128 Y81.835 E21.43549
G1 X53.166 Y81.719 E21.55177
G1 X52.254 Y81.522 E21.66373
G1 X51.331 Y81.232 E21.77983
G1 X50.469 Y80.873 E21.89188
G1 X49.612 Y80.418 E22.00832
G1 X48.835 Y79.913 E22.11952
G1 X48.074 Y79.310 E22.23603
G1 X47.399 Y78.672 E22.34749
G1 X46.758 Y77.938 E22.46443
G1 X46.213 Y77.189 E22.57558
G1 X45.745 Y76.403 E22.68536
G1 X45.317 Y75.528 E22.80225
G1 X44.995 Y74.654 E22.91402
G1 X44.735 Y73.720 E23.03036
G1 X44.576 Y72.803 E23.14204
G1 X44.494 Y71.862 E23.25539
G1 X44.489 Y71.172 E23.33819
G1 X44.553 Y70.278 E23.44575
G1 X44.699 Y69.344 E23.55919
G1 X44.854 Y68.699 E23.63879
G1 X45.047 Y68.066 E23.71820
G1 X45.378 Y67.228 E23.82632
G1 X45.809 Y66.359 E23.94272
G1 X46.299 Y65.572 E24.05397
G1 X46.866 Y64.813 E24.16766
G1 X47.323 Y64.297 E24.25037
G1 X47.967 Y63.670 E24.35823
G1 X48.700 Y63.073 E24.47167
G10
G0 F9000 X50.983 Y66.114
;TYPE:WALL-INNER
G11
G1 F1200 X51.301 Y65.894 E24.51808
G1 X51.825 Y65.587 E24.59095
G1 X52.373 Y65.330 E24.66359
G1 X52.925 Y65.129 E24.73408
G1 X53.540 Y64.969 E24.81034
G1 X54.105 Y64.873 E24.87911
G1 X54.725 Y64.828 E24.95371
G1 X54.899 Y64.824 E24.97459
G1 X55.716 Y64.873 E25.07281
G1 X56.285 Y64.972 E25.14211
G1 X56.890 Y65.127 E25.21706
G1 X57.439 Y65.330 E25.28730
G1 X58.000 Y65.590 E25.36150
G1 X58.506 Y65.889 E25.43202
G1 X59.008 Y66.246 E25.50594
G1 X59.469 Y66.648 E25.57934
G1 X59.883 Y67.076 E25.65080
G1 X60.249 Y67.537 E25.72143
G1 X60.595 Y68.056 E25.79628
G1 X60.867 Y68.565 E25.86554
G1 X61.118 Y69.151 E25.94204
G1 X61.288 Y69.682 E26.00894
G1 X61.429 Y70.314 E26.08665
G1 X61.503 Y70.880 E26.15515
G1 X61.525 Y71.514 E26.23127
G1 X61.495 Y72.092 E26.30073
G1 X61.405 Y72.698 E26.37424
G1 X61.267 Y73.280 E26.44602
G1 X61.068 Y73.860 E26.51960
G1 X60.831 Y74.397 E26.59004
G1 X60.546 Y74.904 E26.65983
G1 X60.190 Y75.433 E26.73635
G1 X59.544 Y76.163 E26.85332
G1 X59.087 Y76.578 E26.92740
G1 X58.610 Y76.928 E26.99840
G1 X58.085 Y77.250 E27.07230
G1 X57.558 Y77.506 E27.14261
G1 X56.970 Y77.733 E27.21824
G1 X56.419 Y77.886 E27.28687
G1 X55.802 Y78.001 E27.36218
G1 X55.212 Y78.054 E27.43327
G1 X55.005 Y78.061 E27.45812
G1 X54.416 Y78.042 E27.52884
G1 X53.790 Y77.967 E27.60449
G1 X53.228 Y77.845 E27.67351
G1 X52.634 Y77.659 E27.74820
G1 X52.100 Y77.436 E27.81764
G1 X51.539 Y77.138 E27.89387
G1 X51.050 Y76.820 E27.96387
G1 X50.568 Y76.439 E28.03759
G1 X50.145 Y76.039 E28.10746
G1 X49.729 Y75.562 E28.18341
G1 X49.392 Y75.099 E28.25212
G1 X49.089 Y74.590 E28.32321
G1 X48.814 Y74.029 E28.39818
G1 X48.615 Y73.488 E28.46735
G1 X48.447 Y72.883 E28.54270
G1 X48.348 Y72.315 E28.61189
G1 X48.293 Y71.681 E28.68825
G1 X48.290 Y71.286 E28.73566
G1 X48.331 Y70.716 E28.80423
G1 X48.430 Y70.080 E28.88147
G1 X48.639 Y69.316 E28.97652
G1 X48.850 Y68.781 E29.04553
G1 X49.137 Y68.203 E29.12297
G1 X49.440 Y67.715 E29.19190
G1 X49.811 Y67.220 E29.26613
G1 X50.072 Y66.924 E29.31349
G1 X50.502 Y66.506 E29.38545
G1 X50.983 Y66.114 E29.45991
G0 F9000 X52.895 Y68.831
G1 F1200 X52.542 Y69.144 E29.51653
G1 X52.208 Y69.549 E29.57952
G1 X51.888 Y70.115 E29.65755
G1 X51.687 Y70.725 E29.73462
G1 X51.630 Y71.068 E29.77634
G1 X51.610 Y71.395 E29.81565
G1 X51.622 Y71.737 E29.85672
G1 X51.740 Y72.372 E29.93422
G1 X51.989 Y72.982 E30.01329
G1 X52.346 Y73.518 E30.09057
G1 X52.581 Y73.777 E30.13254
G1 X52.972 Y74.115 E30.19456
G1 X53.522 Y74.437 E30.27104
G1 X53.857 Y74.571 E30.31433
G1 X54.471 Y74.714 E30.38998
G1 X54.821 Y74.740 E30.43210
G1 X55.336 Y74.715 E30.49397
G1 X55.973 Y74.567 E30.57245
G1 X56.570 Y74.293 E30.65127
G1 X57.093 Y73.916 E30.72864
G1 X57.339 Y73.673 E30.77013
G1 X57.549 Y73.420 E30.80959
G1 X57.738 Y73.139 E30.85023
G1 X58.019 Y72.540 E30.92962
G1 X58.150 Y72.052 E30.99026
G1 X58.201 Y71.600 E31.04484
G1 X58.206 Y71.376 E31.07173
G1 X58.135 Y70.756 E31.14661
G1 X58.044 Y70.425 E31.18781
G1 X57.929 Y70.118 E31.22715
G1 X57.781 Y69.821 E31.26697
G1 X57.604 Y69.542 E31.30662
G1 X57.392 Y69.272 E31.34781
G1 X56.928 Y68.834 E31.42438
G1 X56.489 Y68.549 E31.48719
G1 X56.061 Y68.353 E31.54368
G1 X55.563 Y68.209 E31.60588
G1 X55.113 Y68.153 E31.66030
G1 X54.890 Y68.145 E31.68708
G1 X54.269 Y68.206 E31.76196
G1 X53.925 Y68.293 E31.80454
G1 X53.471 Y68.477 E31.86332
G1 X53.316 Y68.554 E31.88409
G1 X52.895 Y68.831 E31.94456
G0 F9000 X53.139 Y69.150
;TYPE:WALL-OUTER
G1 F1200 X52.831 Y69.423 E31.99395
G1 X52.539 Y69.776 E32.04893
G1 X52.255 Y70.278 E32.11814
G1 X52.076 Y70.821 E32.18675
G1 X52.028 Y71.113 E32.22226
G1 X52.011 Y71.400 E32.25676
G1 X52.021 Y71.694 E32.29206
G1 X52.126 Y72.259 E32.36102
G1 X52.344 Y72.794 E32.43035
G1 X52.662 Y73.271 E32.49914
G1 X52.861 Y73.490 E32.53465
G1 X53.206 Y73.788 E32.58935
G1 X53.699 Y74.077 E32.65793
G1 X53.977 Y74.188 E32.69385
G1 X54.532 Y74.317 E32.76223
G1 X54.826 Y74.339 E32.79761
G1 X55.281 Y74.317 E32.85227
G1 X55.843 Y74.186 E32.92152
G1 X56.368 Y73.946 E32.99079
G1 X56.834 Y73.610 E33.05973
G1 X57.044 Y73.402 E33.09520
G1 X57.228 Y73.180 E33.12980
G1 X57.391 Y72.938 E33.16481
G1 X57.639 Y72.413 E33.23449
G1 X57.756 Y71.977 E33.28866
G1 X57.802 Y71.573 E33.33745
G1 X57.805 Y71.395 E33.35881
G1 X57.741 Y70.832 E33.42681
G1 X57.663 Y70.548 E33.46215
G1 X57.562 Y70.278 E33.49674
G1 X57.277 Y69.773 E33.56633
G1 X57.095 Y69.542 E33.60162
G1 X56.680 Y69.150 E33.67012
G1 X56.296 Y68.900 E33.72511
G1 X55.922 Y68.729 E33.77446
G1 X55.482 Y68.602 E33.82941
G1 X55.080 Y68.552 E33.87802
G1 X54.902 Y68.546 E33.89939
G1 X54.338 Y68.601 E33.96740
G1 X54.050 Y68.674 E34.00305
G1 X53.516 Y68.901 E34.07268
G1 X53.139 Y69.150 E34.12689
G0 F9000 X52.941 Y68.925
G0 X50.927 Y66.031
G0 X50.744 Y65.793
G1 F1200 X51.086 Y65.556 E34.17683
G1 X51.631 Y65.237 E34.25261
G1 X52.226 Y64.958 E34.33147
G1 X52.803 Y64.748 E34.40515
G1 X53.452 Y64.579 E34.48563
G1 X54.061 Y64.475 E34.55976
G1 X54.715 Y64.428 E34.63845
G1 X54.901 Y64.423 E34.66077
G1 X55.765 Y64.476 E34.76465
G1 X56.363 Y64.580 E34.83749
G1 X57.010 Y64.746 E34.91764
G1 X57.597 Y64.962 E34.99270
G1 X58.184 Y65.234 E35.07033
G1 X58.720 Y65.551 E35.14506
G1 X59.257 Y65.932 E35.22407
G1 X59.732 Y66.347 E35.29976
G1 X60.188 Y66.816 E35.37826
G1 X60.577 Y67.306 E35.45334
G1 X60.940 Y67.852 E35.53201
G1 X61.227 Y68.388 E35.60497
G1 X61.494 Y69.013 E35.68653
G1 X61.677 Y69.584 E35.75848
G1 X61.823 Y70.241 E35.83925
G1 X61.902 Y70.842 E35.91199
G1 X61.926 Y71.511 E35.99232
G1 X61.893 Y72.130 E36.06670
G1 X61.798 Y72.775 E36.14494
G1 X61.652 Y73.389 E36.22067
G1 X61.440 Y74.007 E36.29908
G1 X61.187 Y74.580 E36.37424
G1 X60.890 Y75.109 E36.44704
G1 X60.513 Y75.670 E36.52815
G1 X60.249 Y76.001 E36.57896
G1 X59.828 Y76.446 E36.65247
G1 X59.335 Y76.892 E36.73224
G1 X58.840 Y77.256 E36.80598
G1 X58.275 Y77.603 E36.88554
G1 X57.723 Y77.871 E36.95918
G1 X57.098 Y78.112 E37.03956
G1 X56.508 Y78.276 E37.11304
G1 X55.848 Y78.399 E37.19361
G1 X55.241 Y78.453 E37.26673
G1 X55.007 Y78.462 E37.29483
G1 X54.391 Y78.441 E37.36880
G1 X53.721 Y78.361 E37.44977
G1 X53.133 Y78.234 E37.52196
G1 X52.497 Y78.034 E37.60196
G1 X51.924 Y77.796 E37.67642
G1 X51.338 Y77.484 E37.75608
G1 X50.819 Y77.147 E37.83034
G1 X50.295 Y76.732 E37.91055
G1 X49.860 Y76.320 E37.98245
G1 X49.418 Y75.814 E38.06307
G1 X49.049 Y75.307 E38.13832
G1 X48.740 Y74.788 E38.21080
G1 X48.446 Y74.186 E38.29120
G1 X48.234 Y73.610 E38.36485
G1 X48.055 Y72.967 E38.44494
G1 X47.950 Y72.361 E38.51875
G1 X47.893 Y71.706 E38.59764
G1 X47.890 Y71.273 E38.64960
G1 X47.933 Y70.670 E38.72215
G1 X48.038 Y69.999 E38.80365
G1 X48.134 Y69.599 E38.85301
G1 X48.257 Y69.194 E38.90380
G1 X48.491 Y68.602 E38.98019
G1 X48.780 Y68.020 E39.05817
G1 X49.113 Y67.485 E39.13379
G1 X49.500 Y66.968 E39.21128
G1 X49.791 Y66.639 E39.26399
G1 X50.233 Y66.209 E39.33799
G1 X50.744 Y65.793 E39.41706
G0 F9000 X51.166 Y66.156
;TYPE:SKIN
G1 F900 X53.376 Y68.367 E39.79220
G0 F9000 X53.021 Y68.578
G1 F900 X50.848 Y66.404 E40.16105
G0 F9000 X50.540 Y66.662
G1 F900 X52.696 Y68.818 E40.52694
G0 F9000 X52.403 Y69.091
G1 F900 X50.254 Y66.941 E40.89172
G0 F9000 X49.982 Y67.235
G1 F900 X52.147 Y69.401 E41.25922
G0 F9000 X51.932 Y69.751
G1 F900 X49.734 Y67.553 E41.63223
G0 F9000 X49.498 Y67.882
G1 F900 X51.737 Y70.122 E42.01228
G0 F9000 X51.597 Y70.548
G1 F900 X49.282 Y68.232 E42.40524
G0 F9000 X49.091 Y68.607
G1 F900 X51.497 Y71.013 E42.81355
G0 F9000 X51.476 Y71.558
G1 F900 X48.914 Y68.995 E43.24842
G0 F9000 X48.758 Y69.406
G1 F900 X51.568 Y72.216 E43.72529
G0 F9000 X51.925 Y73.138
G1 F900 X48.636 Y69.850 E44.28337
G0 F9000 X48.535 Y70.313
G1 F900 X56.034 Y77.813 E45.55608
G0 F9000 X56.502 Y77.715
G1 F900 X53.191 Y74.404 E46.11797
G0 F9000 X54.131 Y74.778
G1 F900 X56.943 Y77.590 E46.59519
G0 F9000 X57.351 Y77.433
G1 F900 X54.796 Y74.878 E47.02878
G0 F9000 X55.338 Y74.854
G1 F900 X57.743 Y77.259 E47.43692
G0 F9000 X58.115 Y77.066
G1 F900 X55.799 Y74.750 E47.82996
G0 F9000 X56.221 Y74.606
G1 F900 X58.467 Y76.851 E48.21104
G0 F9000 X58.797 Y76.616
G1 F900 X56.608 Y74.427 E48.58252
G0 F9000 X56.942 Y74.196
G1 F900 X59.112 Y76.365 E48.95070
G0 F9000 X59.408 Y76.096
G1 F900 X57.260 Y73.947 E49.31531
G0 F9000 X57.533 Y73.655
G1 F900 X59.678 Y75.800 E49.67933
G0 F9000 X59.943 Y75.499
G1 F900 X57.775 Y73.331 E50.04725
G0 F9000 X57.974 Y72.964
G1 F900 X60.191 Y75.181 E50.42349
G0 F9000 X60.418 Y74.843
G1 F900 X58.153 Y72.578 E50.80787
G0 F9000 X58.273 Y72.132
G1 F900 X60.623 Y74.482 E51.20668
G0 F9000 X60.809 Y74.102
G1 F900 X58.337 Y71.631 E51.62611
G0 F9000 X58.306 Y71.034
G1 F900 X60.974 Y73.702 E52.07888
G0 F9000 X61.118 Y73.281
G1 F900 X58.152 Y70.314 E52.58231
G0 F9000 X56.038 Y68.200
G1 F900 X53.073 Y65.235 E53.08549
G0 F9000 X52.650 Y65.378
G1 F900 X55.307 Y68.034 E53.53632
G0 F9000 X54.726 Y68.020
G1 F900 X52.248 Y65.542 E53.95685
G0 F9000 X51.865 Y65.724
G1 F900 X54.214 Y68.073 E54.35548
G0 F9000 X53.776 Y68.201
G1 F900 X51.509 Y65.934 E54.74021
G0 F9000 X53.521 Y65.118
G1 F900 X61.230 Y72.827 E56.04847
G0 F9000 X61.316 Y72.346
G1 F900 X54.001 Y65.031 E57.28986
G0 F9000 X54.517 Y64.982
G1 F900 X61.368 Y71.833 E58.45252
G0 F9000 X61.377 Y71.277
G1 F900 X55.075 Y64.974 E59.52209
G0 F9000 X55.676 Y65.010
G1 F900 X61.335 Y70.668 E60.48237
G0 F9000 X61.210 Y69.978
G1 F900 X56.369 Y65.137 E61.30391
G0 F9000 X57.182 Y65.384
G1 F900 X60.978 Y69.181 E61.94820
G0 F9000 X60.445 Y68.082
G1 F900 X58.280 Y65.917 E62.31561
G0 F9000 X48.463 Y70.808
G1 F900 X55.538 Y77.883 E63.51628
G0 F9000 X55.009 Y77.919
G1 F900 X48.430 Y71.340 E64.63277
G0 F9000 X48.454 Y71.930
