;FLAVOR:UltiGCode
;TIME:3056
;MATERIAL:5104
;MATERIAL2:0

;Layer count: 10
;LAYER:0
M107
G0 F9000 X97.970 Y9.728 Z0.300
;TYPE:SKIRT
G1 F1200 X98.068 Y9.158 E0.06940
G1 X98.229 Y8.594 E0.13979
G1 X98.452 Y8.044 E0.21101
G1 X98.773 Y7.453 E0.29171
G1 X99.385 Y6.655 E0.41239
G1 X99.882 Y6.195 E0.49366
G1 X100.414 Y5.795 E0.57353
G1 X101.300 Y5.330 E0.69360
G1 X102.024 Y5.090 E0.78513
G1 X103.100 Y4.918 E0.91589
G1 X104.188 Y4.982 E1.04667
G1 X104.931 Y5.149 E1.13806
G1 X105.938 Y5.554 E1.26831
G1 X106.844 Y6.169 E1.39971
G1 X107.393 Y6.696 E1.49103
G1 X107.994 Y7.486 E1.61014
G1 X108.343 Y8.145 E1.69963
G1 X108.607 Y8.902 E1.79583
G1 X108.690 Y9.232 E1.83667
G1 X108.794 Y9.853 E1.91223
G1 X108.808 Y16.600 E2.72187
G1 X108.808 Y32.440 E4.62267
G1 X110.884 Y32.447 E4.87179
G1 X117.963 Y32.447 E5.72127
G1 X117.971 Y29.325 E6.09591
G1 X117.971 Y18.401 E7.40679
G1 X118.006 Y17.790 E7.48023
G1 X118.197 Y16.835 E7.59710
G1 X118.476 Y16.061 E7.69583
G1 X118.809 Y15.408 E7.78379
G1 X119.304 Y14.712 E7.88628
G1 X119.527 Y14.439 E7.92858
G1 X119.971 Y13.995 E8.00393
G1 X120.514 Y13.558 E8.08757
G1 X121.355 Y13.057 E8.20504
G1 X122.117 Y12.748 E8.30371
G1 X122.762 Y12.575 E8.38385
G1 X123.440 Y12.469 E8.46620
G1 X124.527 Y12.447 E8.59666
G1 X126.109 Y12.447 E8.78650
G1 X126.720 Y12.482 E8.85994
G1 X127.675 Y12.673 E8.97681
G1 X128.449 Y12.952 E9.07554
G1 X129.102 Y13.285 E9.16350
G1 X129.798 Y13.780 E9.26599
G1 X130.071 Y14.003 E9.30829
G1 X130.515 Y14.447 E9.38364
G1 X130.952 Y14.990 E9.46728
G1 X131.453 Y15.833 E9.58496
G1 X131.763 Y16.595 E9.68368
G1 X131.935 Y17.239 E9.76366
G1 X132.038 Y17.897 E9.84359
G1 X132.063 Y18.665 E9.93580
G1 X132.063 Y19.463 E10.03156
G1 X132.008 Y20.075 E10.10529
G1 X131.811 Y20.820 E10.19776
G1 X131.477 Y21.520 E10.29084
G1 X131.046 Y22.126 E10.38007
G1 X130.518 Y22.655 E10.46976
G1 X129.893 Y23.093 E10.56135
G1 X129.198 Y23.416 E10.65331
G1 X128.448 Y23.614 E10.74640
G1 X127.693 Y23.671 E10.83725
G1 X126.974 Y23.606 E10.92389
G1 X125.936 Y23.349 E11.05221
G1 X125.936 Y33.454 E12.26481
G1 X125.900 Y34.106 E12.34317
G1 X125.785 Y34.831 E12.43125
G1 X125.577 Y35.609 E12.52789
G1 X125.116 Y36.674 E12.66715
G1 X124.615 Y37.484 E12.78144
G1 X124.127 Y38.084 E12.87425
G1 X123.608 Y38.603 E12.96233
G1 X123.034 Y39.070 E13.05112
G1 X122.410 Y39.474 E13.14033
G1 X121.756 Y39.805 E13.22829
G1 X121.070 Y40.070 E13.31654
G1 X120.355 Y40.261 E13.40534
G1 X119.553 Y40.388 E13.50278
G1 X115.917 Y40.412 E13.93911
G1 X107.803 Y40.412 E14.91279
G1 X107.150 Y40.376 E14.99127
G1 X106.424 Y40.261 E15.07948
G1 X105.645 Y40.053 E15.17623
G1 X104.583 Y39.592 E15.31516
G1 X103.773 Y39.092 E15.42939
G1 X103.171 Y38.603 E15.52246
G1 X102.650 Y38.082 E15.61088
G1 X102.187 Y37.510 E15.69918
G1 X101.783 Y36.889 E15.78809
G1 X101.448 Y36.228 E15.87701
G1 X101.185 Y35.542 E15.96517
G1 X100.996 Y34.835 E16.05299
G1 X100.866 Y34.028 E16.15108
G1 X100.842 Y26.558 E17.04749
G1 X100.837 Y22.867 E17.49041
G1 X100.834 Y15.185 E18.41225
G1 X100.762 Y15.155 E18.42161
G1 X99.866 Y14.533 E18.55249
G1 X99.384 Y14.064 E18.63320
G1 X99.010 Y13.616 E18.70323
G1 X98.635 Y13.052 E18.78450
G1 X98.226 Y12.140 E18.90444
G1 X98.050 Y11.493 E18.98491
G1 X97.960 Y10.914 E19.05522
G1 X97.931 Y10.322 E19.12634
G1 X97.970 Y9.728 E19.19778
G10
G0 F9000 X101.737 Y10.358
;TYPE:WALL-INNER
G11
G1 F1200 X101.749 Y10.172 E19.22014
G1 X101.826 Y9.835 E19.26163
G1 X101.969 Y9.530 E19.30205
G1 X102.203 Y9.225 E19.34818
G1 X102.322 Y9.115 E19.36763
G1 X102.451 Y9.017 E19.38707
G1 X102.793 Y8.838 E19.43339
G1 X102.928 Y8.793 E19.45047
G1 X103.289 Y8.736 E19.49432
G1 X103.661 Y8.757 E19.53903
G1 X103.793 Y8.787 E19.55528
G1 X104.143 Y8.928 E19.60056
G1 X104.444 Y9.132 E19.64419
G1 X104.546 Y9.230 E19.66116
G1 X104.783 Y9.542 E19.70818
G1 X104.848 Y9.666 E19.72498
G1 X104.966 Y10.005 E19.76806
G1 X104.995 Y10.177 E19.78899
G1 X105.008 Y16.603 E20.56011
G1 X105.008 Y33.381 E22.57347
G1 X105.022 Y33.667 E22.60783
G1 X105.069 Y33.964 E22.64391
G1 X105.147 Y34.257 E22.68030
G1 X105.400 Y34.822 E22.75459
G1 X105.736 Y35.284 E22.82314
G1 X105.962 Y35.509 E22.86141
G1 X106.207 Y35.708 E22.89928
G1 X106.702 Y35.994 E22.96788
G1 X106.999 Y36.108 E23.00606
G1 X107.289 Y36.185 E23.04206
G1 X107.602 Y36.236 E23.08012
G1 X110.872 Y36.247 E23.47252
G1 X118.904 Y36.247 E24.43636
G1 X119.191 Y36.234 E24.47084
G1 X119.490 Y36.185 E24.50720
G1 X119.781 Y36.108 E24.54332
G1 X120.077 Y35.994 E24.58138
G1 X120.586 Y35.700 E24.65192
G1 X121.034 Y35.297 E24.72423
G1 X121.379 Y34.822 E24.79468
G1 X121.632 Y34.257 E24.86896
G1 X121.710 Y33.964 E24.90535
G1 X121.760 Y33.660 E24.94232
G1 X121.771 Y29.334 E25.46144
G1 X121.771 Y18.510 E26.76032
G1 X121.785 Y18.270 E26.78917
G1 X121.867 Y17.859 E26.83946
G1 X121.968 Y17.578 E26.87529
G1 X122.068 Y17.383 E26.90159
G1 X122.349 Y16.991 E26.95947
G1 X122.511 Y16.829 E26.98696
G1 X122.687 Y16.687 E27.01410
G1 X123.053 Y16.469 E27.06522
G1 X123.328 Y16.358 E27.10080
G1 X123.772 Y16.263 E27.15529
G1 X124.571 Y16.247 E27.25119
G1 X126.000 Y16.247 E27.42267
G1 X126.240 Y16.261 E27.45152
G1 X126.651 Y16.343 E27.50181
G1 X126.932 Y16.444 E27.53764
G1 X127.127 Y16.544 E27.56394
G1 X127.519 Y16.825 E27.62182
G1 X127.681 Y16.987 E27.64931
G1 X127.822 Y17.162 E27.67628
G1 X128.041 Y17.529 E27.72756
G1 X128.152 Y17.805 E27.76326
G1 X128.247 Y18.249 E27.81775
G1 X128.263 Y19.287 E27.94232
G1 X128.251 Y19.418 E27.95811
G1 X128.228 Y19.504 E27.96879
G1 X128.189 Y19.588 E27.97990
G1 X128.133 Y19.666 E27.99143
G1 X128.064 Y19.735 E28.00314
G1 X127.989 Y19.787 E28.01409
G1 X127.891 Y19.831 E28.02698
G1 X127.898 Y18.477 E28.18946
G1 X127.884 Y18.249 E28.21687
G1 X127.832 Y17.986 E28.24904
G1 X127.659 Y17.568 E28.30333
G1 X127.512 Y17.348 E28.33508
G1 X127.349 Y17.161 E28.36485
G1 X127.162 Y16.998 E28.39462
G1 X126.958 Y16.862 E28.42404
G1 X126.737 Y16.754 E28.45356
G1 X126.506 Y16.674 E28.48289
G1 X126.248 Y16.623 E28.51445
G1 X125.479 Y16.612 E28.60674
G1 X123.999 Y16.612 E28.78434
G1 X123.772 Y16.626 E28.81163
G1 X123.509 Y16.678 E28.84380
G1 X123.091 Y16.851 E28.89809
G1 X122.871 Y16.998 E28.92984
G1 X122.683 Y17.162 E28.95978
G1 X122.521 Y17.349 E28.98947
G1 X122.386 Y17.552 E29.01872
G1 X122.278 Y17.773 E29.04824
G1 X122.198 Y18.004 E29.07757
G1 X122.146 Y18.266 E29.10963
G1 X122.136 Y22.525 E29.62071
G1 X122.136 Y33.351 E30.91983
G1 X122.117 Y33.699 E30.96165
G1 X122.063 Y34.040 E31.00308
G1 X121.978 Y34.356 E31.04235
G1 X121.738 Y34.911 E31.11491
G1 X121.511 Y35.277 E31.16659
G1 X121.298 Y35.540 E31.20720
G1 X121.064 Y35.774 E31.24691
G1 X120.798 Y35.990 E31.28803
G1 X120.508 Y36.178 E31.32951
G1 X120.213 Y36.327 E31.36917
G1 X119.892 Y36.451 E31.41046
G1 X119.564 Y36.539 E31.45121
G1 X119.239 Y36.590 E31.49069
G1 X115.903 Y36.612 E31.89102
G1 X107.905 Y36.612 E32.85078
G1 X107.556 Y36.593 E32.89272
G1 X107.215 Y36.539 E32.93415
G1 X106.896 Y36.453 E32.97380
G1 X106.350 Y36.217 E33.04517
G1 X105.976 Y35.985 E33.09799
G1 X105.715 Y35.774 E33.13826
G1 X105.482 Y35.541 E33.17780
G1 X105.264 Y35.271 E33.21945
G1 X105.078 Y34.986 E33.26029
G1 X104.927 Y34.687 E33.30048
G1 X104.806 Y34.372 E33.34097
G1 X104.665 Y33.721 E33.42091
G1 X104.642 Y26.549 E34.28155
G1 X104.632 Y11.762 E36.05599
G1 X103.864 Y11.935 E36.15046
G1 X103.841 Y11.937 E36.15323
G1 X103.442 Y11.999 E36.20168
G1 X103.268 Y11.997 E36.22257
G1 X103.087 Y11.975 E36.24445
G1 X102.933 Y11.939 E36.26342
G1 X102.590 Y11.798 E36.30793
G1 X102.288 Y11.588 E36.35207
G1 X102.062 Y11.342 E36.39215
G1 X101.972 Y11.207 E36.41162
G1 X101.815 Y10.857 E36.45766
G1 X101.773 Y10.704 E36.47669
G1 X101.745 Y10.524 E36.49855
G1 X101.737 Y10.358 E36.51850
G0 F9000 X101.337 Y10.351
;TYPE:WALL-OUTER
G1 F1200 X101.352 Y10.124 E36.54580
G1 X101.389 Y9.912 E36.57162
G1 X101.448 Y9.701 E36.59791
G1 X101.529 Y9.502 E36.62369
G1 X101.632 Y9.313 E36.64952
G1 X101.908 Y8.953 E36.70396
G1 X102.236 Y8.678 E36.75532
G1 X102.633 Y8.470 E36.80911
G1 X102.836 Y8.403 E36.83476
G1 X103.267 Y8.334 E36.88714
G1 X103.716 Y8.360 E36.94111
G1 X103.913 Y8.405 E36.96536
G1 X104.334 Y8.574 E37.01979
G1 X104.697 Y8.820 E37.07241
G1 X104.846 Y8.964 E37.09728
G1 X105.118 Y9.321 E37.15114
G1 X105.218 Y9.511 E37.17690
G1 X105.361 Y9.936 E37.23071
G1 X105.395 Y10.139 E37.25541
G1 X105.408 Y33.371 E40.04325
G1 X105.421 Y33.626 E40.07389
G1 X105.461 Y33.881 E40.10487
G1 X105.528 Y34.134 E40.13627
G1 X105.621 Y34.376 E40.16738
G1 X105.742 Y34.612 E40.19921
G1 X106.041 Y35.023 E40.26020
G1 X106.434 Y35.377 E40.32367
G1 X106.875 Y35.632 E40.38480
G1 X107.122 Y35.727 E40.41656
G1 X107.373 Y35.794 E40.44773
G1 X107.635 Y35.836 E40.47957
G1 X118.894 Y35.847 E41.83065
G1 X119.150 Y35.835 E41.86141
G1 X119.406 Y35.794 E41.89252
G1 X119.658 Y35.727 E41.92381
G1 X119.904 Y35.632 E41.95545
G1 X120.349 Y35.375 E42.01712
G1 X120.735 Y35.028 E42.07940
G1 X121.037 Y34.612 E42.14109
G1 X121.158 Y34.376 E42.17292
G1 X121.251 Y34.134 E42.20403
G1 X121.318 Y33.881 E42.23543
G1 X121.360 Y33.623 E42.26680
G1 X121.371 Y18.504 E44.08108
G1 X121.387 Y18.219 E44.11534
G1 X121.481 Y17.750 E44.17274
G1 X121.602 Y17.416 E44.21537
G1 X121.724 Y17.176 E44.24767
G1 X122.058 Y16.716 E44.31589
G1 X122.239 Y16.535 E44.34661
G1 X122.463 Y16.355 E44.38109
G1 X122.875 Y16.109 E44.43867
G1 X123.200 Y15.977 E44.48077
G1 X123.462 Y15.907 E44.51331
G1 X123.740 Y15.864 E44.54706
G1 X124.563 Y15.847 E44.64585
G1 X126.006 Y15.847 E44.81901
G1 X126.291 Y15.863 E44.85326
G1 X126.760 Y15.957 E44.91066
G1 X127.094 Y16.078 E44.95329
G1 X127.334 Y16.200 E44.98560
G1 X127.794 Y16.534 E45.05381
G1 X127.975 Y16.715 E45.08453
G1 X128.155 Y16.939 E45.11901
G1 X128.401 Y17.351 E45.17659
G1 X128.533 Y17.677 E45.21880
G1 X128.603 Y17.939 E45.25134
G1 X128.646 Y18.218 E45.28522
G1 X128.663 Y19.312 E45.41651
G1 X128.647 Y19.485 E45.43736
G1 X128.606 Y19.644 E45.45707
G1 X128.537 Y19.787 E45.47612
G1 X128.437 Y19.928 E45.49686
G1 X128.327 Y20.038 E45.51553
G1 X128.184 Y20.138 E45.53647
G1 X128.039 Y20.205 E45.55564
G1 X127.880 Y20.247 E45.57537
G1 X127.719 Y20.260 E45.59475
G1 X127.489 Y20.231 E45.62257
G1 X127.498 Y18.488 E45.83174
G1 X127.487 Y18.300 E45.85433
G1 X127.447 Y18.103 E45.87846
G1 X127.304 Y17.757 E45.92338
G1 X127.193 Y17.591 E45.94735
G1 X127.066 Y17.444 E45.97066
G1 X126.919 Y17.317 E45.99397
G1 X126.758 Y17.209 E46.01723
G1 X126.584 Y17.124 E46.04047
G1 X126.401 Y17.061 E46.06370
G1 X126.205 Y17.022 E46.08768
G1 X125.476 Y17.012 E46.17517
G1 X124.011 Y17.012 E46.35097
G1 X123.823 Y17.023 E46.37356
G1 X123.626 Y17.063 E46.39769
G1 X123.280 Y17.206 E46.44261
G1 X122.967 Y17.445 E46.48987
G1 X122.840 Y17.592 E46.51318
G1 X122.733 Y17.752 E46.53628
G1 X122.648 Y17.926 E46.55952
G1 X122.585 Y18.109 E46.58274
G1 X122.546 Y18.306 E46.60684
G1 X122.536 Y33.355 E48.41272
G1 X122.515 Y33.745 E48.45959
G1 X122.454 Y34.128 E48.50613
G1 X122.358 Y34.485 E48.55049
G1 X122.093 Y35.098 E48.63063
G1 X121.838 Y35.510 E48.68877
G1 X121.596 Y35.808 E48.73484
G1 X121.332 Y36.072 E48.77964
G1 X121.036 Y36.312 E48.82537
G1 X120.706 Y36.526 E48.87257
G1 X120.381 Y36.691 E48.91631
G1 X120.010 Y36.834 E48.96402
G1 X119.652 Y36.930 E49.00850
G1 X119.272 Y36.990 E49.05466
G1 X115.906 Y37.012 E49.45859
G1 X107.901 Y37.012 E50.41919
G1 X107.510 Y36.991 E50.46618
G1 X107.127 Y36.930 E50.51272
G1 X106.767 Y36.833 E50.55746
G1 X106.161 Y36.571 E50.63668
G1 X105.745 Y36.313 E50.69543
G1 X105.447 Y36.072 E50.74142
G1 X105.188 Y35.813 E50.78537
G1 X104.940 Y35.506 E50.83273
G1 X104.727 Y35.179 E50.87956
G1 X104.564 Y34.856 E50.92298
G1 X104.422 Y34.487 E50.97042
G1 X104.324 Y34.120 E51.01600
G1 X104.265 Y33.754 E51.06049
G1 X104.232 Y12.262 E53.63953
G1 X103.921 Y12.332 E53.67779
G1 X103.898 Y12.334 E53.68056
G1 X103.747 Y12.366 E53.69908
G1 X103.731 Y12.367 E53.70100
G1 X103.677 Y12.378 E53.70762
G1 X103.458 Y12.400 E53.73403
G1 X103.242 Y12.396 E53.75995
G1 X103.016 Y12.369 E53.78727
G1 X102.809 Y12.321 E53.81277
G1 X102.398 Y12.152 E53.86609
G1 X102.033 Y11.898 E53.91945
G1 X101.886 Y11.756 E53.94398
G1 X101.741 Y11.582 E53.97116
G1 X101.619 Y11.398 E53.99765
G1 X101.437 Y10.993 E54.05093
G1 X101.382 Y10.790 E54.07617
G1 X101.347 Y10.566 E54.10338
G1 X101.337 Y10.351 E54.12921
G0 F9000 X101.886 Y10.528
;TYPE:SKIN
G1 F900 X103.205 Y11.846 E54.35296
G0 F9000 X103.733 Y11.810
G1 F900 X101.929 Y10.005 E54.65920
G0 F9000 X102.089 Y9.600
G1 F900 X104.204 Y11.714 E55.01804
G0 F9000 X104.665 Y11.610
G1 F900 X102.342 Y9.287 E55.41227
G0 F9000 X102.677 Y9.056
G1 F900 X104.855 Y11.234 E55.78189
G0 F9000 X104.854 Y10.668
G1 F900 X103.095 Y8.908 E56.08048
G0 F9000 X103.650 Y8.898
G1 F900 X104.837 Y10.084 E56.28184
;LAYER:1
M106 S255
G0 F9000 X105.161 Y10.166 Z0.500
;TYPE:WALL-INNER
G1 F1800 X105.174 Y33.379 E58.13888
G1 X105.187 Y33.665 E58.16178
G1 X105.302 Y34.207 E58.20611
G1 X105.534 Y34.726 E58.25159
G1 X105.868 Y35.186 E58.29706
G1 X106.290 Y35.566 E58.34249
G1 X106.769 Y35.843 E58.38676
G1 X107.064 Y35.956 E58.41203
G1 X107.603 Y36.072 E58.45614
G1 X111.391 Y36.083 E58.75918
G1 X118.904 Y36.082 E59.36022
G1 X119.189 Y36.069 E59.38304
G1 X119.715 Y35.956 E59.42608
G1 X119.996 Y35.849 E59.45014
G1 X120.249 Y35.719 E59.47289
G1 X120.487 Y35.564 E59.49562
G1 X120.720 Y35.376 E59.51957
G1 X121.090 Y34.965 E59.56381
G1 X121.367 Y34.486 E59.60807
G1 X121.480 Y34.191 E59.63335
G1 X121.596 Y33.653 E59.67738
G1 X121.607 Y28.632 E60.07906
G1 X121.606 Y18.510 E60.88882
G1 X121.620 Y18.258 E60.90901
G1 X121.707 Y17.821 E60.94465
G1 X121.819 Y17.508 E60.97125
G1 X121.929 Y17.291 E60.99071
G1 X122.230 Y16.877 E61.03166
G1 X122.599 Y16.546 E61.07132
G1 X122.815 Y16.405 E61.09195
G1 X123.037 Y16.292 E61.11188
G1 X123.264 Y16.205 E61.13133
G1 X123.689 Y16.109 E61.16619
G1 X126.001 Y16.082 E61.35116
G1 X126.252 Y16.096 E61.37127
G1 X126.689 Y16.183 E61.40692
G1 X127.002 Y16.295 E61.43351
G1 X127.219 Y16.405 E61.45297
G1 X127.633 Y16.706 E61.49392
G1 X127.964 Y17.075 E61.53358
G1 X128.105 Y17.291 E61.55421
G1 X128.214 Y17.506 E61.57350
G1 X128.352 Y17.913 E61.60788
G1 X128.411 Y18.243 E61.63470
G1 X128.427 Y18.773 E61.67712
G1 X128.428 Y19.289 E61.71840
G1 X128.415 Y19.442 E61.73068
G1 X128.383 Y19.562 E61.74062
G1 X128.330 Y19.675 E61.75060
G1 X128.262 Y19.772 E61.76008
G1 X128.169 Y19.864 E61.77054
G1 X128.075 Y19.930 E61.77973
G1 X127.959 Y19.984 E61.78997
G1 X127.842 Y20.014 E61.79963
G1 X127.727 Y20.024 E61.80887
G1 X127.733 Y18.476 E61.93271
G1 X127.719 Y18.250 E61.95082
G1 X127.608 Y17.835 E61.98519
G1 X127.393 Y17.463 E62.01956
G1 X127.232 Y17.278 E62.03918
G1 X127.062 Y17.129 E62.05727
G1 X126.875 Y17.005 E62.07522
G1 X126.657 Y16.897 E62.09468
G1 X126.245 Y16.787 E62.12879
G1 X125.385 Y16.776 E62.19760
G1 X123.998 Y16.777 E62.30856
G1 X123.773 Y16.791 E62.32659
G1 X123.358 Y16.902 E62.36096
G1 X122.986 Y17.117 E62.39533
G1 X122.801 Y17.278 E62.41495
G1 X122.639 Y17.463 E62.43463
G1 X122.425 Y17.836 E62.46903
G1 X122.310 Y18.268 E62.50479
G1 X122.300 Y23.227 E62.90151
G1 X122.301 Y33.351 E63.71143
G1 X122.281 Y33.718 E63.74084
G1 X122.224 Y34.080 E63.77015
G1 X122.133 Y34.417 E63.79808
G1 X122.010 Y34.740 E63.82573
G1 X121.698 Y35.296 E63.87673
G1 X121.421 Y35.650 E63.91269
G1 X121.174 Y35.897 E63.94064
G1 X120.893 Y36.125 E63.96959
G1 X120.596 Y36.318 E63.99792
G1 X120.273 Y36.482 E64.02690
G1 X119.941 Y36.609 E64.05534
G1 X119.604 Y36.700 E64.08327
G1 X119.258 Y36.754 E64.11128
G1 X115.385 Y36.776 E64.42113
G1 X107.905 Y36.777 E65.01953
G1 X107.537 Y36.757 E65.04901
G1 X107.175 Y36.700 E65.07833
G1 X106.838 Y36.609 E65.10625
G1 X106.515 Y36.486 E65.13390
G1 X105.959 Y36.174 E65.18491
G1 X105.605 Y35.897 E65.22087
G1 X105.358 Y35.650 E65.24881
G1 X105.130 Y35.369 E65.27776
G1 X104.937 Y35.072 E65.30610
G1 X104.773 Y34.749 E65.33508
G1 X104.647 Y34.422 E65.36311
G1 X104.556 Y34.077 E65.39165
G1 X104.501 Y33.733 E65.41952
G1 X104.472 Y19.290 E66.57497
G1 X104.470 Y11.996 E67.15849
G1 X103.734 Y12.138 E67.21845
G1 X103.458 Y12.163 E67.24062
G1 X103.055 Y12.139 E67.27292
G1 X102.888 Y12.100 E67.28664
G1 X102.504 Y11.942 E67.31986
G1 X102.190 Y11.725 E67.35039
G1 X101.922 Y11.434 E67.38204
G1 X101.831 Y11.296 E67.39527
