;FLAVOR:UltiGCode
;TIME:5314
;MATERIAL:9596
;MATERIAL2:0

;Layer count: 16
;LAYER:0
M107
G0 F9000 X48.301 Y59.138 Z0.300
;TYPE:SKIRT
G1 F1200 X49.086 Y58.499 E0.12146
G1 X49.698 Y58.075 E0.21081
G1 X50.537 Y57.583 E0.32752
G1 X51.481 Y57.141 E0.45260
G1 X52.425 Y56.798 E0.57313
G1 X53.431 Y56.536 E0.69788
G1 X54.419 Y56.367 E0.81816
G1 X55.382 Y56.298 E0.93401
G1 X55.845 Y56.286 E0.98959
G1 X57.116 Y56.363 E1.14239
G1 X58.118 Y56.537 E1.26443
G1 X59.127 Y56.796 E1.38944
G1 X60.068 Y57.143 E1.50979
G1 X61.015 Y57.582 E1.63505
G1 X61.878 Y58.093 E1.75540
G1 X62.731 Y58.698 E1.88089
G1 X63.432 Y59.310 E1.99256
G1 X63.753 Y59.618 E2.04594
G1 X64.236 Y60.135 E2.13085
G1 X64.837 Y60.890 E2.24665
G1 X65.414 Y61.757 E2.37162
G1 X65.888 Y62.643 E2.49220
G1 X66.297 Y63.601 E2.61720
G1 X66.604 Y64.559 E2.73792
G1 X66.830 Y65.576 E2.86293
G1 X66.960 Y66.572 E2.98347
G1 X66.997 Y67.613 E3.10847
G1 X66.945 Y68.614 E3.22875
G1 X66.791 Y69.645 E3.35384
G1 X66.559 Y70.621 E3.47422
G1 X66.220 Y71.608 E3.59945
G1 X65.817 Y72.523 E3.71943
G1 X65.332 Y73.386 E3.83823
G1 X64.772 Y74.219 E3.95867
G1 X64.291 Y74.821 E4.05114
G1 X63.634 Y75.516 E4.16591
G1 X62.863 Y76.215 E4.29079
G1 X62.051 Y76.811 E4.41166
G1 X61.162 Y77.357 E4.53686
G1 X60.262 Y77.794 E4.65691
G1 X59.287 Y78.170 E4.78231
G1 X58.321 Y78.438 E4.90261
G1 X57.294 Y78.630 E5.02799
G1 X56.366 Y78.712 E5.13978
G1 X55.883 Y78.730 E5.19778
G1 X54.934 Y78.699 E5.31172
G1 X53.901 Y78.575 E5.43657
G1 X52.917 Y78.362 E5.55739
G1 X51.924 Y78.051 E5.68225
G1 X50.994 Y77.664 E5.80313
G1 X50.072 Y77.174 E5.92842
G1 X49.235 Y76.629 E6.04828
G1 X48.417 Y75.982 E6.17343
G1 X47.688 Y75.293 E6.29380
G1 X46.999 Y74.503 E6.41959
G1 X46.411 Y73.696 E6.53941
G1 X45.908 Y72.850 E6.65752
G1 X45.447 Y71.909 E6.78326
G1 X45.100 Y70.966 E6.90384
G1 X44.821 Y69.962 E7.02889
G1 X44.649 Y68.972 E7.14947
G1 X44.561 Y67.966 E7.27065
G1 X44.556 Y67.212 E7.36113
G1 X44.624 Y66.254 E7.47638
G1 X44.780 Y65.255 E7.59771
G1 X44.949 Y64.554 E7.68424
G1 X45.158 Y63.868 E7.77030
G1 X45.513 Y62.968 E7.88639
G1 X45.976 Y62.035 E8.01138
G1 X46.504 Y61.186 E8.13136
G1 X47.112 Y60.374 E8.25309
G1 X47.611 Y59.810 E8.34345
G1 X48.301 Y59.138 E8.45903
G0 F9000 X48.567 Y59.437
G1 F1200 X49.327 Y58.819 E8.57658
G1 X49.914 Y58.412 E8.66229
G1 X50.723 Y57.937 E8.77487
G1 X51.634 Y57.511 E8.89555
G1 X52.544 Y57.180 E9.01175
G1 X53.515 Y56.927 E9.13216
G1 X54.467 Y56.765 E9.24804
G1 X55.402 Y56.697 E9.36054
G1 X55.838 Y56.686 E9.41288
G1 X57.070 Y56.761 E9.56099
G1 X58.034 Y56.929 E9.67842
G1 X59.008 Y57.179 E9.79908
G1 X59.915 Y57.512 E9.91503
G1 X60.829 Y57.936 E10.03593
G1 X61.660 Y58.428 E10.15182
G1 X62.483 Y59.013 E10.27299
G1 X63.162 Y59.606 E10.38117
G1 X63.468 Y59.899 E10.43201
G1 X63.933 Y60.397 E10.51377
G1 X64.513 Y61.126 E10.62556
G1 X65.071 Y61.963 E10.74627
G1 X65.527 Y62.816 E10.86234
G1 X65.922 Y63.741 E10.98304
G1 X66.217 Y64.664 E11.09932
G1 X66.436 Y65.645 E11.21993
G1 X66.561 Y66.605 E11.33611
G1 X66.596 Y67.610 E11.45678
G1 X66.546 Y68.574 E11.57262
G1 X66.398 Y69.569 E11.69333
G1 X66.175 Y70.509 E11.80926
G1 X65.847 Y71.462 E11.93020
G1 X65.459 Y72.344 E12.04583
G1 X64.991 Y73.176 E12.16038
G1 X64.449 Y73.982 E12.27694
G1 X63.989 Y74.558 E12.36539
G1 X63.353 Y75.230 E12.47642
G1 X62.610 Y75.905 E12.59688
G1 X61.827 Y76.479 E12.71339
G1 X60.970 Y77.006 E12.83411
G1 X60.102 Y77.427 E12.94988
G1 X59.162 Y77.790 E13.07080
G1 X58.231 Y78.048 E13.18673
G1 X57.240 Y78.234 E13.30773
G1 X56.341 Y78.313 E13.41602
G1 X55.882 Y78.330 E13.47114
G1 X54.965 Y78.300 E13.58124
G1 X53.967 Y78.180 E13.70186
G1 X53.019 Y77.975 E13.81825
G1 X52.061 Y77.674 E13.93875
G1 X51.165 Y77.302 E14.05517
G1 X50.276 Y76.829 E14.17601
G1 X49.468 Y76.304 E14.29164
G1 X48.679 Y75.679 E14.41243
G1 X47.977 Y75.015 E14.52838
G1 X47.312 Y74.254 E14.64965
G1 X46.746 Y73.475 E14.76520
G1 X46.260 Y72.660 E14.87907
G1 X45.816 Y71.751 E15.00047
G1 X45.481 Y70.843 E15.11661
G1 X45.212 Y69.874 E15.23728
G1 X45.046 Y68.920 E15.35348
G1 X44.961 Y67.947 E15.47069
G1 X44.956 Y67.225 E15.55733
G1 X45.022 Y66.299 E15.66873
G1 X45.173 Y65.332 E15.78618
G1 X45.335 Y64.659 E15.86925
G1 X45.536 Y64.000 E15.95192
G1 X45.879 Y63.131 E16.06403
G1 X46.326 Y62.230 E16.18473
G1 X46.835 Y61.412 E16.30034
G1 X47.423 Y60.626 E16.41813
G1 X47.900 Y60.086 E16.50459
G1 X48.567 Y59.437 E16.61627
G0 F9000 X48.834 Y59.736
G1 F1200 X49.567 Y59.139 E16.72971
G1 X50.129 Y58.750 E16.81173
G1 X50.910 Y58.292 E16.92038
G1 X51.788 Y57.881 E17.03671
G1 X52.663 Y57.562 E17.14847
G1 X53.599 Y57.319 E17.26451
G1 X54.515 Y57.163 E17.37602
G1 X55.421 Y57.097 E17.48502
G1 X55.831 Y57.087 E17.53424
G1 X57.023 Y57.159 E17.67754
G1 X57.950 Y57.320 E17.79044
G1 X58.889 Y57.561 E17.90678
G1 X59.761 Y57.882 E18.01828
G1 X60.642 Y58.291 E18.13484
G1 X61.442 Y58.764 E18.24636
G1 X62.235 Y59.328 E18.36314
G1 X62.892 Y59.901 E18.46775
G1 X63.184 Y60.181 E18.51629
G1 X63.630 Y60.658 E18.59466
G1 X64.190 Y61.362 E18.70261
G1 X64.727 Y62.169 E18.81893
G1 X65.166 Y62.989 E18.93054
G1 X65.547 Y63.881 E19.04694
G1 X65.831 Y64.768 E19.15870
G1 X66.042 Y65.715 E19.27513
G1 X66.162 Y66.638 E19.38682
G1 X66.196 Y67.607 E19.50317
G1 X66.148 Y68.534 E19.61456
G1 X66.005 Y69.493 E19.73091
G1 X65.790 Y70.398 E19.84253
G1 X65.474 Y71.317 E19.95915
G1 X65.101 Y72.165 E20.07032
G1 X64.650 Y72.966 E20.18063
G1 X64.126 Y73.745 E20.29329
G1 X63.687 Y74.296 E20.37783
G1 X63.073 Y74.944 E20.48495
G1 X62.356 Y75.594 E20.60109
G1 X61.604 Y76.147 E20.71310
G1 X60.777 Y76.654 E20.82950
G1 X59.943 Y77.060 E20.94081
G1 X59.036 Y77.410 E21.05747
G1 X58.140 Y77.658 E21.16904
G1 X57.185 Y77.837 E21.28563
G1 X56.316 Y77.914 E21.39032
G1 X55.881 Y77.930 E21.44256
G1 X54.995 Y77.901 E21.54893
G1 X54.033 Y77.785 E21.66521
G1 X53.121 Y77.588 E21.77717
G1 X52.198 Y77.298 E21.89327
G1 X51.336 Y76.939 E22.00532
G1 X50.479 Y76.484 E22.12176
G1 X49.702 Y75.979 E22.23296
G1 X48.941 Y75.376 E22.34948
G1 X48.266 Y74.738 E22.46093
G1 X47.625 Y74.004 E22.57787
G1 X47.080 Y73.255 E22.68903
G1 X46.612 Y72.469 E22.79880
G1 X46.184 Y71.594 E22.91569
G1 X45.862 Y70.720 E23.02746
G1 X45.602 Y69.786 E23.14380
G1 X45.443 Y68.869 E23.25548
G1 X45.361 Y67.928 E23.36883
G1 X45.356 Y67.238 E23.45163
G1 X45.420 Y66.344 E23.55919
G1 X45.566 Y65.410 E23.67263
G1 X45.721 Y64.765 E23.75223
G1 X45.914 Y64.132 E23.83164
G1 X46.245 Y63.294 E23.93976
G1 X46.676 Y62.425 E24.05617
G1 X47.166 Y61.638 E24.16742
G1 X47.733 Y60.879 E24.28110
G1 X48.190 Y60.363 E24.36382
G1 X48.834 Y59.736 E24.47167
G10
G0 F9000 X51.369 Y62.572
;TYPE:WALL-INNER
G11
G1 F1200 X51.850 Y62.180 E24.54613
G1 X52.168 Y61.960 E24.59254
G1 X52.692 Y61.653 E24.66541
G1 X53.240 Y61.396 E24.73805
G1 X53.792 Y61.195 E24.80854
G1 X54.407 Y61.035 E24.88480
G1 X54.972 Y60.939 E24.95357
G1 X55.592 Y60.894 E25.02817
G1 X55.766 Y60.890 E25.04905
G1 X56.583 Y60.939 E25.14727
G1 X57.152 Y61.038 E25.21657
G1 X57.757 Y61.193 E25.29152
G1 X58.306 Y61.396 E25.36176
G1 X58.867 Y61.656 E25.43596
G1 X59.373 Y61.955 E25.50648
G1 X59.875 Y62.312 E25.58040
G1 X60.336 Y62.714 E25.65380
G1 X60.750 Y63.142 E25.72526
G1 X61.116 Y63.603 E25.79589
G1 X61.462 Y64.122 E25.87075
G1 X61.734 Y64.631 E25.94000
G1 X61.985 Y65.217 E26.01650
G1 X62.155 Y65.748 E26.08340
G1 X62.296 Y66.380 E26.16111
G1 X62.370 Y66.946 E26.22961
G1 X62.392 Y67.580 E26.30573
G1 X62.362 Y68.158 E26.37519
G1 X62.272 Y68.764 E26.44870
G1 X62.134 Y69.346 E26.52048
G1 X61.935 Y69.926 E26.59406
G1 X61.698 Y70.463 E26.66450
G1 X61.413 Y70.970 E26.73429
G1 X61.057 Y71.499 E26.81081
G1 X60.411 Y72.229 E26.92778
G1 X59.954 Y72.644 E27.00186
G1 X59.477 Y72.994 E27.07286
G1 X58.952 Y73.316 E27.14676
G1 X58.425 Y73.572 E27.21707
G1 X57.837 Y73.799 E27.29271
G1 X57.286 Y73.952 E27.36133
G1 X56.669 Y74.067 E27.43664
G1 X56.079 Y74.120 E27.50773
G1 X55.872 Y74.127 E27.53258
G1 X55.283 Y74.108 E27.60330
G1 X54.657 Y74.033 E27.67896
G1 X54.095 Y73.911 E27.74797
G1 X53.501 Y73.725 E27.82266
G1 X52.967 Y73.502 E27.89210
G1 X52.406 Y73.204 E27.96833
G1 X51.917 Y72.886 E28.03833
G1 X51.435 Y72.505 E28.11205
G1 X51.012 Y72.105 E28.18192
G1 X50.596 Y71.628 E28.25787
G1 X50.259 Y71.165 E28.32658
G1 X49.956 Y70.656 E28.39767
G1 X49.681 Y70.095 E28.47264
G1 X49.482 Y69.554 E28.54181
G1 X49.314 Y68.949 E28.61716
G1 X49.215 Y68.381 E28.68635
G1 X49.160 Y67.747 E28.76271
G1 X49.157 Y67.352 E28.81012
G1 X49.198 Y66.782 E28.87869
G1 X49.297 Y66.146 E28.95593
G1 X49.506 Y65.382 E29.05098
G1 X49.717 Y64.847 E29.11999
G1 X50.004 Y64.269 E29.19743
G1 X50.307 Y63.781 E29.26636
G1 X50.678 Y63.286 E29.34059
G1 X50.939 Y62.990 E29.38795
G1 X51.369 Y62.572 E29.45991
G0 F9000 X53.762 Y64.897
G1 F1200 X53.409 Y65.210 E29.51653
G1 X53.075 Y65.615 E29.57952
G1 X52.755 Y66.181 E29.65755
G1 X52.554 Y66.791 E29.73462
G1 X52.497 Y67.134 E29.77634
G1 X52.477 Y67.461 E29.81565
G1 X52.489 Y67.803 E29.85672
G1 X52.607 Y68.438 E29.93422
G1 X52.856 Y69.048 E30.01329
G1 X53.213 Y69.584 E30.09057
G1 X53.448 Y69.843 E30.13254
G1 X53.839 Y70.181 E30.19456
G1 X54.389 Y70.503 E30.27104
G1 X54.724 Y70.637 E30.31433
G1 X55.338 Y70.780 E30.38998
G1 X55.688 Y70.806 E30.43210
G1 X56.203 Y70.781 E30.49397
G1 X56.840 Y70.633 E30.57245
G1 X57.437 Y70.359 E30.65127
G1 X57.960 Y69.982 E30.72864
G1 X58.206 Y69.739 E30.77013
G1 X58.416 Y69.486 E30.80959
G1 X58.605 Y69.205 E30.85023
G1 X58.886 Y68.606 E30.92962
G1 X59.017 Y68.118 E30.99026
G1 X59.068 Y67.666 E31.04484
G1 X59.073 Y67.442 E31.07173
G1 X59.002 Y66.822 E31.14661
G1 X58.911 Y66.491 E31.18781
G1 X58.796 Y66.184 E31.22715
G1 X58.648 Y65.887 E31.26697
G1 X58.471 Y65.608 E31.30662
G1 X58.259 Y65.338 E31.34781
G1 X57.795 Y64.900 E31.42438
G1 X57.356 Y64.615 E31.48719
G1 X56.928 Y64.419 E31.54368
G1 X56.430 Y64.275 E31.60588
G1 X55.980 Y64.219 E31.66030
G1 X55.757 Y64.211 E31.68708
G1 X55.136 Y64.272 E31.76196
G1 X54.792 Y64.359 E31.80454
G1 X54.338 Y64.543 E31.86332
G1 X54.183 Y64.620 E31.88409
G1 X53.762 Y64.897 E31.94456
G0 F9000 X54.006 Y65.216
;TYPE:WALL-OUTER
G1 F1200 X53.698 Y65.489 E31.99395
G1 X53.406 Y65.842 E32.04893
G1 X53.122 Y66.344 E32.11814
G1 X52.943 Y66.887 E32.18675
G1 X52.895 Y67.179 E32.22226
G1 X52.878 Y67.466 E32.25676
G1 X52.888 Y67.760 E32.29206
G1 X52.993 Y68.325 E32.36102
G1 X53.211 Y68.860 E32.43035
G1 X53.529 Y69.337 E32.49914
G1 X53.728 Y69.556 E32.53465
G1 X54.073 Y69.854 E32.58935
G1 X54.566 Y70.143 E32.65793
G1 X54.844 Y70.254 E32.69385
G1 X55.399 Y70.383 E32.76223
G1 X55.693 Y70.405 E32.79761
G1 X56.148 Y70.383 E32.85227
G1 X56.710 Y70.252 E32.92152
G1 X57.235 Y70.012 E32.99079
G1 X57.701 Y69.676 E33.05973
G1 X57.911 Y69.468 E33.09520
G1 X58.095 Y69.246 E33.12980
G1 X58.258 Y69.004 E33.16481
G1 X58.506 Y68.479 E33.23449
G1 X58.623 Y68.043 E33.28866
G1 X58.669 Y67.639 E33.33745
G1 X58.672 Y67.461 E33.35881
G1 X58.608 Y66.898 E33.42681
G1 X58.530 Y66.614 E33.46215
G1 X58.429 Y66.344 E33.49674
G1 X58.144 Y65.839 E33.56633
G1 X57.962 Y65.608 E33.60162
G1 X57.547 Y65.216 E33.67012
G1 X57.163 Y64.966 E33.72511
G1 X56.789 Y64.795 E33.77446
G1 X56.349 Y64.668 E33.82941
G1 X55.947 Y64.618 E33.87802
G1 X55.769 Y64.612 E33.89939
G1 X55.205 Y64.667 E33.96740
G1 X54.917 Y64.740 E34.00305
G1 X54.383 Y64.967 E34.07268
G1 X54.006 Y65.216 E34.12689
G0 F9000 X53.808 Y64.991
G0 X51.794 Y62.097
G0 X51.611 Y61.859
G1 F1200 X51.953 Y61.622 E34.17683
G1 X52.498 Y61.303 E34.25261
G1 X53.093 Y61.024 E34.33147
G1 X53.670 Y60.814 E34.40515
G1 X54.319 Y60.645 E34.48563
G1 X54.928 Y60.541 E34.55976
G1 X55.582 Y60.494 E34.63845
G1 X55.768 Y60.489 E34.66077
G1 X56.632 Y60.542 E34.76465
G1 X57.230 Y60.646 E34.83749
G1 X57.877 Y60.812 E34.91764
G1 X58.464 Y61.028 E34.99270
G1 X59.051 Y61.300 E35.07033
G1 X59.587 Y61.617 E35.14506
G1 X60.124 Y61.998 E35.22407
G1 X60.599 Y62.413 E35.29976
G1 X61.055 Y62.882 E35.37826
G1 X61.444 Y63.372 E35.45334
G1 X61.807 Y63.918 E35.53201
G1 X62.094 Y64.454 E35.60497
G1 X62.361 Y65.079 E35.68653
G1 X62.544 Y65.650 E35.75848
G1 X62.690 Y66.307 E35.83925
G1 X62.769 Y66.908 E35.91199
G1 X62.793 Y67.577 E35.99232
G1 X62.760 Y68.196 E36.06670
G1 X62.665 Y68.841 E36.14494
G1 X62.519 Y69.455 E36.22067
G1 X62.307 Y70.073 E36.29908
G1 X62.054 Y70.646 E36.37424
G1 X61.757 Y71.175 E36.44704
G1 X61.380 Y71.736 E36.52815
G1 X61.116 Y72.067 E36.57896
G1 X60.695 Y72.512 E36.65247
G1 X60.202 Y72.958 E36.73224
G1 X59.707 Y73.322 E36.80598
G1 X59.142 Y73.669 E36.88554
G1 X58.590 Y73.937 E36.95918
G1 X57.965 Y74.178 E37.03956
G1 X57.375 Y74.342 E37.11304
G1 X56.715 Y74.465 E37.19361
G1 X56.108 Y74.519 E37.26673
G1 X55.874 Y74.528 E37.29483
G1 X55.258 Y74.507 E37.36880
G1 X54.588 Y74.427 E37.44977
G1 X54.000 Y74.300 E37.52196
G1 X53.364 Y74.100 E37.60196
G1 X52.791 Y73.862 E37.67642
G1 X52.205 Y73.550 E37.75608
G1 X51.686 Y73.213 E37.83034
G1 X51.162 Y72.798 E37.91055
G1 X50.727 Y72.386 E37.98245
G1 X50.285 Y71.880 E38.06307
G1 X49.916 Y71.373 E38.13832
G1 X49.607 Y70.854 E38.21080
G1 X49.313 Y70.252 E38.29120
G1 X49.101 Y69.676 E38.36485
G1 X48.922 Y69.033 E38.44494
G1 X48.817 Y68.427 E38.51875
G1 X48.760 Y67.772 E38.59764
G1 X48.757 Y67.339 E38.64960
G1 X48.800 Y66.736 E38.72215
G1 X48.905 Y66.065 E38.80365
G1 X49.001 Y65.665 E38.85301
G1 X49.124 Y65.260 E38.90380
G1 X49.358 Y64.668 E38.98019
G1 X49.647 Y64.086 E39.05817
G1 X49.980 Y63.551 E39.13379
G1 X50.367 Y63.034 E39.21128
G1 X50.658 Y62.705 E39.26399
G1 X51.100 Y62.275 E39.33799
G1 X51.611 Y61.859 E39.41706
G0 F9000 X51.874 Y62.339
;TYPE:SKIN
G1 F900 X54.063 Y64.529 E39.78863
G0 F9000 X53.722 Y64.753
G1 F900 X51.562 Y62.593 E40.15520
G0 F9000 X51.268 Y62.864
G1 F900 X53.417 Y65.014 E40.51998
G0 F9000 X53.146 Y65.308
G1 F900 X50.985 Y63.147 E40.88671
G0 F9000 X50.725 Y63.453
G1 F900 X52.904 Y65.632 E41.25650
G0 F9000 X52.699 Y65.993
G1 F900 X50.483 Y63.777 E41.63257
G0 F9000 X50.260 Y64.119
G1 F900 X52.536 Y66.395 E42.01882
G0 F9000 X52.405 Y66.830
G1 F900 X50.054 Y64.479 E42.41780
G0 F9000 X49.866 Y64.857
G1 F900 X52.344 Y67.335 E42.83833
G0 F9000 X52.370 Y67.926
G1 F900 X49.703 Y65.259 E43.29093
G0 F9000 X49.566 Y65.688
G1 F900 X52.553 Y68.675 E43.79784
G0 F9000 X54.626 Y70.748
G1 F900 X57.596 Y73.718 E44.30187
G0 F9000 X58.019 Y73.575
G1 F900 X55.365 Y70.921 E44.75227
G0 F9000 X55.942 Y70.933
G1 F900 X58.424 Y73.415 E45.17348
G0 F9000 X58.805 Y73.230
G1 F900 X56.444 Y70.869 E45.57415
G0 F9000 X56.899 Y70.758
G1 F900 X59.162 Y73.022 E45.95828
G0 F9000 X59.505 Y72.799
G1 F900 X57.287 Y70.581 E46.33469
G0 F9000 X57.649 Y70.377
G1 F900 X59.831 Y72.559 E46.70498
G0 F9000 X60.130 Y72.293
G1 F900 X57.978 Y70.140 E47.07028
G0 F9000 X58.272 Y69.869
G1 F900 X60.415 Y72.011 E47.43387
G0 F9000 X60.681 Y71.711
G1 F900 X58.531 Y69.562 E47.79865
G0 F9000 X58.753 Y69.218
G1 F900 X60.946 Y71.412 E48.17090
G0 F9000 X61.173 Y71.073
G1 F900 X58.933 Y68.833 E48.55104
G0 F9000 X59.081 Y68.415
G1 F900 X61.391 Y70.724 E48.94298
G0 F9000 X61.591 Y70.359
G1 F900 X59.176 Y67.944 E49.35282
G0 F9000 X59.209 Y67.412
G1 F900 X61.764 Y69.966 E49.78633
G0 F9000 X61.915 Y69.552
G1 F900 X59.133 Y66.769 E50.25854
G0 F9000 X58.792 Y65.863
G1 F900 X62.045 Y69.116 E50.81059
G0 F9000 X62.147 Y68.652
G1 F900 X54.632 Y61.137 E52.08593
G0 F9000 X54.170 Y61.241
G1 F900 X57.417 Y64.488 E52.63696
G0 F9000 X56.515 Y64.152
G1 F900 X53.730 Y61.366 E53.10968
G0 F9000 X53.315 Y61.518
G1 F900 X55.871 Y64.073 E53.54336
G0 F9000 X55.341 Y64.109
G1 F900 X52.928 Y61.696 E53.95286
G0 F9000 X52.559 Y61.893
G1 F900 X54.861 Y64.195 E54.34352
G0 F9000 X54.447 Y64.346
G1 F900 X52.204 Y62.103 E54.72417
G0 F9000 X55.127 Y61.067
G1 F900 X62.219 Y68.159 E55.92772
G0 F9000 X62.249 Y67.623
G1 F900 X55.658 Y61.032 E57.04625
G0 F9000 X56.251 Y61.059
G1 F900 X62.233 Y67.041 E58.06143
G0 F9000 X62.156 Y66.399
G1 F900 X56.892 Y61.135 E58.95476
G0 F9000 X57.628 Y61.305
G1 F900 X61.980 Y65.657 E59.69332
G0 F9000 X61.629 Y64.740
G1 F900 X58.553 Y61.664 E60.21533
G0 F9000 X49.445 Y66.132
G1 F900 X57.146 Y73.833 E61.52224
G0 F9000 X56.669 Y73.923
G1 F900 X49.364 Y66.617 E62.76202
G0 F9000 X49.312 Y67.131
G1 F900 X56.153 Y73.972 E63.92298
G0 F9000 X55.592 Y73.976
G1 F900 X49.299 Y67.684 E64.99085
G0 F9000 X49.347 Y68.298
