;FLAVOR:UltiGCode
;TIME:2621
;MATERIAL:4501
;MATERIAL2:0

;Layer count: 15
;LAYER:0
M107
G0 F9000 X109.650 Y51.356 Z0.300
;TYPE:SKIRT
G1 F1200 X110.388 Y50.139 E0.17079
G1 X111.434 Y49.324 E0.32992
G1 X111.432 Y48.682 E0.40696
G1 X118.541 Y48.682 E1.26004
G1 X118.541 Y49.332 E1.33804
G1 X119.125 Y49.726 E1.42257
G1 X119.802 Y50.431 E1.53987
G1 X120.373 Y51.417 E1.67659
G1 X120.635 Y52.545 E1.81556
G1 X120.633 Y53.614 E1.94384
G1 X120.656 Y54.123 E2.00498
G1 X120.340 Y55.400 E2.16284
G1 X120.217 Y55.596 E2.19061
G1 X120.217 Y56.380 E2.28469
G1 X120.922 Y56.380 E2.36929
G1 X120.931 Y65.286 E3.43801
G1 X108.945 Y65.286 E4.87633
G1 X108.954 Y56.380 E5.94505
G1 X109.781 Y56.380 E6.04429
G1 X109.781 Y55.692 E6.12685
G1 X109.445 Y54.596 E6.26441
G1 X109.367 Y53.970 E6.34011
G1 X109.368 Y53.092 E6.44547
G1 X109.355 Y52.563 E6.50897
G1 X109.650 Y51.356 E6.65808
G0 F9000 X110.024 Y51.511
G1 F1200 X110.692 Y50.410 E6.81261
G1 X111.763 Y49.575 E6.97558
G1 X111.836 Y49.547 E6.98496
G1 X111.834 Y49.082 E7.04076
G1 X118.141 Y49.082 E7.79760
G1 X118.141 Y49.545 E7.85316
G1 X118.866 Y50.034 E7.95810
G1 X119.480 Y50.673 E8.06444
G1 X119.997 Y51.565 E8.18816
G1 X120.235 Y52.590 E8.31443
G1 X120.233 Y53.630 E8.43923
G1 X120.254 Y54.083 E8.49365
G1 X119.967 Y55.242 E8.63693
G1 X119.817 Y55.481 E8.67079
G1 X119.817 Y56.780 E8.82667
G1 X120.522 Y56.780 E8.91127
G1 X120.531 Y64.886 E9.88399
G1 X109.345 Y64.886 E11.22631
G1 X109.354 Y56.780 E12.19903
G1 X110.182 Y56.780 E12.29839
G1 X110.181 Y55.555 E12.44539
G1 X110.142 Y55.505 E12.45300
G1 X109.838 Y54.512 E12.57762
G1 X109.767 Y53.946 E12.64607
G1 X109.768 Y53.083 E12.74963
G1 X109.756 Y52.606 E12.80689
G1 X110.024 Y51.511 E12.94217
G0 F9000 X110.397 Y51.666
G1 F1200 X110.995 Y50.680 E13.08055
G1 X111.962 Y49.928 E13.22755
G1 X112.236 Y49.824 E13.26272
G1 X112.235 Y49.482 E13.30376
G1 X117.741 Y49.482 E13.96448
G1 X117.741 Y49.807 E14.00348
G1 X117.891 Y49.858 E14.02249
G1 X118.607 Y50.342 E14.12620
G1 X119.158 Y50.916 E14.22168
G1 X119.621 Y51.714 E14.33239
G1 X119.835 Y52.636 E14.44597
G1 X119.833 Y53.627 E14.56489
G1 X119.852 Y54.043 E14.61486
G1 X119.594 Y55.084 E14.74356
G1 X119.417 Y55.366 E14.78352
G1 X119.417 Y56.406 E14.90832
G1 X119.416 Y57.180 E15.00120
G1 X120.122 Y57.180 E15.08592
G1 X120.131 Y64.486 E15.96264
G1 X109.745 Y64.486 E17.20896
G1 X109.754 Y57.180 E18.08568
G1 X110.582 Y57.180 E18.18504
G1 X110.581 Y55.418 E18.39648
G1 X110.503 Y55.317 E18.41179
G1 X110.230 Y54.428 E18.52339
G1 X110.167 Y53.921 E18.58469
G1 X110.168 Y53.074 E18.68634
G1 X110.157 Y52.649 E18.73735
G1 X110.397 Y51.666 E18.85878
G10
G0 F9000 X115.283 Y57.950
;TYPE:FILL
G11
G1 F1200 X115.476 Y58.143 E18.89153
G0 F9000 X114.520 Y58.801
G1 F1200 X115.476 Y59.758 E19.05385
G0 F9000 X114.649 Y60.546
G1 F1200 X114.520 Y60.416 E19.07583
G0 F9000 X114.381 Y58.005
;TYPE:WALL-INNER
G1 F1200 X114.382 Y57.810 E19.09923
G1 X115.617 Y57.810 E19.24743
G1 X115.617 Y60.686 E19.59255
G1 X114.382 Y60.686 E19.74075
G1 X114.381 Y58.005 E20.06247
G0 F9000 X113.981 Y58.003
;TYPE:WALL-OUTER
G1 F1200 X113.982 Y53.877 E20.55759
G1 X113.668 Y53.806 E20.59622
G1 X113.610 Y53.774 E20.60417
G1 X113.570 Y53.723 E20.61195
G1 X113.567 Y53.712 E20.61332
G1 X113.568 Y53.031 E20.69504
G1 X113.575 Y52.983 E20.70086
G1 X113.648 Y52.924 E20.71212
G1 X113.751 Y52.892 E20.72506
G1 X114.311 Y52.882 E20.79228
G1 X114.342 Y52.882 E20.79600
G1 X114.342 Y57.410 E21.33936
G1 X115.646 Y57.410 E21.49584
G1 X115.646 Y52.882 E22.03920
G1 X116.275 Y52.899 E22.11470
G1 X116.361 Y52.928 E22.12559
G1 X116.424 Y52.977 E22.13517
G1 X116.434 Y53.022 E22.14070
G1 X116.433 Y53.705 E22.22266
G1 X116.418 Y53.751 E22.22847
G1 X116.341 Y53.804 E22.23969
G1 X116.240 Y53.832 E22.25226
G1 X116.017 Y53.856 E22.27918
G1 X116.017 Y60.580 E23.08606
G1 X116.726 Y60.580 E23.17114
G1 X116.727 Y61.086 E23.23186
G1 X113.149 Y61.086 E23.66122
G1 X113.150 Y60.580 E23.72194
G1 X113.982 Y60.580 E23.82178
G1 X113.981 Y58.003 E24.13102
G0 F9000 X114.520 Y58.234
;TYPE:SKIN
G1 F900 X115.476 Y59.191 E24.29334
G0 F9000 X115.476 Y59.756
G1 F900 X114.520 Y58.800 E24.45558
G0 F9000 X114.520 Y59.365
G1 F900 X115.476 Y60.322 E24.61790
G0 F9000 X115.134 Y60.546
G1 F900 X114.520 Y59.931 E24.72219
G0 F9000 X115.476 Y58.625
G1 F900 X114.801 Y57.950 E24.83674
G0 F9000 X115.367 Y57.950
G1 F900 X115.476 Y58.059 E24.85524
;LAYER:1
M106 S255
G0 F9000 X115.807 Y59.951 Z0.500
;TYPE:WALL-INNER
G1 F1140 X115.806 Y60.686 E24.91404
G1 X114.193 Y60.686 E25.04308
G1 X114.194 Y57.810 E25.27316
G1 X115.805 Y57.810 E25.40204
G1 X115.807 Y59.951 E25.57332
G10
G0 F9000 X116.203 Y53.460
G11
G1 F1140 X116.047 Y53.479 E25.58589
G1 X116.047 Y53.283 E25.60157
G1 X116.203 Y53.285 E25.61405
G1 X116.203 Y53.460 E25.62805
G10
G0 F9000 X113.797 Y53.467
G11
G1 F1140 X113.797 Y53.282 E25.64285
G1 X113.942 Y53.282 E25.65445
G1 X113.942 Y53.492 E25.67125
G1 X113.797 Y53.467 E25.68302
G0 F9000 X113.791 Y53.871
;TYPE:WALL-OUTER
G1 F840 X113.510 Y53.823 E25.70583
G1 X113.442 Y53.793 E25.71177
G1 X113.431 Y53.784 E25.71291
G1 X113.420 Y53.771 E25.71427
G1 X113.396 Y53.710 E25.71952
G1 X113.397 Y53.257 E25.75576
G1 X113.396 Y53.018 E25.77488
G1 X113.403 Y52.984 E25.77765
G1 X113.433 Y52.941 E25.78185
G1 X113.493 Y52.905 E25.78745
G1 X113.614 Y52.882 E25.79730
G1 X114.342 Y52.882 E25.85554
G1 X114.342 Y57.410 E26.21778
G1 X115.646 Y57.410 E26.32210
G1 X115.646 Y52.882 E26.68434
G1 X116.434 Y52.888 E26.74738
G1 X116.510 Y52.906 E26.75363
G1 X116.571 Y52.944 E26.75938
G1 X116.601 Y52.986 E26.76351
G1 X116.604 Y53.713 E26.82167
G1 X116.588 Y53.763 E26.82587
G1 X116.509 Y53.819 E26.83362
G1 X116.211 Y53.862 E26.85770
G1 X116.211 Y54.589 E26.91586
G1 X116.205 Y55.247 E26.96850
G1 X116.206 Y60.580 E27.39514
G1 X116.908 Y60.580 E27.45130
G1 X116.909 Y61.086 E27.49178
G1 X113.022 Y61.086 E27.80274
G1 X113.023 Y60.580 E27.84322
G1 X113.793 Y60.580 E27.90482
G1 X113.791 Y53.871 E28.44154
G0 F9000 X113.843 Y53.577
G0 X114.001 Y53.223
G0 X114.001 Y57.751
G0 X114.866 Y57.950
;TYPE:SKIN
G1 F540 X114.333 Y58.483 E28.50185
G0 F9000 X114.333 Y59.049
G1 F540 X115.432 Y57.950 E28.62618
G0 F9000 X115.664 Y58.283
G1 F540 X114.333 Y59.614 E28.77677
G0 F9000 X114.333 Y60.180
G1 F540 X115.664 Y58.849 E28.92736
G0 F9000 X115.664 Y59.415
G1 F540 X114.533 Y60.546 E29.05531
G0 F9000 X115.099 Y60.546
G1 F540 X115.664 Y59.981 E29.11924
;LAYER:2
G0 F9000 X114.052 Y59.612 Z0.700
;TYPE:WALL-INNER
G1 F1560 X114.054 Y57.814 E29.26308
G1 X115.948 Y57.810 E29.41460
G1 X115.949 Y57.863 E29.41884
G1 X115.947 Y60.686 E29.64468
G1 X114.054 Y60.686 E29.79612
G1 X114.052 Y59.612 E29.88204
G0 F9000 X115.987 Y57.751
G0 X116.046 Y53.489
G1 F1560 X116.046 Y53.282 E29.89860
G1 X116.333 Y53.282 E29.92156
G1 X116.334 Y53.460 E29.93580
G1 X116.046 Y53.489 E29.95895
G0 F9000 X115.987 Y57.751
G0 X114.001 Y57.751
G0 X113.942 Y53.282
G1 F1560 X113.942 Y53.496 E29.97607
G1 X113.666 Y53.462 E29.99832
G1 X113.666 Y53.287 E30.01232
G1 X113.942 Y53.282 E30.03440
G0 F9000 X113.653 Y53.864
;TYPE:WALL-OUTER
G1 F960 X113.384 Y53.831 E30.05609
G1 X113.316 Y53.801 E30.06203
G1 X113.284 Y53.770 E30.06560
G1 X113.267 Y53.721 E30.06974
G1 X113.265 Y53.030 E30.12503
G1 X113.293 Y52.940 E30.13257
G1 X113.319 Y52.916 E30.13540
G1 X113.377 Y52.892 E30.14042
G1 X113.916 Y52.882 E30.18355
G1 X114.342 Y52.882 E30.21763
G1 X114.342 Y57.410 E30.57987
G1 X115.646 Y57.410 E30.68419
G1 X115.646 Y52.882 E31.04643
G1 X116.475 Y52.882 E31.11275
G1 X116.611 Y52.890 E31.12364
G1 X116.679 Y52.918 E31.12953
G1 X116.717 Y52.957 E31.13388
G1 X116.733 Y52.996 E31.13726
G1 X116.734 Y53.716 E31.19486
G1 X116.728 Y53.747 E31.19738
G1 X116.682 Y53.805 E31.20330
G1 X116.616 Y53.833 E31.20904
G1 X116.346 Y53.860 E31.23075
G1 X116.348 Y55.235 E31.34075
G1 X116.349 Y55.268 E31.34339
G1 X116.348 Y57.818 E31.54739
G1 X116.349 Y57.839 E31.54907
G1 X116.347 Y60.580 E31.76835
G1 X117.010 Y60.580 E31.82139
G1 X117.010 Y61.086 E31.86187
G1 X112.955 Y61.086 E32.18627
G1 X112.956 Y60.580 E32.22675
G1 X113.653 Y60.580 E32.28251
G1 X113.653 Y53.864 E32.81979
G0 F9000 X113.919 Y53.674
;TYPE:SKIN
G1 F540 X113.996 Y54.033 E32.84483
G1 X113.996 Y54.599 E32.87755
G1 X113.996 Y55.165 E32.91026
G1 X113.996 Y55.730 E32.94292
G1 X113.996 Y56.296 E32.97563
G1 X113.996 Y56.862 E33.00835
G1 X113.996 Y57.427 E33.04100
G1 X113.919 Y57.634 E33.05867
G0 F9000 X114.240 Y57.954
G1 F540 X115.807 Y59.522 E33.23602
G0 F9000 X115.807 Y60.087
G1 F540 X114.192 Y58.472 E33.41873
G0 F9000 X114.192 Y59.038
G1 F540 X115.700 Y60.546 E33.58934
G0 F9000 X115.134 Y60.546
G1 F540 X114.192 Y59.604 E33.69592
G0 F9000 X115.807 Y58.956
G1 F540 X114.804 Y57.953 E33.80939
G0 F9000 X115.368 Y57.951
G1 F540 X115.808 Y58.391 E33.85917
G0 F9000 X116.147 Y57.599
G1 F540 X115.996 Y57.164 E33.89334
G1 X115.996 Y56.599 E33.92747
G1 X115.996 Y56.034 E33.96159
G1 X115.996 Y55.468 E33.99589
G1 X115.996 Y54.902 E34.03008
G1 X115.995 Y54.335 E34.06421
G1 X115.845 Y53.902 E34.10087
G0 F9000 X115.946 Y53.902
G0 X115.987 Y57.751
G0 X114.192 Y60.169
G1 F540 X114.568 Y60.546 E34.14347
;LAYER:3
G0 F9000 X114.684 Y60.546 Z0.900
;TYPE:FILL
G1 F2520 X115.909 Y59.321 E34.28206
G0 F9000 X115.665 Y57.950
G1 F2520 X114.086 Y59.529 E34.46070
G0 F9000 X113.947 Y57.981
;TYPE:WALL-INNER
G1 F1980 X113.946 Y57.810 E34.47438
G1 X116.046 Y57.810 E34.64238
G1 X116.046 Y53.282 E35.00462
G1 X116.431 Y53.282 E35.03542
G1 X116.431 Y53.459 E35.04958
G1 X116.052 Y53.494 E35.08003
G1 X116.053 Y59.414 E35.55363
G1 X116.051 Y60.686 E35.65539
G1 X113.948 Y60.686 E35.82363
G1 X113.947 Y57.981 E36.04003
G0 F9000 X113.898 Y53.555
G0 X113.569 Y53.463
G1 F1980 X113.569 Y53.286 E36.05419
G1 X113.942 Y53.282 E36.08404
G1 X113.942 Y53.509 E36.10220
G1 X113.569 Y53.463 E36.13226
G0 F9000 X113.548 Y53.864
;TYPE:WALL-OUTER
G1 F1020 X113.264 Y53.829 E36.15515
G1 X113.223 Y53.810 E36.15877
G1 X113.187 Y53.771 E36.16301
G1 X113.168 Y53.715 E36.16775
G1 X113.169 Y53.283 E36.20231
G1 X113.168 Y52.998 E36.22511
G1 X113.200 Y52.928 E36.23126
G1 X113.211 Y52.919 E36.23240
G1 X113.273 Y52.891 E36.23784
G1 X113.794 Y52.882 E36.27953
G1 X114.342 Y52.882 E36.32337
G1 X114.342 Y57.410 E36.68561
G1 X115.646 Y57.410 E36.78993
G1 X115.646 Y52.882 E37.15217
G1 X116.471 Y52.882 E37.21817
G1 X116.725 Y52.891 E37.23850
G1 X116.776 Y52.913 E37.24294
G1 X116.824 Y52.967 E37.24872
G1 X116.832 Y52.991 E37.25075
G1 X116.831 Y53.450 E37.28747
G1 X116.832 Y53.720 E37.30907
G1 X116.828 Y53.740 E37.31070
G1 X116.791 Y53.801 E37.31641
G1 X116.720 Y53.834 E37.32267
G1 X116.452 Y53.859 E37.34420
G1 X116.451 Y60.580 E37.88188
G1 X117.057 Y60.580 E37.93036
G1 X117.057 Y61.086 E37.97084
G1 X112.936 Y61.086 E38.30052
G1 X112.936 Y60.580 E38.34100
G1 X113.548 Y60.580 E38.38996
G1 X113.547 Y55.247 E38.81660
G1 X113.546 Y55.119 E38.82684
G1 X113.548 Y53.864 E38.92725
G0 F9000 X113.747 Y53.978
;TYPE:SKIN
G1 F540 X114.083 Y53.924 E38.95869
G1 X113.944 Y54.629 E39.00324
G1 X113.944 Y55.195 E39.04773
G1 X113.943 Y55.761 E39.09233
G1 X113.943 Y56.326 E39.13685
G1 X113.943 Y56.892 E39.18145
G1 X113.900 Y57.501 E39.22602
G1 X114.221 Y57.746 E39.23563
G1 X114.263 Y58.270 E39.25992
G1 X114.263 Y58.836 E39.29988
G1 X114.263 Y59.401 E39.33977
G1 X114.086 Y59.861 E39.37920
G0 F9000 X115.556 Y60.089
G1 F540 X115.732 Y59.629 E39.41909
G1 X115.732 Y59.063 E39.45894
G1 X115.732 Y58.498 E39.49883
G1 X115.909 Y58.038 E39.53826
G0 F9000 X115.909 Y60.301
G1 F540 X115.664 Y60.546 E39.56597
G0 F9000 X114.440 Y60.072
G1 F540 X114.086 Y60.427 E39.60608
;LAYER:4
G0 F9000 X114.010 Y59.906 Z1.100
;TYPE:FILL
G1 F3120 X114.649 Y60.546 E39.67843
G0 F9000 X115.985 Y60.266
G1 F3120 X114.010 Y58.291 E39.90188
G0 F9000 X115.283 Y57.950
G1 F3120 X115.986 Y58.653 E39.98141
G0 F9000 X116.129 Y58.141
;TYPE:WALL-INNER
G1 F2340 X116.126 Y60.686 E40.18501
G1 X113.871 Y60.686 E40.36541
G1 X113.871 Y59.448 E40.46445
G1 X113.874 Y57.814 E40.59517
G1 X113.872 Y53.491 E40.94101
G1 X113.496 Y53.458 E40.97121
G1 X113.497 Y53.282 E40.98529
G1 X113.942 Y53.282 E41.02089
G1 X113.942 Y57.810 E41.38313
G1 X116.046 Y57.810 E41.55145
G1 X116.046 Y53.282 E41.91369
G1 X116.505 Y53.283 E41.95041
G1 X116.504 Y53.458 E41.96441
G1 X116.128 Y53.491 E41.99461
G1 X116.128 Y55.071 E42.12101
G1 X116.129 Y55.535 E42.15813
G1 X116.128 Y57.815 E42.34053
G1 X116.129 Y58.141 E42.36661
G0 F9000 X115.646 Y57.410
;TYPE:WALL-OUTER
G1 F1140 X115.646 Y52.882 E42.72885
G1 X116.483 Y52.882 E42.79581
G1 X116.820 Y52.895 E42.82279
G1 X116.864 Y52.917 E42.82672
G1 X116.896 Y52.974 E42.83195
G1 X116.905 Y53.020 E42.83570
G1 X116.904 Y53.698 E42.88994
G1 X116.889 Y53.773 E42.89606
G1 X116.870 Y53.798 E42.89857
G1 X116.861 Y53.806 E42.89954
G1 X116.805 Y53.834 E42.90454
G1 X116.528 Y53.858 E42.92679
G1 X116.527 Y60.580 E43.46455
G1 X117.064 Y60.580 E43.50751
G1 X117.064 Y61.086 E43.54799
G1 X112.936 Y61.086 E43.87823
G1 X112.936 Y60.580 E43.91871
G1 X113.471 Y60.580 E43.96151
G1 X113.472 Y53.858 E44.49927
G1 X113.199 Y53.834 E44.52119
G1 X113.141 Y53.807 E44.52631
G1 X113.120 Y53.786 E44.52869
G1 X113.096 Y53.714 E44.53476
G1 X113.097 Y53.011 E44.59100
G1 X113.113 Y52.947 E44.59627
G1 X113.142 Y52.912 E44.59991
G1 X113.192 Y52.889 E44.60431
G1 X114.342 Y52.882 E44.69632
G1 X114.342 Y57.410 E45.05856
G1 X115.646 Y57.410 E45.16288
G0 F9000 X115.646 Y57.710
G0 X114.252 Y58.532
;TYPE:SKIN
G1 F540 X114.010 Y58.573 E45.19027
G1 X114.131 Y59.259 E45.21757
G1 X114.131 Y59.825 E45.24486
G1 X114.252 Y60.229 E45.27859
;LAYER:5
G0 F9000 X114.684 Y60.546 Z1.300
;TYPE:FILL
G1 F1620 X116.036 Y59.194 E45.43156
G0 F9000 X115.665 Y57.950
G1 F1620 X113.960 Y59.655 E45.62445
G0 F9000 X113.960 Y58.040
G1 F1620 X114.050 Y57.950 E45.63464
G0 F9000 X113.942 Y57.810
;TYPE:WALL-INNER
G1 F1200 X116.046 Y57.810 E45.80296
G1 X116.046 Y53.282 E46.16520
G1 X116.550 Y53.282 E46.20552
G1 X116.551 Y53.458 E46.21960
G1 X116.178 Y53.490 E46.24955
G1 X116.179 Y57.180 E46.54475
G1 X116.178 Y57.814 E46.59547
G1 X116.179 Y59.899 E46.76227
G1 X116.178 Y60.686 E46.82523
G1 X113.820 Y60.686 E47.01387
G1 X113.823 Y55.248 E47.44891
G1 X113.821 Y54.401 E47.51667
G1 X113.824 Y53.504 E47.58843
G1 X113.450 Y53.463 E47.61853
G1 X113.450 Y53.285 E47.63277
G1 X113.942 Y53.282 E47.67213
G1 X113.942 Y57.810 E48.03437
G0 F9000 X114.342 Y57.410
;TYPE:WALL-OUTER
G1 F600 X115.646 Y57.410 E48.13869
G1 X115.646 Y52.882 E48.50093
G1 X116.545 Y52.882 E48.57285
G1 X116.860 Y52.891 E48.59806
G1 X116.913 Y52.917 E48.60278
G1 X116.944 Y52.971 E48.60776
G1 X116.951 Y53.712 E48.66704
G1 X116.929 Y53.787 E48.67330
G1 X116.865 Y53.833 E48.67960
G1 X116.578 Y53.857 E48.70264
G1 X116.578 Y60.580 E49.24048
G1 X117.064 Y60.580 E49.27936
G1 X117.064 Y61.086 E49.31984
G1 X112.936 Y61.086 E49.65008
G1 X112.936 Y60.580 E49.69056
G1 X113.421 Y60.580 E49.72936
G1 X113.422 Y53.862 E50.26680
G1 X113.127 Y53.829 E50.29055
G1 X113.105 Y53.820 E50.29245
G1 X113.060 Y53.768 E50.29795
G1 X113.050 Y53.735 E50.30071
G1 X113.049 Y53.713 E50.30247
G1 X113.050 Y53.508 E50.31887
G1 X113.049 Y53.014 E50.35839
G1 X113.057 Y52.968 E50.36213
G1 X113.074 Y52.934 E50.36517
G1 X113.094 Y52.913 E50.36749
G1 X113.139 Y52.891 E50.37150
G1 X114.342 Y52.882 E50.46774
G1 X114.342 Y57.410 E50.82998
;LAYER:6
G0 F9000 X113.933 Y58.215 Z1.500
;TYPE:FILL
G1 F1620 X116.063 Y60.345 E51.07096
G0 F9000 X114.649 Y60.546
G1 F1620 X113.933 Y59.830 E51.15197
G0 F9000 X115.283 Y57.950
G1 F1620 X116.063 Y58.730 E51.24021
G0 F9000 X116.046 Y57.810
;TYPE:WALL-INNER
G1 F1200 X116.046 Y53.282 E51.60245
G1 X116.575 Y53.282 E51.64477
G1 X116.575 Y53.458 E51.65885
G1 X116.204 Y53.489 E51.68864
G1 X116.204 Y54.697 E51.78528
G1 X116.205 Y55.248 E51.82936
G1 X116.204 Y60.686 E52.26440
G1 X113.795 Y60.686 E52.45712
G1 X113.794 Y58.206 E52.65552
G1 X113.795 Y53.489 E53.03288
G1 X113.425 Y53.458 E53.06258
G1 X113.425 Y53.285 E53.07642
G1 X113.942 Y53.282 E53.11778
G1 X113.942 Y57.810 E53.48002
G1 X116.046 Y57.810 E53.64834
G0 F9000 X115.646 Y57.410
;TYPE:WALL-OUTER
G1 F600 X115.646 Y52.882 E54.01058
G1 X116.835 Y52.882 E54.10570
G1 X116.926 Y52.906 E54.11323
G1 X116.960 Y52.949 E54.11762
G1 X116.976 Y53.001 E54.12197
G1 X116.975 Y53.438 E54.15693
