;FLAVOR:UltiGCode
;TIME:9564
;MATERIAL:10457
;MATERIAL2:0

;Layer count: 51
;LAYER:0
M107
G0 F9000 X53.560 Y69.047 Z0.300
;TYPE:SKIRT
G1 F1200 X55.684 Y67.548 E0.31196
G1 X57.071 Y66.692 E0.50755
G1 X62.965 Y66.692 E1.21483
G1 X64.505 Y67.679 E1.43433
G1 X66.435 Y69.057 E1.71890
G1 X66.442 Y75.438 E2.48462
G1 X65.530 Y75.438 E2.59406
G1 X65.529 Y76.170 E2.68190
G1 X65.530 Y78.776 E2.99462
G1 X65.529 Y80.494 E3.20078
G1 X65.530 Y81.219 E3.28778
G1 X67.397 Y81.219 E3.51182
G1 X67.397 Y90.892 E4.67258
G1 X52.595 Y90.892 E6.44882
G1 X52.595 Y81.219 E7.60958
G1 X54.460 Y81.219 E7.83338
G1 X54.460 Y81.066 E7.85174
G1 X54.461 Y76.165 E8.43986
G1 X54.459 Y75.597 E8.50802
G1 X54.459 Y75.438 E8.52710
G1 X53.567 Y75.438 E8.63414
G1 X53.560 Y69.047 E9.40106
G0 F9000 X53.960 Y69.254
G1 F1200 X55.904 Y67.882 E9.68659
G1 X57.184 Y67.092 E9.86709
G1 X62.848 Y67.092 E10.54677
G1 X64.281 Y68.010 E10.75099
G1 X66.035 Y69.263 E11.00966
G1 X66.041 Y75.038 E11.70266
G1 X65.130 Y75.038 E11.81198
G1 X65.129 Y76.169 E11.94770
G1 X65.130 Y78.776 E12.26054
G1 X65.129 Y80.494 E12.46670
G1 X65.130 Y81.619 E12.60170
G1 X66.997 Y81.619 E12.82574
G1 X66.997 Y90.492 E13.89050
G1 X52.995 Y90.492 E15.57074
G1 X52.995 Y81.619 E16.63550
G1 X54.860 Y81.619 E16.85930
G1 X54.860 Y81.066 E16.92566
G1 X54.861 Y76.165 E17.51378
G1 X54.859 Y75.597 E17.58194
G1 X54.860 Y75.038 E17.64902
G1 X53.966 Y75.038 E17.75630
G1 X53.960 Y69.254 E18.45038
G10
G0 F9000 X57.762 Y71.221
;TYPE:WALL-INNER
G11
G1 F1200 X58.263 Y70.892 E18.52230
G1 X58.469 Y70.892 E18.54702
G1 X58.469 Y71.238 E18.58854
G1 X57.762 Y71.238 E18.67338
G1 X57.762 Y71.221 E18.67542
G0 F9000 X58.469 Y71.161
G0 X58.528 Y79.487
G0 X61.464 Y79.487
G0 X61.520 Y70.908
G0 X61.735 Y70.892
G1 F1200 X62.237 Y71.220 E18.74738
G1 X62.237 Y71.238 E18.74954
G1 X61.523 Y71.238 E18.83522
G1 X61.523 Y70.892 E18.87674
G1 X61.735 Y70.892 E18.90218
G0 F9000 X61.389 Y71.297
G0 X61.329 Y79.546
G1 F1200 X61.330 Y85.419 E19.60694
G1 X63.197 Y85.419 E19.83098
G1 X63.197 Y86.692 E19.98374
G1 X56.795 Y86.692 E20.75198
G1 X56.795 Y85.419 E20.90474
G1 X58.662 Y85.419 E21.12878
G1 X58.661 Y79.546 E21.83354
G1 X61.329 Y79.546 E22.15370
G0 F9000 X61.123 Y79.146
;TYPE:WALL-OUTER
G1 F1200 X61.123 Y70.492 E23.19218
G1 X61.853 Y70.492 E23.27978
G1 X62.371 Y70.824 E23.35361
G1 X62.637 Y71.014 E23.39284
G1 X62.638 Y71.638 E23.46772
G1 X61.730 Y71.638 E23.57668
G1 X61.730 Y85.019 E25.18240
G1 X63.597 Y85.019 E25.40644
G1 X63.597 Y87.092 E25.65520
G1 X56.395 Y87.092 E26.51944
G1 X56.395 Y85.019 E26.76820
G1 X58.262 Y85.019 E26.99224
G1 X58.263 Y71.638 E28.59796
G1 X57.363 Y71.638 E28.70596
G1 X57.362 Y71.014 E28.78084
G1 X57.774 Y70.723 E28.84137
G1 X58.148 Y70.492 E28.89412
G1 X58.869 Y70.492 E28.98064
G1 X58.869 Y79.146 E30.01912
G1 X61.123 Y79.146 E30.28960
G0 F9000 X61.323 Y79.142
;TYPE:SKIN
G1 F900 X61.530 Y79.066 E30.32466
G1 X61.426 Y78.397 E30.35959
G1 X61.426 Y77.831 E30.39474
G1 X61.426 Y77.265 E30.42972
G1 X61.426 Y76.699 E30.46470
G1 X61.426 Y76.134 E30.49962
G1 X61.426 Y75.568 E30.53460
G1 X61.426 Y75.002 E30.56958
G1 X61.426 Y74.437 E30.60449
G1 X61.426 Y73.871 E30.63947
G1 X61.426 Y73.305 E30.67445
G1 X61.426 Y72.740 E30.70937
G1 X61.426 Y72.174 E30.74452
G1 X61.323 Y71.788 E30.79246
G0 F9000 X61.423 Y71.788
G0 X61.464 Y79.487
G0 X60.734 Y79.685
G1 F900 X61.189 Y80.139 E30.86959
G0 F9000 X61.189 Y80.705
G1 F900 X60.169 Y79.685 E31.04269
G0 F9000 X59.603 Y79.685
G1 F900 X61.189 Y81.271 E31.31184
G0 F9000 X61.189 Y81.837
G1 F900 X59.037 Y79.685 E31.67705
G0 F9000 X58.669 Y79.316
G1 F900 X58.565 Y78.930 E31.71207
G1 X58.565 Y78.364 E31.74705
G1 X58.565 Y77.798 E31.78202
G1 X58.565 Y77.233 E31.81694
G1 X58.565 Y76.667 E31.85209
G1 X58.565 Y76.101 E31.88707
G1 X58.565 Y75.536 E31.92199
G1 X58.565 Y74.970 E31.95713
G1 X58.565 Y74.404 E31.99211
G1 X58.565 Y73.839 E32.02703
G1 X58.565 Y73.273 E32.06218
G1 X58.565 Y72.707 E32.09716
G1 X58.565 Y72.141 E32.13214
G1 X58.462 Y71.755 E32.18008
G0 F9000 X58.562 Y71.755
G0 X58.528 Y79.487
G0 X58.801 Y80.014
G1 F900 X61.189 Y82.402 E32.58533
G0 F9000 X61.190 Y82.969
G1 F900 X58.801 Y80.580 E32.99076
G0 F9000 X58.801 Y81.146
G1 F900 X61.190 Y83.534 E33.39610
G0 F9000 X61.190 Y84.100
G1 F900 X58.801 Y81.711 E33.80153
G0 F9000 X58.801 Y82.277
G1 F900 X61.190 Y84.666 E34.20696
G0 F9000 X61.190 Y85.231
G1 F900 X58.801 Y82.843 E34.61230
G0 F9000 X58.801 Y83.408
G1 F900 X61.943 Y86.551 E35.14560
G0 F9000 X61.378 Y86.551
G1 F900 X58.801 Y83.974 E35.58293
G0 F9000 X58.801 Y84.540
G1 F900 X60.812 Y86.551 E35.92421
G0 F9000 X60.246 Y86.551
G1 F900 X58.801 Y85.105 E36.16952
G0 F9000 X58.688 Y85.558
G1 F900 X59.681 Y86.551 E36.33803
G0 F9000 X59.115 Y86.551
G1 F900 X58.122 Y85.558 E36.50655
G0 F9000 X57.557 Y85.558
G1 F900 X58.549 Y86.551 E36.67498
G0 F9000 X57.984 Y86.551
G1 F900 X56.991 Y85.558 E36.84350
G0 F9000 X56.934 Y86.067
G1 F900 X57.418 Y86.551 E36.92564
G0 F9000 X61.516 Y85.558
G1 F900 X62.509 Y86.551 E37.09416
G0 F9000 X63.056 Y86.532
G1 F900 X62.082 Y85.558 E37.25945
G0 F9000 X62.648 Y85.558
G1 F900 X63.056 Y85.967 E37.32878
;LAYER:1
M106 S127
G0 F9000 X61.447 Y85.419 Z0.400
;TYPE:WALL-INNER
G1 F1800 X63.197 Y85.419 E37.39878
G1 X63.197 Y86.692 E37.44970
G1 X56.795 Y86.692 E37.70578
G1 X56.795 Y85.419 E37.75670
G1 X58.543 Y85.419 E37.82662
G1 X58.543 Y79.546 E38.06154
G1 X61.450 Y79.546 E38.17782
G1 X61.450 Y80.493 E38.21570
G1 X61.452 Y80.971 E38.23482
G1 X61.447 Y85.419 E38.41274
G0 F9000 X61.508 Y71.297
G0 X62.288 Y71.182
G1 F1800 X62.324 Y71.209 E38.41454
G1 X62.324 Y71.238 E38.41570
G1 X61.523 Y71.238 E38.44774
G1 X61.523 Y70.892 E38.46158
G1 X61.858 Y70.892 E38.47498
G1 X62.288 Y71.182 E38.49572
G0 F9000 X61.522 Y71.128
G0 X61.464 Y79.487
G0 X58.528 Y79.487
G0 X58.468 Y70.914
G0 X58.142 Y70.892
G1 F1800 X58.469 Y70.892 E38.50880
G1 X58.469 Y71.238 E38.52264
G1 X57.675 Y71.238 E38.55440
G1 X57.675 Y71.216 E38.55528
G1 X58.142 Y70.892 E38.57802
G0 F9000 X58.144 Y71.638
;TYPE:WALL-OUTER
G1 F1320 X57.275 Y71.638 E38.61278
G1 X57.274 Y71.013 E38.63778
G1 X58.021 Y70.492 E38.67421
G1 X58.869 Y70.492 E38.70813
G1 X58.869 Y79.146 E39.05429
G1 X61.123 Y79.146 E39.14445
G1 X61.123 Y70.492 E39.49061
G1 X61.980 Y70.492 E39.52489
G1 X62.516 Y70.853 E39.55074
G1 X62.724 Y71.010 E39.56116
G1 X62.725 Y71.638 E39.58628
G1 X61.849 Y71.638 E39.62132
G1 X61.848 Y85.019 E40.15656
G1 X63.597 Y85.019 E40.22652
G1 X63.597 Y87.092 E40.30944
G1 X56.395 Y87.092 E40.59752
G1 X56.395 Y85.019 E40.68044
G1 X58.143 Y85.019 E40.75036
G1 X58.144 Y71.638 E41.28560
G0 F9000 X58.344 Y71.480
;TYPE:SKIN
G1 F900 X58.538 Y71.569 E41.28917
G1 X58.506 Y72.166 E41.30752
G1 X58.506 Y72.732 E41.32591
G1 X58.506 Y73.297 E41.34422
G1 X58.506 Y73.863 E41.36256
G1 X58.506 Y74.429 E41.38095
G1 X58.506 Y74.994 E41.39926
G1 X58.506 Y75.560 E41.41765
G1 X58.506 Y76.126 E41.43605
G1 X58.506 Y76.692 E41.45444
G1 X58.506 Y77.257 E41.47286
G1 X58.506 Y77.823 E41.49126
G1 X58.506 Y78.389 E41.50965
G1 X58.506 Y78.955 E41.52805
G1 X58.379 Y79.364 E41.54518
G0 F9000 X59.190 Y79.685
G1 F900 X58.682 Y80.192 E41.57389
G0 F9000 X58.682 Y80.758
G1 F900 X59.756 Y79.685 E41.63461
G0 F9000 X60.321 Y79.685
G1 F900 X58.682 Y81.324 E41.72733
G0 F9000 X58.682 Y81.890
G1 F900 X60.887 Y79.685 E41.85206
G0 F9000 X61.309 Y79.828
G1 F900 X58.682 Y82.455 E42.00067
G0 F9000 X58.682 Y83.021
G1 F900 X61.309 Y80.394 E42.14928
G0 F9000 X61.308 Y80.960
G1 F900 X58.682 Y83.587 E42.29785
G0 F9000 X58.682 Y84.152
G1 F900 X61.308 Y81.526 E42.44640
G0 F9000 X61.308 Y82.092
G1 F900 X58.682 Y84.718 E42.59495
G0 F9000 X58.682 Y85.284
G1 F900 X61.308 Y82.658 E42.74350
G0 F9000 X61.307 Y83.225
G1 F900 X57.981 Y86.551 E42.93165
G0 F9000 X58.547 Y86.551
G1 F900 X61.307 Y83.790 E43.08780
G0 F9000 X61.307 Y84.356
G1 F900 X59.112 Y86.551 E43.21197
G0 F9000 X59.678 Y86.551
G1 F900 X61.306 Y84.922 E43.30409
G0 F9000 X61.306 Y85.488
G1 F900 X60.244 Y86.551 E43.36420
G0 F9000 X60.809 Y86.551
G1 F900 X61.803 Y85.557 E43.42043
G0 F9000 X62.368 Y85.557
G1 F900 X61.375 Y86.551 E43.47663
G0 F9000 X61.941 Y86.551
G1 F900 X62.934 Y85.557 E43.53283
G0 F9000 X63.056 Y86.001
G1 F900 X62.506 Y86.551 E43.56394
G0 F9000 X58.408 Y85.558
G1 F900 X57.415 Y86.551 E43.62011
G0 F9000 X56.934 Y86.466
G1 F900 X57.842 Y85.558 E43.67148
G0 F9000 X57.277 Y85.558
G1 F900 X56.934 Y85.900 E43.69085
G0 F9000 X58.484 Y85.360
G0 X61.423 Y79.249
G0 X61.323 Y79.249
G1 F900 X61.485 Y78.804 E43.70918
G1 X61.485 Y78.238 E43.72746
G1 X61.485 Y77.672 E43.74574
G1 X61.485 Y77.107 E43.76405
G1 X61.485 Y76.541 E43.78233
G1 X61.485 Y75.975 E43.80061
G1 X61.485 Y75.410 E43.81892
G1 X61.485 Y74.844 E43.83726
G1 X61.485 Y74.278 E43.85565
G1 X61.485 Y73.712 E43.87399
G1 X61.485 Y73.147 E43.89230
G1 X61.485 Y72.581 E43.91069
G1 X61.485 Y72.015 E43.92903
G1 X61.648 Y71.570 E43.94799
;LAYER:2
M106 S255
G0 F9000 X61.556 Y71.238 Z0.500
;TYPE:WALL-INNER
G1 F2400 X61.557 Y73.163 E44.02499
G1 X61.553 Y76.165 E44.14507
G1 X61.556 Y85.419 E44.51523
G1 X63.197 Y85.419 E44.58087
G1 X63.197 Y86.692 E44.63179
G1 X56.795 Y86.692 E44.88787
G1 X56.795 Y85.419 E44.93879
G1 X58.436 Y85.419 E45.00443
G1 X58.433 Y80.692 E45.19351
G1 X58.434 Y80.493 E45.20147
G1 X58.433 Y76.223 E45.37227
G1 X58.434 Y76.170 E45.37439
G1 X58.433 Y75.969 E45.38243
G1 X58.436 Y71.238 E45.57167
G1 X57.591 Y71.238 E45.60547
G1 X57.591 Y71.209 E45.60663
G1 X58.026 Y70.892 E45.62816
G1 X58.469 Y70.892 E45.64588
G1 X58.469 Y79.546 E45.99204
G1 X61.523 Y79.546 E46.11420
G1 X61.523 Y70.892 E46.46036
G1 X61.969 Y70.892 E46.47820
G1 X62.407 Y71.209 E46.49982
G1 X62.407 Y71.238 E46.50098
G1 X61.556 Y71.238 E46.53502
G0 F9000 X61.956 Y71.638
;TYPE:WALL-OUTER
G1 F1500 X61.956 Y85.019 E47.07026
G1 X63.597 Y85.019 E47.13590
G1 X63.597 Y87.092 E47.21882
G1 X56.395 Y87.092 E47.50690
G1 X56.395 Y85.019 E47.58982
G1 X58.036 Y85.019 E47.65546
G1 X58.033 Y80.690 E47.82862
G1 X58.034 Y80.492 E47.83654
G1 X58.033 Y76.214 E48.00766
G1 X58.034 Y76.167 E48.00955
G1 X58.033 Y75.969 E48.01747
G1 X58.036 Y71.638 E48.19071
G1 X57.192 Y71.638 E48.22447
G1 X57.191 Y71.010 E48.24959
G1 X57.599 Y70.701 E48.27006
G1 X57.900 Y70.492 E48.28472
G1 X58.869 Y70.492 E48.32348
G1 X58.869 Y79.146 E48.66964
G1 X61.123 Y79.146 E48.75980
G1 X61.123 Y70.492 E49.10596
G1 X62.098 Y70.492 E49.14496
G1 X62.747 Y70.961 E49.17698
G1 X62.807 Y71.008 E49.18003
G1 X62.808 Y71.638 E49.20523
G1 X61.956 Y71.638 E49.23931
G0 F9000 X61.956 Y71.338
G0 X61.615 Y71.297
G0 X61.740 Y74.073
G0 X61.300 Y79.685
;TYPE:SKIN
G1 F900 X61.416 Y79.801 E49.24588
G0 F9000 X61.416 Y80.366
G1 F900 X60.734 Y79.685 E49.28443
G0 F9000 X60.169 Y79.685
G1 F900 X61.416 Y80.932 E49.35497
G0 F9000 X61.416 Y81.498
G1 F900 X59.603 Y79.685 E49.45753
G0 F9000 X59.037 Y79.685
G1 F900 X61.416 Y82.063 E49.59207
G0 F9000 X61.416 Y82.629
G1 F900 X58.573 Y79.787 E49.75287
G0 F9000 X58.573 Y80.352
G1 F900 X61.416 Y83.195 E49.91370
G0 F9000 X61.416 Y83.761
G1 F900 X58.573 Y80.918 E50.07452
G0 F9000 X58.573 Y81.484
G1 F900 X61.416 Y84.326 E50.23532
G0 F9000 X61.416 Y84.892
G1 F900 X58.574 Y82.050 E50.39608
G0 F9000 X58.574 Y82.616
G1 F900 X61.416 Y85.458 E50.55685
G0 F9000 X61.516 Y85.558
G1 F900 X62.509 Y86.551 E50.61302
G0 F9000 X63.056 Y86.532
G1 F900 X62.082 Y85.558 E50.66812
G0 F9000 X62.648 Y85.558
G1 F900 X63.056 Y85.967 E50.69123
G0 F9000 X61.943 Y86.551
G1 F900 X58.574 Y83.181 E50.88184
G0 F9000 X58.575 Y83.748
G1 F900 X61.378 Y86.551 E51.04040
G0 F9000 X60.812 Y86.551
G1 F900 X58.575 Y84.313 E51.16697
G0 F9000 X58.575 Y84.879
G1 F900 X60.246 Y86.551 E51.26153
G0 F9000 X59.681 Y86.551
G1 F900 X58.575 Y85.445 E51.32409
G0 F9000 X58.122 Y85.558
G1 F900 X59.115 Y86.551 E51.38026
G0 F9000 X58.549 Y86.551
G1 F900 X57.557 Y85.558 E51.43641
G0 F9000 X56.991 Y85.558
G1 F900 X57.984 Y86.551 E51.49258
G0 F9000 X57.418 Y86.551
G1 F900 X56.934 Y86.067 E51.51996
;LAYER:3
G0 F9000 X58.338 Y85.419 Z0.600
;TYPE:WALL-INNER
G1 F3000 X58.339 Y71.238 E52.08720
G1 X57.517 Y71.238 E52.12008
G1 X57.517 Y71.203 E52.12148
G1 X57.928 Y70.892 E52.14210
G1 X58.469 Y70.892 E52.16374
G1 X58.469 Y79.546 E52.50990
G1 X61.523 Y79.546 E52.63206
G1 X61.523 Y70.892 E52.97822
G1 X62.069 Y70.892 E53.00006
G1 X62.482 Y71.199 E53.02064
G1 X62.482 Y71.238 E53.02220
G1 X61.654 Y71.238 E53.05532
G1 X61.656 Y76.039 E53.24736
G1 X61.654 Y85.419 E53.62256
G1 X63.197 Y85.419 E53.68428
G1 X63.197 Y86.692 E53.73520
G1 X56.795 Y86.692 E53.99128
G1 X56.795 Y85.419 E54.04220
G1 X58.338 Y85.419 E54.10392
G0 F9000 X57.938 Y85.019
;TYPE:WALL-OUTER
G1 F1620 X57.939 Y71.638 E54.63916
G1 X57.117 Y71.638 E54.67204
G1 X57.116 Y71.009 E54.69720
G1 X57.799 Y70.492 E54.73146
G1 X58.869 Y70.492 E54.77426
G1 X58.869 Y79.146 E55.12042
G1 X61.123 Y79.146 E55.21058
G1 X61.123 Y70.492 E55.55674
G1 X62.200 Y70.492 E55.59982
G1 X62.703 Y70.863 E55.62482
G1 X62.882 Y71.007 E55.63401
G1 X62.883 Y71.638 E55.65925
G1 X62.054 Y71.638 E55.69241
G1 X62.056 Y76.042 E55.86857
G1 X62.054 Y85.019 E56.22765
G1 X63.597 Y85.019 E56.28937
G1 X63.597 Y87.092 E56.37229
G1 X56.395 Y87.092 E56.66037
G1 X56.395 Y85.019 E56.74329
G1 X57.938 Y85.019 E56.80501
G0 F9000 X57.842 Y85.558
;TYPE:SKIN
G1 F900 X56.934 Y86.466 E56.85638
G0 F9000 X57.415 Y86.551
G1 F900 X58.408 Y85.558 E56.91255
G0 F9000 X58.477 Y85.489
G1 F900 X61.514 Y82.452 E57.08435
G0 F9000 X61.514 Y81.887
G1 F900 X58.477 Y84.923 E57.25612
G0 F9000 X58.477 Y84.357
G1 F900 X61.514 Y81.321 E57.42789
G0 F9000 X61.514 Y80.755
G1 F900 X58.477 Y83.792 E57.59969
G0 F9000 X58.477 Y83.226
G1 F900 X61.514 Y80.190 E57.77146
G0 F9000 X61.514 Y83.018
G1 F900 X57.981 Y86.551 E57.97132
G0 F9000 X58.547 Y86.551
G1 F900 X61.514 Y83.584 E58.13915
G0 F9000 X61.514 Y84.149
G1 F900 X59.112 Y86.551 E58.27503
G0 F9000 X59.678 Y86.551
G1 F900 X61.514 Y84.715 E58.37889
G0 F9000 X61.514 Y85.281
G1 F900 X60.244 Y86.551 E58.45073
G0 F9000 X60.809 Y86.551
G1 F900 X61.802 Y85.558 E58.50691
G0 F9000 X62.368 Y85.558
G1 F900 X61.375 Y86.551 E58.56308
G0 F9000 X61.941 Y86.551
G1 F900 X62.933 Y85.558 E58.61922
G0 F9000 X63.056 Y86.001
G1 F900 X62.506 Y86.551 E58.65034
G0 F9000 X57.277 Y85.558
G1 F900 X56.934 Y85.900 E58.66971
G0 F9000 X58.279 Y85.360
G0 X58.477 Y82.660
G1 F900 X61.453 Y79.685 E58.83803
G0 F9000 X60.887 Y79.685
G1 F900 X58.477 Y82.095 E58.97436
G0 F9000 X58.477 Y81.529
G1 F900 X60.321 Y79.685 E59.07867
G0 F9000 X59.756 Y79.685
G1 F900 X58.477 Y80.963 E59.15100
G0 F9000 X58.477 Y80.398
G1 F900 X59.190 Y79.685 E59.19133
G0 F9000 X58.624 Y79.685
G1 F900 X58.477 Y79.832 E59.19965
;LAYER:4
G0 F9000 X58.469 Y79.546 Z0.700
;TYPE:WALL-INNER
G1 F3600 X61.523 Y79.546 E59.32181
G1 X61.523 Y70.892 E59.66797
G1 X62.165 Y70.892 E59.69365
G1 X62.555 Y71.196 E59.71342
G1 X62.555 Y71.238 E59.71510
G1 X61.744 Y71.238 E59.74754
G1 X61.744 Y85.419 E60.31478
G1 X63.197 Y85.419 E60.37290
G1 X63.197 Y86.692 E60.42382
G1 X56.795 Y86.692 E60.67990
G1 X56.795 Y85.419 E60.73082
G1 X58.248 Y85.419 E60.78894
G1 X58.246 Y80.702 E60.97762
G1 X58.248 Y71.238 E61.35618
G1 X57.442 Y71.238 E61.38842
G1 X57.442 Y71.198 E61.39002
G1 X57.834 Y70.892 E61.40992
G1 X58.469 Y70.892 E61.43532
G1 X58.469 Y79.546 E61.78148
G0 F9000 X58.869 Y79.146
;TYPE:WALL-OUTER
G1 F1800 X61.123 Y79.146 E61.87164
G1 X61.123 Y70.492 E62.21780
G1 X62.298 Y70.492 E62.26480
G1 X62.955 Y71.005 E62.29814
G1 X62.956 Y71.638 E62.32346
G1 X62.144 Y71.638 E62.35594
G1 X62.144 Y85.019 E62.89118
G1 X63.597 Y85.019 E62.94930
G1 X63.597 Y87.092 E63.03222
G1 X56.395 Y87.092 E63.32030
G1 X56.395 Y85.019 E63.40322
G1 X57.848 Y85.019 E63.46134
G1 X57.846 Y80.700 E63.63410
G1 X57.848 Y71.638 E63.99658
G1 X57.043 Y71.638 E64.02878
G1 X57.042 Y71.007 E64.05402
G1 X57.701 Y70.492 E64.08747
G1 X58.869 Y70.492 E64.13419
G1 X58.869 Y79.146 E64.48035
G0 F9000 X59.037 Y79.685
;TYPE:SKIN
G1 F900 X61.604 Y82.252 E64.62556
G0 F9000 X61.604 Y82.817
G1 F900 X58.472 Y79.685 E64.80274
G0 F9000 X59.603 Y79.685
G1 F900 X61.604 Y81.686 E64.91593
G0 F9000 X61.604 Y81.120
G1 F900 X60.169 Y79.685 E64.99711
G0 F9000 X60.734 Y79.685
G1 F900 X61.604 Y80.555 E65.04632
G0 F9000 X61.604 Y83.383
G1 F900 X58.387 Y80.166 E65.22830
G0 F9000 X58.387 Y80.732
G1 F900 X61.604 Y83.949 E65.41028
