;FLAVOR:UltiGCode
;TIME:5252
;MATERIAL:14002
;MATERIAL2:0

;Layer count: 193
;LAYER:0
M107
G0 F9000 X21.164 Y33.492 Z0.300
;TYPE:SKIRT
G1 F1800 X64.250 Y33.492 E5.17032
G1 X67.742 Y36.984 E5.76293
G1 X67.742 Y46.880 E6.95045
G1 X64.250 Y50.372 E7.54306
G1 X59.444 Y50.372 E8.11978
G1 X59.444 Y54.612 E8.62858
G1 X25.970 Y54.612 E12.64546
G1 X25.970 Y50.372 E13.15426
G1 X21.164 Y50.372 E13.73098
G1 X17.672 Y46.880 E14.32360
G1 X17.672 Y36.984 E15.51112
G1 X21.164 Y33.492 E16.10373
G0 F9000 X21.330 Y33.892
G1 F1800 X64.084 Y33.892 E21.23421
G1 X67.342 Y37.150 E21.78711
G1 X67.342 Y46.714 E22.93479
G1 X64.084 Y49.972 E23.48769
G1 X59.044 Y49.972 E24.09249
G1 X59.044 Y54.212 E24.60129
G1 X26.370 Y54.212 E28.52217
G1 X26.370 Y49.972 E29.03097
G1 X21.330 Y49.972 E29.63577
G1 X18.072 Y46.714 E30.18867
G1 X18.072 Y37.150 E31.33635
G1 X21.330 Y33.892 E31.88925
G10
G0 F9000 X22.724 Y38.067
;TYPE:FILL
G11
G1 F1800 X23.391 Y38.734 E32.00245
G0 F9000 X22.631 Y39.589
G1 F1800 X22.011 Y38.969 E32.10766
G0 F9000 X24.103 Y37.831
G1 F1800 X24.383 Y38.110 E32.15510
G0 F9000 X22.011 Y40.584
G1 F1800 X22.105 Y40.678 E32.17105
G0 F9000 X22.012 Y43.815
G1 F1800 X24.228 Y46.031 E32.54712
G0 F9000 X59.764 Y45.962
G0 X61.072 Y45.730
G1 F1800 X61.374 Y46.031 E32.59828
G0 F9000 X62.054 Y45.096
G1 F1800 X62.721 Y45.763 E32.71148
G0 F9000 X63.401 Y44.828
G1 F1800 X62.810 Y44.237 E32.81177
G0 F9000 X63.360 Y41.933
G0 X63.401 Y39.983
G1 F1800 X61.249 Y37.831 E33.17698
G0 F9000 X60.859 Y38.186
;TYPE:WALL-INNER
G1 F1800 X60.324 Y38.005 E33.24475
G1 X59.763 Y37.900 E33.31324
G1 X59.199 Y37.878 E33.38097
G1 X59.126 Y37.878 E33.38973
G1 X58.540 Y37.946 E33.46053
G1 X57.959 Y38.102 E33.53271
G1 X57.404 Y38.346 E33.60547
G1 X56.889 Y38.673 E33.67867
G1 X56.460 Y39.037 E33.74619
G1 X56.084 Y39.458 E33.81392
G1 X55.755 Y39.957 E33.88565
G1 X55.504 Y40.500 E33.95743
G1 X55.337 Y41.071 E34.02882
G1 X55.253 Y41.633 E34.09701
G1 X55.252 Y42.201 E34.16517
G1 X55.335 Y42.791 E34.23667
G1 X55.503 Y43.365 E34.30844
G1 X55.756 Y43.908 E34.38032
G1 X56.085 Y44.409 E34.45225
G1 X56.495 Y44.863 E34.52565
G1 X56.930 Y45.226 E34.59364
G1 X57.444 Y45.540 E34.66592
G1 X57.993 Y45.774 E34.73754
G1 X58.571 Y45.923 E34.80916
G1 X59.115 Y45.985 E34.87487
G1 X59.188 Y45.987 E34.88363
G1 X59.765 Y45.964 E34.95292
G1 X60.354 Y45.851 E35.02489
G1 X60.890 Y45.666 E35.09294
G1 X61.422 Y45.393 E35.16469
G1 X61.918 Y45.034 E35.23817
G1 X62.354 Y44.604 E35.31165
G1 X62.693 Y44.162 E35.37849
G1 X62.983 Y43.641 E35.45005
G1 X63.192 Y43.084 E35.52144
G1 X63.317 Y42.528 E35.58982
G1 X63.361 Y41.933 E35.66142
G1 X63.317 Y41.336 E35.73325
G1 X63.184 Y40.751 E35.80524
G1 X62.967 Y40.190 E35.87742
G1 X62.666 Y39.664 E35.95015
G1 X62.285 Y39.183 E36.02378
G1 X61.875 Y38.794 E36.09160
G1 X61.388 Y38.452 E36.16301
G1 X60.859 Y38.186 E36.23407
G0 F9000 X62.511 Y37.692
G1 F1800 X63.542 Y38.723 E36.40903
G1 X63.542 Y45.141 E37.17919
G1 X62.511 Y46.172 E37.35416
G1 X53.647 Y46.172 E38.41784
G1 X53.647 Y47.348 E38.55896
G1 X55.244 Y50.113 E38.94213
G1 X55.244 Y50.412 E38.97801
G1 X30.170 Y50.412 E41.98689
G1 X30.170 Y50.113 E42.02277
G1 X31.678 Y47.502 E42.38459
G1 X31.767 Y47.353 E42.40542
G1 X31.767 Y46.172 E42.54714
G1 X22.903 Y46.172 E43.61082
G1 X21.872 Y45.141 E43.78578
G1 X21.872 Y38.723 E44.55594
G1 X22.903 Y37.692 E44.73091
G1 X62.511 Y37.692 E49.48387
G0 F9000 X57.960 Y38.104
G0 X56.085 Y39.460
G0 X54.887 Y40.751
G1 F1800 X54.669 Y40.190 E49.55609
G1 X54.371 Y39.667 E49.62833
G1 X54.023 Y39.219 E49.69640
G1 X53.578 Y38.795 E49.77016
G1 X53.091 Y38.452 E49.84164
G1 X52.561 Y38.186 E49.91280
G1 X52.026 Y38.005 E49.98057
G1 X51.466 Y37.900 E50.04895
G1 X50.902 Y37.878 E50.11668
G1 X50.829 Y37.878 E50.12544
G1 X50.243 Y37.946 E50.19623
G1 X49.663 Y38.102 E50.26830
G1 X49.107 Y38.346 E50.34116
G1 X48.591 Y38.673 E50.41447
G1 X48.160 Y39.039 E50.48232
G1 X47.765 Y39.490 E50.55427
G1 X47.458 Y39.958 E50.62143
G1 X47.207 Y40.500 E50.69311
G1 X47.038 Y41.071 E50.76456
G1 X46.956 Y41.634 E50.83284
G1 X46.955 Y42.201 E50.90088
G1 X47.037 Y42.791 E50.97236
G1 X47.206 Y43.366 E51.04428
G1 X47.459 Y43.908 E51.11605
G1 X47.788 Y44.409 E51.18798
G1 X48.198 Y44.864 E51.26147
G1 X48.667 Y45.249 E51.33429
G1 X49.177 Y45.554 E51.40560
G1 X49.726 Y45.782 E51.47693
G1 X50.274 Y45.924 E51.54487
G1 X50.818 Y45.985 E51.61055
G1 X50.891 Y45.987 E51.61932
G1 X51.468 Y45.964 E51.68861
G1 X52.056 Y45.851 E51.76046
G1 X52.592 Y45.666 E51.82851
G1 X53.125 Y45.393 E51.90037
G1 X53.620 Y45.034 E51.97375
G1 X54.059 Y44.602 E52.04766
G1 X54.413 Y44.131 E52.11836
G1 X54.685 Y43.641 E52.18561
G1 X54.895 Y43.084 E52.25704
G1 X55.019 Y42.527 E52.32552
G1 X55.063 Y41.933 E52.39700
G1 X55.019 Y41.337 E52.46871
G1 X54.887 Y40.751 E52.54079
G0 F9000 X53.577 Y38.796
G0 X51.466 Y37.901
G0 X49.108 Y38.347
G0 X47.459 Y39.958
G0 X46.756 Y41.664
G1 F1800 X46.673 Y41.074 E52.61229
G1 X46.505 Y40.501 E52.68394
G1 X46.251 Y39.957 E52.75599
G1 X45.924 Y39.458 E52.82758
G1 X45.513 Y39.002 E52.90125
G1 X45.078 Y38.638 E52.96931
G1 X44.564 Y38.324 E53.04159
G1 X44.015 Y38.090 E53.11320
G1 X43.436 Y37.940 E53.18498
G1 X42.892 Y37.880 E53.25065
G1 X42.820 Y37.878 E53.25930
G1 X42.243 Y37.900 E53.32859
G1 X41.655 Y38.013 E53.40044
G1 X41.119 Y38.198 E53.46848
G1 X40.586 Y38.471 E53.54034
G1 X40.091 Y38.830 E53.61372
G1 X39.655 Y39.260 E53.68721
G1 X39.316 Y39.703 E53.75415
G1 X39.026 Y40.224 E53.82570
G1 X38.817 Y40.782 E53.89720
G1 X38.692 Y41.337 E53.96547
G1 X38.648 Y41.933 E54.03718
G1 X38.692 Y42.529 E54.10890
G1 X38.825 Y43.115 E54.18101
G1 X39.042 Y43.675 E54.25308
G1 X39.343 Y44.202 E54.32590
G1 X39.725 Y44.681 E54.39942
G1 X40.134 Y45.069 E54.46708
G1 X40.620 Y45.412 E54.53846
G1 X41.152 Y45.679 E54.60989
G1 X41.716 Y45.865 E54.68115
G1 X42.272 Y45.966 E54.74896
G1 X42.819 Y45.988 E54.81466
G1 X42.893 Y45.986 E54.82354
G1 X43.468 Y45.918 E54.89302
G1 X44.048 Y45.762 E54.96509
G1 X44.604 Y45.518 E55.03796
G1 X45.119 Y45.191 E55.11116
G1 X45.548 Y44.828 E55.17860
G1 X45.924 Y44.408 E55.24624
G1 X46.252 Y43.908 E55.31800
G1 X46.504 Y43.366 E55.38973
G1 X46.671 Y42.794 E55.46123
G1 X46.755 Y42.232 E55.52942
G1 X46.756 Y41.664 E55.59758
G0 F9000 X45.923 Y39.458
G0 X44.014 Y38.091
G0 X41.656 Y38.014
G0 X39.655 Y39.261
G0 X38.693 Y41.337
G0 X38.459 Y41.664
G1 F1800 X38.377 Y41.074 E55.66906
G1 X38.208 Y40.501 E55.74075
G1 X37.955 Y39.957 E55.81275
G1 X37.626 Y39.458 E55.88447
G1 X37.216 Y39.000 E55.95823
G1 X36.747 Y38.615 E56.03105
G1 X36.237 Y38.310 E56.10236
G1 X35.688 Y38.082 E56.17369
G1 X35.139 Y37.940 E56.24174
G1 X34.595 Y37.880 E56.30742
G1 X34.523 Y37.878 E56.31606
G1 X33.946 Y37.900 E56.38535
G1 X33.358 Y38.013 E56.45720
G1 X32.822 Y38.198 E56.52525
G1 X32.289 Y38.471 E56.59711
G1 X31.794 Y38.830 E56.67048
G1 X31.355 Y39.262 E56.74439
G1 X31.001 Y39.734 E56.81519
G1 X30.729 Y40.224 E56.88245
G1 X30.519 Y40.782 E56.95399
G1 X30.395 Y41.337 E57.02223
G1 X30.351 Y41.933 E57.09395
G1 X30.395 Y42.528 E57.16554
G1 X30.527 Y43.115 E57.23774
G1 X30.745 Y43.675 E57.30985
G1 X31.043 Y44.199 E57.38219
G1 X31.391 Y44.645 E57.45008
G1 X31.836 Y45.069 E57.52383
G1 X32.323 Y45.412 E57.59531
G1 X32.855 Y45.679 E57.66674
G1 X33.419 Y45.865 E57.73801
G1 X33.975 Y45.966 E57.80582
G1 X34.522 Y45.988 E57.87151
G1 X34.596 Y45.986 E57.88040
G1 X35.172 Y45.918 E57.95000
G1 X35.751 Y45.762 E58.02195
G1 X36.307 Y45.518 E58.09482
G1 X36.823 Y45.191 E58.16812
G1 X37.252 Y44.828 E58.23556
G1 X37.627 Y44.408 E58.30313
G1 X37.956 Y43.908 E58.37495
G1 X38.207 Y43.366 E58.44662
G1 X38.376 Y42.794 E58.51820
G1 X38.458 Y42.231 E58.58647
G1 X38.459 Y41.664 E58.65451
G0 F9000 X37.626 Y39.458
G0 X35.687 Y38.083
G0 X33.359 Y38.014
G0 X31.356 Y39.263
G0 X30.396 Y41.338
G0 X30.162 Y41.664
G1 F1800 X30.079 Y41.074 E58.72601
G1 X29.911 Y40.501 E58.79766
G1 X29.658 Y39.957 E58.86966
G1 X29.329 Y39.457 E58.94148
G1 X28.919 Y39.002 E59.01498
G1 X28.484 Y38.638 E59.08304
G1 X27.970 Y38.324 E59.15532
G1 X27.421 Y38.090 E59.22694
G1 X26.843 Y37.940 E59.29859
G1 X26.298 Y37.880 E59.36439
G1 X26.226 Y37.878 E59.37303
G1 X25.650 Y37.900 E59.44220
G1 X25.060 Y38.013 E59.51429
G1 X24.524 Y38.198 E59.58233
G1 X23.992 Y38.471 E59.65409
G1 X23.496 Y38.830 E59.72756
G1 X23.060 Y39.260 E59.80105
G1 X22.721 Y39.703 E59.86799
G1 X22.431 Y40.224 E59.93954
G1 X22.222 Y40.782 E60.01104
G1 X22.097 Y41.337 E60.07931
G1 X22.053 Y41.933 E60.15102
G1 X22.097 Y42.529 E60.22274
G1 X22.230 Y43.115 E60.29485
G1 X22.447 Y43.675 E60.36692
G1 X22.748 Y44.202 E60.43974
G1 X23.130 Y44.681 E60.51326
G1 X23.539 Y45.070 E60.58100
G1 X24.026 Y45.412 E60.65241
G1 X24.557 Y45.679 E60.72373
G1 X25.121 Y45.865 E60.79500
G1 X25.678 Y45.966 E60.86293
G1 X26.225 Y45.988 E60.92862
G1 X26.299 Y45.986 E60.93750
G1 X26.875 Y45.918 E61.00710
G1 X27.455 Y45.762 E61.07918
G1 X28.010 Y45.518 E61.15193
G1 X28.525 Y45.191 E61.22513
G1 X28.954 Y44.828 E61.29257
G1 X29.330 Y44.408 E61.36022
G1 X29.659 Y43.908 E61.43204
G1 X29.910 Y43.366 E61.50372
G1 X30.077 Y42.794 E61.57522
G1 X30.161 Y42.232 E61.64341
G1 X30.162 Y41.664 E61.71157
G0 F9000 X29.762 Y41.691
;TYPE:WALL-OUTER
G1 F1800 X29.687 Y41.159 E61.77604
G1 X29.536 Y40.642 E61.84067
G1 X29.308 Y40.152 E61.90553
G1 X29.012 Y39.702 E61.97016
G1 X28.641 Y39.291 E62.03660
G1 X28.250 Y38.964 E62.09777
G1 X27.787 Y38.681 E62.16289
G1 X27.292 Y38.470 E62.22746
G1 X26.770 Y38.335 E62.29216
G1 X26.269 Y38.279 E62.35265
G1 X26.227 Y38.278 E62.35769
G1 X25.695 Y38.299 E62.42158
G1 X25.163 Y38.400 E62.48656
G1 X24.681 Y38.567 E62.54778
G1 X24.202 Y38.813 E62.61240
G1 X23.755 Y39.136 E62.67857
G1 X23.361 Y39.525 E62.74501
G1 X23.056 Y39.923 E62.80519
G1 X22.795 Y40.393 E62.86970
G1 X22.606 Y40.897 E62.93429
G1 X22.494 Y41.396 E62.99566
G1 X22.454 Y41.933 E63.06028
G1 X22.494 Y42.470 E63.12490
G1 X22.613 Y42.998 E63.18985
G1 X22.809 Y43.502 E63.25474
G1 X23.080 Y43.977 E63.32036
G1 X23.425 Y44.410 E63.38680
G1 X23.793 Y44.759 E63.44766
G1 X24.232 Y45.068 E63.51208
G1 X24.710 Y45.308 E63.57627
G1 X25.220 Y45.476 E63.64070
G1 X25.722 Y45.567 E63.70192
G1 X26.226 Y45.588 E63.76246
G1 X26.268 Y45.587 E63.76750
G1 X26.799 Y45.524 E63.83166
G1 X27.322 Y45.383 E63.89667
G1 X27.821 Y45.164 E63.96206
G1 X28.288 Y44.868 E64.02841
G1 X28.674 Y44.541 E64.08911
G1 X29.012 Y44.163 E64.14996
G1 X29.308 Y43.713 E64.21460
G1 X29.535 Y43.225 E64.27918
G1 X29.686 Y42.708 E64.34382
G1 X29.761 Y42.202 E64.40520
G1 X29.762 Y41.691 E64.46652
G0 F9000 X30.752 Y41.933
G1 F1800 X30.792 Y42.469 E64.53102
G1 X30.910 Y42.998 E64.59606
G1 X31.107 Y43.502 E64.66099
G1 X31.376 Y43.976 E64.72640
G1 X31.688 Y44.376 E64.78727
G1 X32.091 Y44.759 E64.85399
G1 X32.529 Y45.068 E64.91831
G1 X33.008 Y45.308 E64.98260
G1 X33.518 Y45.476 E65.04704
G1 X34.019 Y45.567 E65.10814
G1 X34.523 Y45.588 E65.16867
G1 X34.565 Y45.587 E65.17371
G1 X35.096 Y45.524 E65.23788
G1 X35.618 Y45.383 E65.30277
G1 X36.119 Y45.164 E65.36838
G1 X36.586 Y44.868 E65.43473
G1 X36.972 Y44.541 E65.49543
G1 X37.309 Y44.163 E65.55620
G1 X37.605 Y43.713 E65.62084
G1 X37.832 Y43.225 E65.68542
G1 X37.984 Y42.708 E65.75009
G1 X38.058 Y42.202 E65.81146
G1 X38.059 Y41.691 E65.87278
G1 X37.985 Y41.159 E65.93723
G1 X37.833 Y40.642 E66.00190
G1 X37.605 Y40.152 E66.06675
G1 X37.309 Y39.703 E66.13128
G1 X36.939 Y39.290 E66.19782
G1 X36.516 Y38.943 E66.26348
G1 X36.056 Y38.668 E66.32779
G1 X35.561 Y38.462 E66.39213
G1 X35.067 Y38.335 E66.45334
G1 X34.566 Y38.279 E66.51383
G1 X34.524 Y38.278 E66.51887
G1 X33.992 Y38.299 E66.58276
G1 X33.461 Y38.400 E66.64762
G1 X32.979 Y38.567 E66.70884
G1 X32.499 Y38.813 E66.77356
G1 X32.053 Y39.136 E66.83964
G1 X31.657 Y39.526 E66.90634
G1 X31.338 Y39.952 E66.97020
G1 X31.093 Y40.393 E67.03074
G1 X30.903 Y40.897 E67.09538
G1 X30.792 Y41.396 E67.15672
G1 X30.752 Y41.933 E67.22134
G0 F9000 X30.455 Y41.912
G0 X30.527 Y43.114
G0 X31.667 Y46.572
G0 X31.367 Y46.572
G1 F1800 X22.737 Y46.572 E68.25694
G1 X21.472 Y45.307 E68.47162
G1 X21.472 Y38.557 E69.28162
G1 X22.737 Y37.292 E69.49629
G1 X62.677 Y37.292 E74.28909
G1 X63.942 Y38.557 E74.50377
G1 X63.942 Y45.307 E75.31377
G1 X62.677 Y46.572 E75.52845
G1 X54.047 Y46.572 E76.56405
G1 X54.047 Y47.241 E76.64433
G1 X55.644 Y50.005 E77.02739
G1 X55.644 Y50.812 E77.12423
G1 X29.770 Y50.812 E80.22911
G1 X29.770 Y50.005 E80.32595
G1 X31.329 Y47.305 E80.70008
G1 X31.367 Y47.242 E80.70891
G1 X31.367 Y46.572 E80.78931
G0 F9000 X31.667 Y46.572
G0 X36.306 Y45.517
G0 X39.124 Y43.610
G0 X39.404 Y43.502
G1 F1800 X39.675 Y43.977 E80.85494
G1 X40.020 Y44.410 E80.92137
G1 X40.388 Y44.759 E80.98224
G1 X40.826 Y45.068 E81.04656
G1 X41.305 Y45.308 E81.11085
G1 X41.815 Y45.476 E81.17528
G1 X42.316 Y45.567 E81.23639
G1 X42.820 Y45.588 E81.29692
G1 X42.862 Y45.587 E81.30196
G1 X43.392 Y45.524 E81.36601
G1 X43.915 Y45.383 E81.43101
G1 X44.415 Y45.164 E81.49651
G1 X44.882 Y44.868 E81.56286
G1 X45.268 Y44.541 E81.62357
G1 X45.606 Y44.163 E81.68442
G1 X45.901 Y43.713 E81.74899
G1 X46.129 Y43.225 E81.81362
G1 X46.280 Y42.708 E81.87826
G1 X46.355 Y42.202 E81.93964
G1 X46.356 Y41.691 E82.00096
G1 X46.281 Y41.159 E82.06543
G1 X46.130 Y40.642 E82.13006
G1 X45.901 Y40.152 E82.19497
G1 X45.606 Y39.703 E82.25944
G1 X45.235 Y39.291 E82.32597
G1 X44.844 Y38.964 E82.38713
G1 X44.381 Y38.681 E82.45225
G1 X43.886 Y38.470 E82.51682
G1 X43.363 Y38.335 E82.58164
G1 X42.863 Y38.279 E82.64201
G1 X42.821 Y38.278 E82.64705
G1 X42.289 Y38.299 E82.71094
G1 X41.758 Y38.400 E82.77581
G1 X41.276 Y38.567 E82.83702
G1 X40.796 Y38.813 E82.90174
G1 X40.350 Y39.136 E82.96783
G1 X39.956 Y39.525 E83.03427
G1 X39.651 Y39.923 E83.09444
G1 X39.390 Y40.393 E83.15895
G1 X39.201 Y40.897 E83.22354
G1 X39.089 Y41.396 E83.28491
G1 X39.049 Y41.933 E83.34953
G1 X39.089 Y42.470 E83.41415
G1 X39.208 Y42.998 E83.47910
G1 X39.404 Y43.502 E83.54399
G0 F9000 X39.124 Y43.610
G0 X40.135 Y45.068
G0 X42.273 Y45.965
G0 X44.602 Y45.517
G0 X46.250 Y43.907
G0 X47.056 Y42.173
G0 X47.355 Y42.174
G1 F1800 X47.429 Y42.706 E83.60845
G1 X47.581 Y43.224 E83.67323
G1 X47.809 Y43.713 E83.73797
G1 X48.105 Y44.164 E83.80271
G1 X48.475 Y44.574 E83.86898
G1 X48.898 Y44.921 E83.93463
G1 X49.358 Y45.196 E83.99895
G1 X49.853 Y45.402 E84.06328
G1 X50.347 Y45.529 E84.12449
G1 X50.848 Y45.586 E84.18500
G1 X50.890 Y45.587 E84.19004
G1 X51.422 Y45.565 E84.25394
G1 X51.953 Y45.464 E84.31880
G1 X52.435 Y45.297 E84.38001
G1 X52.915 Y45.051 E84.44474
G1 X53.361 Y44.728 E84.51082
G1 X53.757 Y44.338 E84.57751
G1 X54.076 Y43.913 E84.64128
G1 X54.321 Y43.472 E84.70182
G1 X54.511 Y42.969 E84.76634
G1 X54.622 Y42.469 E84.82780
G1 X54.662 Y41.933 E84.89230
G1 X54.622 Y41.396 E84.95692
G1 X54.504 Y40.868 E85.02184
G1 X54.307 Y40.363 E85.08689
G1 X54.038 Y39.890 E85.15219
G1 X53.726 Y39.488 E85.21325
G1 X53.323 Y39.105 E85.27997
G1 X52.885 Y38.796 E85.34429
G1 X52.406 Y38.556 E85.40858
G1 X51.925 Y38.393 E85.46953
G1 X51.421 Y38.299 E85.53105
G1 X50.894 Y38.278 E85.59434
G1 X50.852 Y38.278 E85.59938
G1 X50.318 Y38.340 E85.66389
G1 X49.796 Y38.481 E85.72877
G1 X49.295 Y38.700 E85.79439
G1 X48.828 Y38.996 E85.86074
G1 X48.441 Y39.324 E85.92161
G1 X48.084 Y39.733 E85.98676
G1 X47.809 Y40.153 E86.04700
G1 X47.582 Y40.641 E86.11159
G1 X47.430 Y41.157 E86.17614
G1 X47.356 Y41.663 E86.23750
G1 X47.355 Y42.174 E86.29882
G0 F9000 X47.056 Y42.173
G0 X47.460 Y43.907
G0 X49.179 Y45.553
G0 X51.467 Y45.962
G0 X53.619 Y45.033
G0 X54.894 Y43.084
G0 X55.353 Y42.173
G0 X55.652 Y42.174
G1 F1800 X55.727 Y42.706 E86.36330
G1 X55.878 Y43.224 E86.42804
G1 X56.106 Y43.713 E86.49279
G1 X56.402 Y44.164 E86.55752
G1 X56.773 Y44.574 E86.62388
G1 X57.164 Y44.900 E86.68496
G1 X57.627 Y45.183 E86.75008
G1 X58.122 Y45.394 E86.81465
G1 X58.644 Y45.529 E86.87935
G1 X59.145 Y45.586 E86.93986
G1 X59.187 Y45.587 E86.94490
G1 X59.719 Y45.565 E87.00880
G1 X60.251 Y45.464 E87.07378
G1 X60.733 Y45.297 E87.13499
G1 X61.212 Y45.051 E87.19961
G1 X61.659 Y44.728 E87.26579
G1 X62.053 Y44.339 E87.33223
G1 X62.358 Y43.942 E87.39230
G1 X62.619 Y43.472 E87.45682
G1 X62.808 Y42.969 E87.52130
G1 X62.920 Y42.469 E87.58278
G1 X62.960 Y41.933 E87.64728
G1 X62.920 Y41.395 E87.71202
G1 X62.801 Y40.868 E87.77685
G1 X62.605 Y40.363 E87.84186
