;FLAVOR:UltiGCode
;TIME:4806
;MATERIAL:11343
;MATERIAL2:0

;Layer count: 21
;LAYER:0
M107
G0 F9000 X57.209 Y70.578 Z0.300
G0 X57.210 Y70.956
;TYPE:SKIRT
G1 F1200 X57.209 Y70.578 E0.04536
G1 X63.969 Y70.578 E0.85656
G1 X63.969 Y70.933 E0.89916
G1 X64.190 Y71.000 E0.92687
G1 X65.282 Y71.663 E1.08017
G1 X66.384 Y72.998 E1.28790
G1 X66.784 Y74.447 E1.46829
G1 X66.786 Y76.152 E1.67289
G1 X66.746 Y76.759 E1.74588
G1 X66.446 Y77.804 E1.87635
G1 X66.204 Y78.188 E1.93082
G1 X66.204 Y81.241 E2.29718
G1 X67.162 Y81.241 E2.41214
G1 X67.169 Y90.496 E3.52274
G1 X53.837 Y90.496 E5.12258
G1 X53.837 Y85.543 E5.71694
G1 X53.851 Y81.241 E6.23318
G1 X55.010 Y81.241 E6.37226
G1 X55.009 Y79.883 E6.53522
G1 X55.010 Y78.190 E6.73838
G1 X54.773 Y77.808 E6.79233
G1 X54.453 Y76.738 E6.92634
G1 X54.425 Y76.105 E7.00238
G1 X54.426 Y75.579 E7.06550
G1 X54.425 Y74.933 E7.14302
G1 X54.455 Y74.259 E7.22398
G1 X54.804 Y73.175 E7.36063
G1 X55.453 Y72.150 E7.50622
G1 X56.466 Y71.289 E7.66575
G1 X57.210 Y70.956 E7.76357
G0 F9000 X57.612 Y71.215
G1 F1200 X57.611 Y70.978 E7.79201
G1 X63.569 Y70.978 E8.50697
G1 X63.569 Y71.229 E8.53709
G1 X64.026 Y71.368 E8.59441
G1 X65.016 Y71.970 E8.73345
G1 X66.021 Y73.187 E8.92285
G1 X66.385 Y74.501 E9.08647
G1 X66.386 Y76.139 E9.28303
G1 X66.349 Y76.690 E9.34930
G1 X66.077 Y77.639 E9.46776
G1 X65.804 Y78.072 E9.52919
G1 X65.804 Y81.641 E9.95747
G1 X66.762 Y81.641 E10.07243
G1 X66.769 Y90.096 E11.08703
G1 X54.237 Y90.096 E12.59087
G1 X54.237 Y85.543 E13.13723
G1 X54.250 Y81.641 E13.60547
G1 X55.410 Y81.641 E13.74467
G1 X55.409 Y79.883 E13.95563
G1 X55.410 Y78.131 E14.16587
G1 X55.410 Y78.076 E14.17247
G1 X55.141 Y77.643 E14.23364
G1 X54.850 Y76.670 E14.35551
G1 X54.825 Y76.097 E14.42434
G1 X54.826 Y75.580 E14.48638
G1 X54.825 Y74.941 E14.56306
G1 X54.852 Y74.330 E14.63645
G1 X55.169 Y73.346 E14.76050
G1 X55.759 Y72.416 E14.89267
G1 X56.681 Y71.631 E15.03798
G1 X57.612 Y71.215 E15.16034
G0 F9000 X58.012 Y71.521
G1 F1200 X58.012 Y71.378 E15.17750
G1 X63.169 Y71.378 E15.79634
G1 X63.169 Y71.525 E15.81398
G1 X63.861 Y71.736 E15.90080
G1 X64.751 Y72.276 E16.02572
G1 X65.659 Y73.375 E16.19679
G1 X65.985 Y74.556 E16.34381
G1 X65.986 Y76.126 E16.53221
G1 X65.953 Y76.621 E16.59174
G1 X65.708 Y77.473 E16.69812
G1 X65.404 Y77.956 E16.76661
G1 X65.404 Y82.041 E17.25681
G1 X66.362 Y82.041 E17.37177
G1 X66.369 Y89.696 E18.29037
G1 X54.637 Y89.696 E19.69821
G1 X54.637 Y85.544 E20.19645
G1 X54.648 Y82.041 E20.61681
G1 X55.810 Y82.041 E20.75625
G1 X55.810 Y81.682 E20.79933
G1 X55.809 Y79.883 E21.01521
G1 X55.810 Y78.131 E21.22545
G1 X55.810 Y77.963 E21.24561
G1 X55.509 Y77.477 E21.31421
G1 X55.248 Y76.603 E21.42366
G1 X55.225 Y76.088 E21.48553
G1 X55.226 Y75.581 E21.54637
G1 X55.225 Y74.950 E21.62209
G1 X55.249 Y74.402 E21.68791
G1 X55.534 Y73.517 E21.79948
G1 X56.064 Y72.681 E21.91826
G1 X56.897 Y71.973 E22.04945
G1 X57.811 Y71.564 E22.16961
G1 X58.012 Y71.521 E22.19428
G10
G0 F9000 X59.026 Y75.588
;TYPE:WALL-INNER
G11
G1 F1200 X59.025 Y75.190 E22.24204
G1 X59.370 Y75.181 E22.28345
G1 X59.370 Y75.929 E22.37321
G1 X59.025 Y75.837 E22.41606
G1 X59.026 Y75.588 E22.44594
G10
G0 F9000 X62.158 Y75.190
G11
G1 F1200 X62.185 Y75.198 E22.44932
G1 X62.186 Y75.848 E22.52732
G1 X61.824 Y75.897 E22.57115
G1 X61.824 Y75.181 E22.65707
G1 X62.158 Y75.190 E22.69717
G0 F9000 X61.765 Y75.119
G0 X61.764 Y81.391
G0 X61.604 Y81.450
G1 F1200 X61.599 Y85.841 E23.22409
G1 X62.565 Y85.841 E23.34001
G1 X62.566 Y85.896 E23.34661
G1 X58.437 Y85.896 E23.84209
G1 X58.437 Y85.841 E23.84869
G1 X59.608 Y85.841 E23.98921
G1 X59.607 Y83.840 E24.22933
G1 X59.610 Y81.686 E24.48781
G1 X59.610 Y81.450 E24.51613
G1 X61.604 Y81.450 E24.75541
G0 F9000 X61.423 Y81.050
;TYPE:WALL-OUTER
G1 F1200 X61.423 Y74.778 E25.50805
G1 X62.224 Y74.791 E25.60418
G1 X62.460 Y74.863 E25.63379
G1 X62.497 Y74.885 E25.63896
G1 X62.574 Y74.979 E25.65354
G1 X62.585 Y75.018 E25.65840
G1 X62.586 Y76.008 E25.77720
G1 X62.584 Y76.035 E25.78045
G1 X62.574 Y76.070 E25.78482
G1 X62.553 Y76.103 E25.78951
G1 X62.512 Y76.140 E25.79614
G1 X62.340 Y76.224 E25.81911
G1 X62.003 Y76.277 E25.86004
G1 X62.000 Y85.441 E26.95972
G1 X62.965 Y85.441 E27.07552
G1 X62.966 Y86.296 E27.17813
G1 X58.037 Y86.296 E27.76961
G1 X58.038 Y85.441 E27.87221
G1 X59.208 Y85.441 E28.01261
G1 X59.206 Y76.299 E29.10965
G1 X58.767 Y76.183 E29.16413
G1 X58.691 Y76.134 E29.17498
G1 X58.645 Y76.083 E29.18323
G1 X58.638 Y76.072 E29.18479
G1 X58.625 Y76.021 E29.19111
G1 X58.625 Y75.027 E29.31039
G1 X58.626 Y75.006 E29.31291
G1 X58.660 Y74.937 E29.32214
G1 X58.727 Y74.879 E29.33277
G1 X58.872 Y74.815 E29.35179
G1 X58.980 Y74.791 E29.36507
G1 X59.770 Y74.778 E29.45988
G1 X59.770 Y81.050 E30.21252
G1 X61.423 Y81.050 E30.41088
G0 F9000 X60.941 Y81.589
;TYPE:SKIN
G1 F1200 X61.463 Y82.111 E30.49947
G0 F9000 X61.463 Y82.676
G1 F1200 X60.376 Y81.589 E30.68394
G0 F9000 X59.810 Y81.589
G1 F1200 X61.462 Y83.241 E30.96429
G0 F9000 X61.461 Y83.806
G1 F1200 X59.749 Y82.093 E31.25491
G0 F9000 X59.749 Y82.659
G1 F1200 X61.461 Y84.371 E31.54545
G0 F9000 X61.460 Y84.936
G1 F1200 X59.748 Y83.224 E31.83599
G0 F9000 X59.748 Y83.790
G1 F1200 X61.459 Y85.501 E32.12635
G0 F9000 X61.147 Y85.755
G1 F1200 X59.748 Y84.355 E32.36385
G0 F9000 X59.747 Y84.920
G1 F1200 X60.582 Y85.755 E32.50556
G0 F9000 X60.016 Y85.755
G1 F1200 X59.747 Y85.486 E32.55121
;LAYER:1
M106 S10
G0 F9000 X59.343 Y75.976 Z0.500
G0 X59.102 Y75.752
;TYPE:FILL
G1 F1320 X59.229 Y75.625 E32.56558
G0 F9000 X58.832 Y75.293
;TYPE:WALL-INNER
G1 F1320 X58.832 Y75.189 E32.57390
G1 X59.370 Y75.178 E32.61695
G1 X59.370 Y75.929 E32.67703
G1 X58.831 Y75.857 E32.72053
G1 X58.832 Y75.293 E32.76565
G0 F9000 X59.369 Y75.272
G0 X59.429 Y81.391
G0 X61.764 Y81.391
G0 X61.824 Y75.178
G1 F1320 X62.378 Y75.183 E32.80997
G1 X62.378 Y75.854 E32.86365
G1 X61.824 Y75.962 E32.90881
G1 X61.824 Y75.178 E32.97153
G0 F9000 X61.817 Y81.450
G1 F1320 X61.818 Y84.663 E33.22857
G1 X61.816 Y85.841 E33.32281
G1 X62.802 Y85.841 E33.40169
G1 X62.803 Y85.896 E33.40609
G1 X58.273 Y85.896 E33.76849
G1 X58.273 Y85.841 E33.77289
G1 X59.391 Y85.841 E33.86233
G1 X59.392 Y81.450 E34.21361
G1 X61.817 Y81.450 E34.40761
G0 F9000 X61.423 Y81.050
;TYPE:WALL-OUTER
G1 F1320 X61.423 Y74.778 E34.90937
G1 X62.341 Y74.778 E34.98281
G1 X62.480 Y74.789 E34.99396
G1 X62.643 Y74.842 E35.00767
G1 X62.722 Y74.902 E35.01561
G1 X62.750 Y74.935 E35.01907
G1 X62.770 Y74.970 E35.02230
G1 X62.778 Y74.999 E35.02470
G1 X62.779 Y76.010 E35.10558
G1 X62.762 Y76.080 E35.11135
G1 X62.744 Y76.113 E35.11435
G1 X62.702 Y76.155 E35.11911
G1 X62.570 Y76.225 E35.13106
G1 X62.219 Y76.293 E35.15966
G1 X62.217 Y85.441 E35.89150
G1 X63.202 Y85.441 E35.97030
G1 X63.203 Y86.296 E36.03870
G1 X57.873 Y86.296 E36.46510
G1 X57.873 Y85.441 E36.53350
G1 X58.991 Y85.441 E36.62294
G1 X58.992 Y78.132 E37.20766
G1 X58.990 Y77.857 E37.22966
G1 X58.992 Y76.282 E37.35566
G1 X58.642 Y76.228 E37.38399
G1 X58.544 Y76.182 E37.39265
G1 X58.482 Y76.132 E37.39903
G1 X58.444 Y76.071 E37.40478
G1 X58.432 Y76.028 E37.40835
G1 X58.431 Y75.004 E37.49027
G1 X58.443 Y74.964 E37.49361
G1 X58.474 Y74.918 E37.49805
G1 X58.561 Y74.847 E37.50703
G1 X58.727 Y74.791 E37.52104
G1 X59.290 Y74.778 E37.56610
G1 X59.770 Y74.778 E37.60450
G1 X59.770 Y81.050 E38.10626
G1 X61.423 Y81.050 E38.23850
G0 F9000 X61.622 Y81.212
;TYPE:SKIN
G1 F1320 X61.819 Y80.732 E38.28312
G1 X61.819 Y80.166 E38.32760
G1 X61.819 Y79.600 E38.37221
G1 X61.819 Y79.035 E38.41673
G1 X61.820 Y78.469 E38.46144
G1 X61.820 Y77.903 E38.50616
G1 X61.820 Y77.337 E38.55087
G1 X61.820 Y76.772 E38.59550
G1 X62.018 Y76.291 E38.63712
G0 F9000 X61.764 Y81.391
G0 X59.429 Y81.391
G0 X59.569 Y76.477
G1 F1320 X59.380 Y76.949 E38.67983
G1 X59.380 Y77.515 E38.72250
G1 X59.380 Y78.080 E38.76510
G1 X59.380 Y78.646 E38.80778
G1 X59.380 Y79.212 E38.85046
G1 X59.380 Y79.777 E38.89306
G1 X59.380 Y80.343 E38.93573
G1 X59.380 Y80.909 E38.97841
G1 X59.303 Y81.269 E39.00786
G0 F9000 X60.114 Y81.589
G1 F1320 X59.532 Y82.172 E39.07376
G0 F9000 X59.532 Y82.737
G1 F1320 X60.680 Y81.589 E39.20365
G0 F9000 X61.246 Y81.589
G1 F1320 X59.532 Y83.303 E39.39756
G0 F9000 X59.532 Y83.869
G1 F1320 X61.676 Y81.724 E39.64018
G0 F9000 X61.676 Y82.290
G1 F1320 X59.532 Y84.434 E39.88275
G0 F9000 X59.532 Y85.000
G1 F1320 X61.676 Y82.855 E40.12537
G0 F9000 X61.676 Y83.421
G1 F1320 X59.532 Y85.566 E40.36800
G0 F9000 X59.908 Y85.755
G1 F1320 X61.675 Y83.988 E40.56791
G0 F9000 X61.675 Y84.553
G1 F1320 X60.473 Y85.755 E40.70390
G0 F9000 X61.039 Y85.755
G1 F1320 X61.675 Y85.119 E40.77585
G0 F9000 X61.675 Y85.685
G1 F1320 X61.605 Y85.755 E40.78377
G0 F9000 X59.429 Y81.391
G0 X59.292 Y76.289
G0 X59.191 Y76.289
G1 F1320 X59.372 Y76.109 E40.80420
;LAYER:2
M106 S20
G0 F9000 X59.218 Y75.972 Z0.700
;TYPE:WALL-INNER
G1 F1440 X58.672 Y75.858 E40.84882
G1 X58.673 Y75.188 E40.90242
G1 X59.370 Y75.178 E40.95818
G1 X59.370 Y81.450 E41.45994
G1 X61.823 Y81.450 E41.65618
G1 X61.823 Y75.178 E42.15794
G1 X62.370 Y75.178 E42.20170
G1 X62.539 Y75.188 E42.21525
G1 X62.538 Y75.853 E42.26845
G1 X61.986 Y75.807 E42.31276
G1 X61.990 Y76.711 E42.38508
G1 X61.988 Y78.133 E42.49884
G1 X61.990 Y83.334 E42.91492
G1 X61.987 Y85.841 E43.11548
G1 X62.955 Y85.841 E43.19292
G1 X62.956 Y85.896 E43.19732
G1 X58.169 Y85.896 E43.58028
G1 X58.170 Y85.841 E43.58468
G1 X59.221 Y85.841 E43.66876
G1 X59.219 Y82.440 E43.94084
G1 X59.221 Y81.687 E44.00108
G1 X59.220 Y78.678 E44.24180
G1 X59.221 Y78.133 E44.28540
G1 X59.218 Y75.972 E44.45828
G0 F9000 X58.819 Y76.297
;TYPE:WALL-OUTER
G1 F1440 X58.431 Y76.216 E44.48999
G1 X58.398 Y76.200 E44.49293
G1 X58.308 Y76.116 E44.50277
G1 X58.282 Y76.060 E44.50771
G1 X58.272 Y76.003 E44.51234
G1 X58.273 Y75.105 E44.58418
G1 X58.272 Y75.025 E44.59058
G1 X58.289 Y74.954 E44.59642
G1 X58.305 Y74.921 E44.59936
G1 X58.392 Y74.842 E44.60876
G1 X58.521 Y74.791 E44.61986
G1 X59.114 Y74.778 E44.66731
G1 X59.770 Y74.778 E44.71979
G1 X59.770 Y81.050 E45.22155
G1 X61.423 Y81.050 E45.35379
G1 X61.423 Y74.778 E45.85555
G1 X62.379 Y74.778 E45.93203
G1 X62.706 Y74.798 E45.95824
G1 X62.819 Y74.844 E45.96800
G1 X62.880 Y74.890 E45.97411
G1 X62.903 Y74.917 E45.97695
G1 X62.921 Y74.952 E45.98010
G1 X62.939 Y75.038 E45.98713
G1 X62.938 Y75.945 E46.05969
G1 X62.939 Y75.999 E46.06401
G1 X62.921 Y76.084 E46.07096
G1 X62.901 Y76.120 E46.07425
G1 X62.868 Y76.159 E46.07834
G1 X62.809 Y76.201 E46.08413
G1 X62.674 Y76.249 E46.09559
G1 X62.594 Y76.259 E46.10204
G1 X62.388 Y76.242 E46.11858
G1 X62.390 Y76.712 E46.15618
G1 X62.388 Y85.441 E46.85450
G1 X63.355 Y85.441 E46.93186
G1 X63.356 Y86.296 E47.00026
G1 X57.769 Y86.296 E47.44722
G1 X57.770 Y85.441 E47.51562
G1 X58.821 Y85.441 E47.59970
G1 X58.819 Y76.297 E48.33122
G0 F9000 X58.881 Y76.005
G0 X59.429 Y75.119
G0 X59.429 Y81.391
G0 X59.809 Y81.588
;TYPE:SKIN
G1 F1440 X61.847 Y83.626 E48.56179
G0 F9000 X61.847 Y83.061
G1 F1440 X60.375 Y81.588 E48.72839
G0 F9000 X60.941 Y81.588
G1 F1440 X61.847 Y82.495 E48.83095
G0 F9000 X61.847 Y81.929
G1 F1440 X61.506 Y81.588 E48.86953
G0 F9000 X59.360 Y81.704
G1 F1440 X61.847 Y84.192 E49.15096
G0 F9000 X61.847 Y84.758
G1 F1440 X59.360 Y82.270 E49.43238
G0 F9000 X59.360 Y82.836
G1 F1440 X61.847 Y85.323 E49.71376
G0 F9000 X61.714 Y85.755
G1 F1440 X59.360 Y83.401 E49.98008
G0 F9000 X59.360 Y83.967
G1 F1440 X61.148 Y85.755 E50.18237
G0 F9000 X60.582 Y85.755
G1 F1440 X59.360 Y84.533 E50.32062
G0 F9000 X59.360 Y85.098
G1 F1440 X60.017 Y85.755 E50.39495
G0 F9000 X59.451 Y85.755
G1 F1440 X59.360 Y85.664 E50.40525
;LAYER:3
M106 S30
G0 F9000 X59.222 Y85.323 Z0.900
;TYPE:FILL
G1 F1440 X61.985 Y82.559 E50.71790
G0 F9000 X61.340 Y81.589
G1 F1440 X59.222 Y83.708 E50.95759
G0 F9000 X59.222 Y82.092
G1 F1440 X59.725 Y81.589 E51.01449
G0 F9000 X61.985 Y84.174
G1 F1440 X60.405 Y85.755 E51.19331
G0 F9000 X59.429 Y81.391
G0 X59.070 Y75.784
G1 F1440 X59.230 Y75.625 E51.21135
G0 F9000 X59.429 Y81.391
G0 X61.764 Y81.391
G0 X62.331 Y75.753
G1 F1440 X62.525 Y75.559 E51.23330
G0 F9000 X62.126 Y75.914
;TYPE:WALL-INNER
G1 F1440 X62.129 Y77.612 E51.36914
G1 X62.128 Y81.687 E51.69514
G1 X62.130 Y82.541 E51.76346
G1 X62.126 Y85.841 E52.02746
G1 X63.053 Y85.841 E52.10162
G1 X63.053 Y85.896 E52.10602
G1 X58.102 Y85.896 E52.50210
G1 X58.102 Y85.841 E52.50650
G1 X59.082 Y85.841 E52.58490
G1 X59.081 Y83.280 E52.78978
G1 X59.083 Y78.133 E53.20154
G1 X59.081 Y75.927 E53.37802
G1 X58.544 Y75.863 E53.42129
G1 X58.543 Y75.188 E53.47529
G1 X59.370 Y75.178 E53.54145
G1 X59.370 Y81.450 E54.04321
G1 X61.823 Y81.450 E54.23945
G1 X61.823 Y75.178 E54.74121
G1 X62.365 Y75.178 E54.78457
G1 X62.666 Y75.187 E54.80866
G1 X62.667 Y75.863 E54.86274
G1 X62.126 Y75.914 E54.90621
G0 F9000 X62.527 Y76.278
;TYPE:WALL-OUTER
G1 F1440 X62.527 Y85.441 E55.63925
G1 X63.453 Y85.441 E55.71333
G1 X63.454 Y86.296 E55.78173
G1 X57.702 Y86.296 E56.24189
G1 X57.702 Y85.441 E56.31029
G1 X58.682 Y85.441 E56.38869
G1 X58.682 Y76.283 E57.12133
G1 X58.314 Y76.230 E57.15108
G1 X58.253 Y76.198 E57.15659
G1 X58.220 Y76.172 E57.15995
G1 X58.157 Y76.075 E57.16920
G1 X58.144 Y76.009 E57.17458
G1 X58.143 Y75.037 E57.25234
G1 X58.160 Y74.952 E57.25928
G1 X58.205 Y74.877 E57.26627
G1 X58.313 Y74.808 E57.27653
G1 X58.368 Y74.791 E57.28113
G1 X58.948 Y74.778 E57.32754
G1 X59.770 Y74.778 E57.39330
G1 X59.770 Y81.050 E57.89506
G1 X61.423 Y81.050 E58.02730
G1 X61.423 Y74.778 E58.52906
G1 X62.376 Y74.778 E58.60530
G1 X62.836 Y74.791 E58.64212
G1 X62.965 Y74.844 E58.65328
G1 X63.007 Y74.880 E58.65770
G1 X63.030 Y74.909 E58.66066
G1 X63.051 Y74.952 E58.66449
G1 X63.066 Y75.030 E58.67085
G1 X63.067 Y76.002 E58.74861
G1 X63.050 Y76.089 E58.75570
G1 X62.997 Y76.166 E58.76318
G1 X62.956 Y76.199 E58.76739
G1 X62.892 Y76.232 E58.77315
G1 X62.835 Y76.249 E58.77790
G1 X62.527 Y76.278 E58.80265
G0 F9000 X62.501 Y75.979
G0 X62.179 Y75.962
G0 X61.811 Y81.589
;TYPE:SKIN
G1 F1440 X61.764 Y81.918 E58.83283
G1 X61.764 Y82.484 E58.88275
G1 X61.764 Y83.050 E58.93267
G1 X61.763 Y83.616 E58.98271
G1 X61.763 Y84.182 E59.03285
G1 X61.762 Y84.748 E59.08312
G1 X61.762 Y85.315 E59.13347
G1 X61.605 Y85.755 E59.17084
G0 F9000 X59.667 Y85.430
G1 F1440 X59.282 Y85.532 E59.20756
G1 X59.444 Y84.804 E59.25798
G1 X59.445 Y84.238 E59.30835
G1 X59.445 Y83.672 E59.35873
G1 X59.445 Y83.107 E59.40912
G1 X59.445 Y82.540 E59.45959
G1 X59.609 Y81.811 E59.51010
G1 X59.222 Y81.916 E59.54218
;LAYER:4
M106 S40
G0 F9000 X59.108 Y82.526 Z1.100
;TYPE:FILL
G1 F1500 X62.101 Y85.519 E59.88080
G0 F9000 X60.722 Y85.755
G1 F1500 X59.108 Y84.141 E60.06340
G0 F9000 X59.786 Y81.589
G1 F1500 X62.101 Y83.904 E60.32531
G0 F9000 X62.101 Y82.289
G1 F1500 X61.401 Y81.589 E60.40451
G0 F9000 X62.101 Y80.674
G1 F1500 X61.963 Y80.535 E60.42018
G0 F9000 X62.101 Y79.059
G1 F1500 X61.963 Y78.920 E60.43585
G0 F9000 X62.101 Y77.444
G1 F1500 X61.963 Y77.305 E60.45152
G0 F9000 X62.101 Y75.829
G1 F1500 X61.963 Y75.690 E60.46719
G0 F9000 X61.764 Y81.391
G0 X59.429 Y81.391
G0 X59.230 Y76.187
G1 F1500 X58.952 Y75.910 E60.48084
G1 X58.578 Y75.536 E60.52316
G0 F9000 X58.916 Y75.960
G0 X59.108 Y77.681
G1 F1500 X59.230 Y77.802 E60.53690
G0 F9000 X59.108 Y79.296
G1 F1500 X59.230 Y79.417 E60.55065
G0 F9000 X59.108 Y80.911
G1 F1500 X59.230 Y81.033 E60.56445
G0 F9000 X59.370 Y81.450
;TYPE:WALL-INNER
G1 F1500 X61.823 Y81.450 E60.76069
G1 X61.823 Y75.178 E61.26245
G1 X62.772 Y75.178 E61.33837
G1 X62.773 Y75.864 E61.39325
G1 X62.241 Y75.910 E61.43597
G1 X62.242 Y81.687 E61.89813
G1 X62.243 Y82.088 E61.93021
G1 X62.241 Y85.841 E62.23045
G1 X63.113 Y85.841 E62.30021
G1 X63.114 Y85.896 E62.30461
G1 X58.074 Y85.896 E62.70781
G1 X58.074 Y85.841 E62.71221
G1 X58.968 Y85.841 E62.78373
G1 X58.969 Y75.912 E63.57805
G1 X58.439 Y75.864 E63.62063
G1 X58.438 Y75.187 E63.67479
G1 X59.370 Y75.178 E63.74935
G1 X59.370 Y81.450 E64.25111
G0 F9000 X59.770 Y81.050
;TYPE:WALL-OUTER
G1 F1500 X61.423 Y81.050 E64.38335
G1 X61.423 Y74.778 E64.88511
G1 X62.856 Y74.778 E64.99975
G1 X62.982 Y74.798 E65.00996
G1 X63.077 Y74.842 E65.01833
G1 X63.136 Y74.907 E65.02535
G1 X63.157 Y74.951 E65.02925
G1 X63.173 Y75.030 E65.03570
G1 X63.172 Y75.092 E65.04066
G1 X63.173 Y76.001 E65.11338
G1 X63.150 Y76.104 E65.12183
G1 X63.140 Y76.125 E65.12369
