;FLAVOR:UltiGCode
;TIME:7282
;MATERIAL:16598
;MATERIAL2:0

;Layer count: 94
;LAYER:0
M107
G0 F9000 X7.891 Y90.828 Z0.300
;TYPE:SKIRT
G1 F1200 X12.397 Y90.818 E0.54072
G1 X15.385 Y90.822 E0.89928
G1 X16.867 Y90.806 E1.07713
G1 X21.613 Y90.864 E1.64669
G1 X21.613 Y102.549 E3.04889
G1 X22.543 Y102.549 E3.16049
G1 X22.589 Y106.270 E3.60705
G1 X22.558 Y107.161 E3.71403
G1 X22.540 Y107.979 E3.81222
G1 X22.522 Y108.839 E3.91544
G1 X22.506 Y109.696 E4.01830
G1 X22.476 Y111.417 E4.22485
G1 X22.477 Y111.417 E4.22497
G1 X22.449 Y113.145 E4.43236
G1 X22.437 Y114.003 E4.53533
G1 X22.432 Y114.506 E4.59569
G1 X22.421 Y115.398 E4.70274
G1 X22.405 Y119.471 E5.19150
G1 X21.300 Y119.471 E5.32410
G1 X21.300 Y130.251 E6.61770
G1 X16.849 Y130.261 E7.15182
G1 X14.199 Y130.257 E7.46982
G1 X12.647 Y130.262 E7.65606
G1 X8.204 Y130.246 E8.18923
G1 X8.204 Y119.471 E9.48223
G1 X7.135 Y119.471 E9.61051
G1 X7.078 Y115.419 E10.09680
G1 X7.052 Y113.505 E10.32650
G1 X7.038 Y112.552 E10.44087
G1 X7.039 Y112.552 E10.44099
G1 X7.022 Y111.599 E10.55537
G1 X7.007 Y110.639 E10.67058
G1 X7.008 Y110.639 E10.67070
G1 X6.990 Y109.689 E10.78472
G1 X6.975 Y108.760 E10.89622
G1 X6.974 Y108.760 E10.89634
G1 X6.960 Y108.219 E10.96128
G1 X6.938 Y107.208 E11.08263
G1 X6.917 Y106.360 E11.18442
G1 X6.917 Y102.549 E11.64174
G1 X7.891 Y102.549 E11.75862
G1 X7.891 Y90.828 E13.16514
G0 F9000 X8.291 Y91.227
G1 F1200 X12.398 Y91.218 E13.65798
G1 X15.423 Y91.222 E14.02098
G1 X16.867 Y91.206 E14.19427
G1 X21.213 Y91.259 E14.71583
G1 X21.213 Y102.949 E16.11863
G1 X22.148 Y102.949 E16.23083
G1 X22.189 Y106.266 E16.62890
G1 X22.158 Y107.147 E16.73468
G1 X22.140 Y107.970 E16.83347
G1 X22.122 Y108.831 E16.93681
G1 X22.106 Y109.685 E17.03931
G1 X22.107 Y109.685 E17.03943
G1 X22.077 Y111.415 E17.24706
G1 X22.049 Y113.139 E17.45397
G1 X22.037 Y113.997 E17.55694
G1 X22.032 Y114.501 E17.61742
G1 X22.021 Y115.393 E17.72447
G1 X22.007 Y119.071 E18.16583
G1 X20.900 Y119.071 E18.29867
G1 X20.900 Y129.852 E19.59239
G1 X16.848 Y129.861 E20.07863
G1 X14.357 Y129.857 E20.37755
G1 X12.647 Y129.862 E20.58275
G1 X8.604 Y129.848 E21.06792
G1 X8.604 Y119.071 E22.36116
G1 X7.529 Y119.071 E22.49016
G1 X7.478 Y115.413 E22.92916
G1 X7.452 Y113.499 E23.15886
G1 X7.438 Y112.546 E23.27323
G1 X7.422 Y111.593 E23.38761
G1 X7.407 Y110.633 E23.50282
G1 X7.408 Y110.633 E23.50294
G1 X7.390 Y109.682 E23.61708
G1 X7.373 Y108.719 E23.73266
G1 X7.360 Y108.209 E23.79388
G1 X7.338 Y107.199 E23.91511
G1 X7.317 Y106.355 E24.01642
G1 X7.317 Y102.949 E24.42514
G1 X8.291 Y102.949 E24.54202
G1 X8.291 Y91.227 E25.94866
G10
G0 F9000 X12.091 Y95.019
;TYPE:WALL-INNER
G11
G1 F1200 X12.584 Y95.018 E26.00782
G1 X12.584 Y106.749 E27.41554
G1 X16.920 Y106.749 E27.93586
G1 X16.920 Y95.007 E29.34490
G1 X17.413 Y95.013 E29.40407
G1 X17.413 Y106.749 E30.81239
G1 X18.369 Y106.749 E30.92711
G1 X18.323 Y108.752 E31.16753
G1 X18.277 Y111.349 E31.47922
G1 X18.249 Y113.078 E31.68673
G1 X18.237 Y113.946 E31.79090
G1 X18.232 Y114.459 E31.85246
G1 X18.222 Y115.271 E31.94991
G1 X17.100 Y115.271 E32.08455
G1 X17.100 Y126.060 E33.37923
G1 X16.763 Y126.061 E33.41967
G1 X16.763 Y115.274 E34.71411
G1 X12.722 Y115.275 E35.19903
G1 X12.723 Y126.062 E36.49347
G1 X12.404 Y126.061 E36.53175
G1 X12.404 Y115.271 E37.82655
G1 X11.277 Y115.271 E37.96179
G1 X11.238 Y112.490 E38.29554
G1 X11.207 Y110.572 E38.52573
G1 X11.189 Y109.614 E38.64071
G1 X11.173 Y108.653 E38.75605
G1 X11.159 Y108.116 E38.82051
G1 X11.137 Y107.115 E38.94066
G1 X11.128 Y106.749 E38.98459
G1 X12.091 Y106.749 E39.10015
G1 X12.091 Y95.019 E40.50775
G0 F9000 X11.691 Y94.620
;TYPE:WALL-OUTER
G1 F1200 X12.984 Y94.619 E40.66291
G1 X12.984 Y106.349 E42.07051
G1 X16.520 Y106.349 E42.49483
G1 X16.520 Y94.610 E43.90351
G1 X16.865 Y94.606 E43.94491
G1 X17.813 Y94.618 E44.05868
G1 X17.813 Y106.349 E45.46640
G1 X18.784 Y106.349 E45.58292
G1 X18.760 Y107.030 E45.66469
G1 X18.677 Y111.355 E46.18379
G1 X18.637 Y113.950 E46.49523
G1 X18.621 Y115.352 E46.66348
G1 X18.620 Y115.671 E46.70176
G1 X17.500 Y115.671 E46.83616
G1 X17.500 Y126.459 E48.13072
G1 X16.363 Y126.460 E48.26716
G1 X16.363 Y115.674 E49.56148
G1 X13.122 Y115.675 E49.95040
G1 X13.123 Y126.461 E51.24472
G1 X12.648 Y126.462 E51.30172
G1 X12.004 Y126.460 E51.37900
G1 X12.004 Y115.671 E52.67368
G1 X10.882 Y115.671 E52.80832
G1 X10.773 Y108.662 E53.64950
G1 X10.718 Y106.349 E53.92714
G1 X11.691 Y106.349 E54.04390
G1 X11.691 Y94.620 E55.45138
G0 F9000 X12.285 Y95.158
;TYPE:SKIN
G1 F1200 X12.337 Y95.493 E55.47823
G1 X12.337 Y96.058 E55.51433
G1 X12.337 Y96.624 E55.55033
G1 X12.337 Y97.190 E55.58650
G1 X12.337 Y97.756 E55.62266
G1 X12.337 Y98.321 E55.65877
G1 X12.337 Y98.887 E55.69493
G1 X12.337 Y99.453 E55.73110
G1 X12.444 Y99.842 E55.77951
G0 F9000 X12.643 Y106.690
G0 X16.861 Y106.690
G0 X17.060 Y99.933
G1 F1200 X17.166 Y100.322 E55.81556
G1 X17.166 Y100.887 E55.85166
G1 X17.166 Y101.453 E55.88766
G1 X17.166 Y102.019 E55.92366
G1 X17.166 Y102.584 E55.95959
G1 X17.166 Y103.150 E55.99559
G1 X17.166 Y103.716 E56.03159
G1 X17.166 Y104.281 E56.06752
G1 X17.166 Y104.847 E56.10352
G1 X17.166 Y105.413 E56.13952
G1 X17.166 Y105.978 E56.17545
G1 X17.273 Y106.368 E56.22398
G0 F9000 X17.060 Y106.721
G1 F1200 X18.208 Y107.869 E56.41880
G0 F9000 X18.217 Y107.313
G1 F1200 X17.792 Y106.888 E56.49093
G0 F9000 X16.661 Y106.888
G1 F1200 X18.198 Y108.425 E56.75176
G0 F9000 X18.188 Y108.981
G1 F1200 X16.095 Y106.888 E57.10696
G0 F9000 X15.530 Y106.888
G1 F1200 X18.179 Y109.537 E57.55651
G0 F9000 X18.169 Y110.093
G1 F1200 X14.964 Y106.888 E58.10041
G0 F9000 X14.398 Y106.888
G1 F1200 X18.160 Y110.650 E58.73885
G0 F9000 X18.150 Y111.205
G1 F1200 X13.833 Y106.888 E59.47147
G0 F9000 X13.267 Y106.888
G1 F1200 X18.141 Y111.762 E60.29861
G0 F9000 X18.131 Y112.318
G1 F1200 X12.701 Y106.888 E61.22011
G0 F9000 X12.444 Y106.630
G1 F1200 X12.337 Y106.241 E61.25618
G1 X12.337 Y105.675 E61.29235
G1 X12.337 Y105.109 E61.32835
G1 X12.337 Y104.544 E61.36445
G1 X12.337 Y103.978 E61.40062
G1 X12.337 Y103.412 E61.43662
G1 X12.337 Y102.847 E61.47272
G1 X12.337 Y102.281 E61.50889
G1 X12.337 Y101.715 E61.54505
G1 X12.337 Y101.150 E61.58116
G1 X12.337 Y100.584 E61.61732
G1 X12.230 Y100.194 E61.66585
G0 F9000 X12.136 Y106.888
G1 F1200 X18.122 Y112.874 E62.68171
G0 F9000 X18.112 Y113.430
G1 F1200 X11.570 Y106.888 E63.79193
G0 F9000 X11.276 Y107.159
G1 F1200 X18.102 Y113.986 E64.95042
G0 F9000 X18.093 Y114.542
G1 F1200 X11.286 Y107.735 E66.10561
G0 F9000 X11.296 Y108.311
G1 F1200 X18.083 Y115.098 E67.25740
G0 F9000 X17.549 Y115.130
G1 F1200 X11.305 Y108.886 E68.31704
G0 F9000 X11.316 Y109.462
G1 F1200 X16.983 Y115.130 E69.27885
G0 F9000 X16.421 Y115.133
G1 F1200 X11.326 Y110.038 E70.14350
G0 F9000 X11.336 Y110.614
G1 F1200 X15.855 Y115.133 E70.91040
G0 F9000 X15.289 Y115.133
G1 F1200 X11.346 Y111.189 E71.57963
G0 F9000 X11.356 Y111.765
G1 F1200 X14.724 Y115.133 E72.15120
G0 F9000 X14.158 Y115.133
G1 F1200 X11.366 Y112.340 E72.62510
G0 F9000 X11.375 Y112.916
G1 F1200 X13.592 Y115.133 E73.00134
G0 F9000 X13.027 Y115.133
G1 F1200 X11.385 Y113.492 E73.27991
G0 F9000 X11.395 Y114.067
G1 F1200 X12.457 Y115.129 E73.46014
G0 F9000 X11.892 Y115.129
G1 F1200 X11.406 Y114.643 E73.54262
G0 F9000 X16.861 Y106.690
G0 X17.273 Y99.580
G1 F1200 X17.166 Y99.190 E73.57877
G1 X17.166 Y98.625 E73.61488
G1 X17.166 Y98.059 E73.65087
G1 X17.166 Y97.493 E73.68687
G1 X17.166 Y96.928 E73.72297
G1 X17.166 Y96.362 E73.75897
G1 X17.166 Y95.796 E73.79497
G1 X17.060 Y95.407 E73.84335
;LAYER:1
M106 S10
G0 F9000 X17.413 Y94.305 Z0.500
;TYPE:WALL-INNER
G1 F1620 X17.413 Y106.749 E74.83887
G1 X18.769 Y106.749 E74.94735
G1 X18.684 Y109.118 E75.13699
G1 X18.631 Y110.898 E75.27946
G1 X18.584 Y112.617 E75.41703
G1 X18.563 Y113.472 E75.48545
G1 X18.528 Y115.184 E75.62244
G1 X18.527 Y115.271 E75.62940
G1 X17.100 Y115.271 E75.74356
G1 X17.100 Y126.768 E76.66332
G1 X16.763 Y126.769 E76.69028
G1 X16.763 Y115.273 E77.60996
G1 X12.724 Y115.276 E77.93308
G1 X12.723 Y126.770 E78.85260
G1 X12.404 Y126.769 E78.87812
G1 X12.404 Y115.271 E79.79796
G1 X10.974 Y115.271 E79.91236
G1 X10.958 Y114.401 E79.98197
G1 X10.939 Y113.443 E80.05862
G1 X10.918 Y112.485 E80.13528
G1 X10.867 Y110.566 E80.28886
G1 X10.806 Y108.644 E80.44269
G1 X10.782 Y108.086 E80.48738
G1 X10.743 Y107.059 E80.56959
G1 X10.730 Y106.749 E80.59442
G1 X12.091 Y106.749 E80.70330
G1 X12.091 Y94.313 E81.69818
G1 X12.584 Y94.313 E81.73762
G1 X12.584 Y106.749 E82.73250
G1 X16.920 Y106.749 E83.07938
G1 X16.920 Y94.299 E84.07538
G1 X17.413 Y94.305 E84.11482
G0 F9000 X17.813 Y93.910
;TYPE:WALL-OUTER
G1 F1620 X17.813 Y106.349 E85.10994
G1 X19.187 Y106.349 E85.21986
G1 X19.057 Y110.021 E85.51380
G1 X18.963 Y113.481 E85.79071
G1 X18.928 Y115.191 E85.92753
G1 X18.922 Y115.671 E85.96594
G1 X17.500 Y115.671 E86.07970
G1 X17.500 Y127.167 E86.99938
G1 X16.363 Y127.168 E87.09034
G1 X16.363 Y115.674 E88.00986
G1 X13.124 Y115.675 E88.26898
G1 X13.123 Y127.169 E89.18850
G1 X12.805 Y127.170 E89.21394
G1 X12.004 Y127.168 E89.27802
G1 X12.004 Y115.671 E90.19778
G1 X10.581 Y115.671 E90.31162
G1 X10.518 Y112.495 E90.56575
G1 X10.467 Y110.577 E90.71924
G1 X10.406 Y108.659 E90.87276
G1 X10.314 Y106.387 E91.05467
G1 X10.313 Y106.349 E91.05771
G1 X11.691 Y106.349 E91.16795
G1 X11.691 Y93.912 E92.16291
G1 X12.984 Y93.911 E92.26635
G1 X12.984 Y106.349 E93.26139
G1 X16.520 Y106.349 E93.54427
G1 X16.520 Y93.895 E94.54059
G1 X17.813 Y93.910 E94.64404
G0 F9000 X17.272 Y94.450
;TYPE:SKIN
G1 F1620 X17.166 Y94.839 E94.66791
G1 X17.166 Y95.404 E94.69175
G1 X17.166 Y95.970 E94.71563
G1 X17.166 Y96.536 E94.73952
G1 X17.166 Y97.101 E94.76336
G1 X17.166 Y97.667 E94.78725
G1 X17.166 Y98.233 E94.81113
G1 X17.166 Y98.798 E94.83497
G1 X17.166 Y99.364 E94.85886
G1 X17.060 Y99.753 E94.89111
G0 F9000 X16.861 Y106.690
G0 X12.643 Y106.690
G0 X12.443 Y99.844
G1 F1620 X12.336 Y100.233 E94.91516
G1 X12.336 Y100.799 E94.93916
G1 X12.336 Y101.365 E94.96316
G1 X12.336 Y101.930 E94.98723
G1 X12.336 Y102.496 E95.01122
G1 X12.336 Y103.062 E95.03522
G1 X12.336 Y103.627 E95.05918
G1 X12.336 Y104.193 E95.08318
G1 X12.336 Y104.759 E95.10718
G1 X12.336 Y105.324 E95.13113
G1 X12.336 Y105.890 E95.15513
G1 X12.336 Y106.456 E95.17913
G1 X12.230 Y106.845 E95.21138
G0 F9000 X12.188 Y106.888
G1 F1620 X10.926 Y108.150 E95.35416
G0 F9000 X10.948 Y108.694
G1 F1620 X12.754 Y106.888 E95.55849
G0 F9000 X13.319 Y106.888
G1 F1620 X10.961 Y109.246 E95.82527
G0 F9000 X10.975 Y109.798
G1 F1620 X13.885 Y106.888 E96.15449
G0 F9000 X14.451 Y106.888
G1 F1620 X10.989 Y110.349 E96.54612
G0 F9000 X11.003 Y110.901
G1 F1620 X15.016 Y106.888 E97.00014
G0 F9000 X15.582 Y106.888
G1 F1620 X11.018 Y111.452 E97.51649
G0 F9000 X11.031 Y112.005
G1 F1620 X16.148 Y106.888 E98.09542
G0 F9000 X16.713 Y106.888
G1 F1620 X11.045 Y112.556 E98.73668
G0 F9000 X11.059 Y113.108
G1 F1620 X17.279 Y106.888 E99.44039
G0 F9000 X17.060 Y106.541
G1 F1620 X17.166 Y106.152 E99.46426
G1 X17.166 Y105.587 E99.48810
G1 X17.166 Y105.021 E99.51199
G1 X17.166 Y104.455 E99.53587
G1 X17.166 Y103.890 E99.55972
G1 X17.166 Y103.324 E99.58360
G1 X17.166 Y102.758 E99.60749
G1 X17.166 Y102.192 E99.63148
G1 X17.166 Y101.627 E99.65533
G1 X17.166 Y101.061 E99.67921
G1 X17.166 Y100.495 E99.70321
G1 X17.272 Y100.107 E99.73539
G0 F9000 X17.472 Y106.690
G0 X17.845 Y106.888
G1 F1620 X11.073 Y113.659 E100.50150
G0 F9000 X11.088 Y114.211
G1 F1620 X18.410 Y106.888 E101.32994
G0 F9000 X18.613 Y107.251
G1 F1620 X11.101 Y114.763 E102.17983
G0 F9000 X11.300 Y115.130
G1 F1620 X18.596 Y107.833 E103.00533
G0 F9000 X18.580 Y108.415
G1 F1620 X11.865 Y115.130 E103.76505
G0 F9000 X12.431 Y115.130
G1 F1620 X18.563 Y108.998 E104.45881
G0 F9000 X18.546 Y109.581
G1 F1620 X12.992 Y115.135 E105.08717
G0 F9000 X13.558 Y115.134
G1 F1620 X18.530 Y110.162 E105.64969
G0 F9000 X18.513 Y110.745
G1 F1620 X14.124 Y115.134 E106.14624
G0 F9000 X14.690 Y115.133
G1 F1620 X18.497 Y111.327 E106.57690
G0 F9000 X18.480 Y111.910
G1 F1620 X15.257 Y115.133 E106.94154
G0 F9000 X15.822 Y115.133
G1 F1620 X18.463 Y112.492 E107.24034
G0 F9000 X18.447 Y113.074
G1 F1620 X16.389 Y115.132 E107.47317
G0 F9000 X16.955 Y115.132
G1 F1620 X18.430 Y113.657 E107.64005
G0 F9000 X18.413 Y114.239
G1 F1620 X17.522 Y115.130 E107.74086
G0 F9000 X18.088 Y115.130
G1 F1620 X18.396 Y114.822 E107.77570
G0 F9000 X10.904 Y107.606
G1 F1620 X11.622 Y106.888 E107.85693
G0 F9000 X11.057 Y106.888
G1 F1620 X10.882 Y107.063 E107.87673
G0 F9000 X12.032 Y106.690
G0 X12.230 Y99.492
G1 F1620 X12.336 Y99.102 E107.90082
G1 X12.336 Y98.536 E107.92482
G1 X12.336 Y97.970 E107.94882
G1 X12.336 Y97.405 E107.97277
G1 X12.336 Y96.839 E107.99677
G1 X12.336 Y96.273 E108.02077
G1 X12.336 Y95.708 E108.04473
G1 X12.336 Y95.142 E108.06872
G1 X12.443 Y94.753 E108.10100
;LAYER:2
M106 S20
G0 F9000 X12.584 Y93.785 Z0.700
;TYPE:WALL-INNER
G1 F2100 X12.584 Y106.749 E109.13812
G1 X16.920 Y106.749 E109.48500
G1 X16.920 Y93.774 E110.52300
G1 X17.413 Y93.779 E110.56244
G1 X17.413 Y106.749 E111.60004
G1 X19.069 Y106.749 E111.73252
G1 X19.017 Y107.667 E111.80608
G1 X18.993 Y108.219 E111.85028
G1 X18.950 Y109.111 E111.92172
G1 X18.912 Y110.002 E111.99307
G1 X18.876 Y110.892 E112.06433
G1 X18.843 Y111.783 E112.13566
G1 X18.790 Y113.562 E112.27804
G1 X18.747 Y115.271 E112.41480
G1 X17.100 Y115.271 E112.54656
G1 X17.100 Y127.295 E113.50848
G1 X16.763 Y127.296 E113.53544
G1 X16.763 Y115.273 E114.49728
G1 X12.725 Y115.276 E114.82032
G1 X12.725 Y127.296 E115.78192
G1 X12.553 Y127.297 E115.79568
G1 X12.404 Y127.296 E115.80760
G1 X12.404 Y115.271 E116.76960
G1 X10.758 Y115.271 E116.90128
G1 X10.744 Y114.676 E116.94890
G1 X10.717 Y113.647 E117.03125
G1 X10.687 Y112.617 E117.11368
G1 X10.652 Y111.582 E117.19653
G1 X10.621 Y110.752 E117.26297
G1 X10.536 Y108.727 E117.42512
G1 X10.483 Y107.675 E117.50938
G1 X10.432 Y106.749 E117.58358
G1 X12.091 Y106.749 E117.71630
G1 X12.091 Y93.785 E118.75342
G1 X12.584 Y93.785 E118.79286
G0 F9000 X12.984 Y93.386
;TYPE:WALL-OUTER
G1 F2100 X12.984 Y106.349 E119.82990
G1 X16.520 Y106.349 E120.11278
G1 X16.520 Y93.377 E121.15054
G1 X16.849 Y93.373 E121.17686
G1 X17.813 Y93.384 E121.25398
G1 X17.813 Y106.349 E122.29118
G1 X19.497 Y106.349 E122.42590
G1 X19.416 Y107.687 E122.53314
G1 X19.276 Y110.907 E122.79098
G1 X19.243 Y111.796 E122.86215
G1 X19.167 Y114.460 E123.07536
G1 X19.146 Y115.308 E123.14322
G1 X19.138 Y115.671 E123.17227
G1 X17.500 Y115.671 E123.30331
G1 X17.500 Y127.694 E124.26515
G1 X16.944 Y127.696 E124.30963
G1 X16.363 Y127.695 E124.35611
G1 X16.363 Y115.674 E125.31779
G1 X13.125 Y115.675 E125.57683
G1 X13.125 Y127.694 E126.53835
G1 X12.553 Y127.697 E126.58411
G1 X12.004 Y127.694 E126.62803
G1 X12.004 Y115.671 E127.58987
G1 X10.366 Y115.671 E127.72091
G1 X10.317 Y113.659 E127.88191
G1 X10.252 Y111.596 E128.04704
G1 X10.174 Y109.617 E128.20548
G1 X10.137 Y108.745 E128.27530
G1 X10.031 Y106.735 E128.43633
G1 X10.005 Y106.349 E128.46728
G1 X11.691 Y106.349 E128.60216
G1 X11.691 Y93.386 E129.63920
G1 X12.984 Y93.386 E129.74264
G0 F9000 X12.230 Y93.972
;TYPE:SKIN
G1 F2100 X12.337 Y94.361 E129.76668
G1 X12.337 Y94.927 E129.79068
G1 X12.337 Y95.493 E129.81479
G1 X12.337 Y96.058 E129.83886
G1 X12.337 Y96.624 E129.86286
G1 X12.337 Y97.190 E129.88697
G1 X12.337 Y97.756 E129.91108
G1 X12.337 Y98.321 E129.93515
G1 X12.337 Y98.887 E129.95926
G1 X12.337 Y99.453 E129.98337
G1 X12.444 Y99.842 E130.01565
G0 F9000 X12.643 Y106.690
G0 X16.861 Y106.690
G0 X17.060 Y99.933
G1 F2100 X17.166 Y100.321 E130.03954
G1 X17.166 Y100.887 E130.06354
G1 X17.166 Y101.453 E130.08743
G1 X17.166 Y102.019 E130.11131
G1 X17.166 Y102.584 E130.13515
G1 X17.166 Y103.150 E130.15904
G1 X17.166 Y103.716 E130.18292
G1 X17.166 Y104.281 E130.20677
G1 X17.166 Y104.847 E130.23065
G1 X17.166 Y105.413 E130.25454
G1 X17.166 Y105.978 E130.27838
G1 X17.272 Y106.367 E130.31063
G0 F9000 X17.060 Y106.721
G1 F2100 X18.845 Y108.506 E130.51258
G0 F9000 X18.870 Y107.966
G1 F2100 X17.792 Y106.888 E130.63455
G0 F9000 X18.358 Y106.888
G1 F2100 X18.896 Y107.425 E130.69536
G0 F9000 X18.821 Y109.047
G1 F2100 X16.661 Y106.888 E130.93968
G0 F9000 X16.095 Y106.888
G1 F2100 X18.796 Y109.588 E131.24520
G0 F9000 X18.771 Y110.129
