;FLAVOR:UltiGCode
;TIME:6898
;MATERIAL:15701
;MATERIAL2:0

;Layer count: 204
;LAYER:0
M107
G0 F9000 X17.807 Y34.773 Z0.300
;TYPE:SKIRT
G1 F1800 X63.139 Y34.773 E5.43984
G1 X66.708 Y38.342 E6.04552
G1 X66.708 Y48.625 E7.27948
G1 X63.139 Y52.194 E7.88516
G1 X57.946 Y52.194 E8.50832
G1 X57.946 Y56.671 E9.04556
G1 X23.000 Y56.671 E13.23908
G1 X23.000 Y52.194 E13.77632
G1 X17.807 Y52.194 E14.39948
G1 X14.238 Y48.625 E15.00516
G1 X14.238 Y38.342 E16.23912
G1 X17.807 Y34.773 E16.84480
G0 F9000 X17.973 Y35.173
G1 F1800 X62.973 Y35.173 E22.24480
G1 X66.308 Y38.508 E22.81077
G1 X66.308 Y48.459 E24.00489
G1 X62.973 Y51.794 E24.57085
G1 X57.546 Y51.794 E25.22209
G1 X57.546 Y56.271 E25.75933
G1 X23.400 Y56.271 E29.85685
G1 X23.400 Y51.794 E30.39409
G1 X17.973 Y51.794 E31.04533
G1 X14.638 Y48.459 E31.61130
G1 X14.638 Y38.508 E32.80542
G1 X17.973 Y35.173 E33.37139
G10
G0 F9000 X19.263 Y39.451
;TYPE:FILL
G11
G1 F1800 X20.028 Y40.215 E33.50113
G0 F9000 X18.743 Y42.860
G0 X19.092 Y45.273
G0 X20.387 Y47.035
G1 F1800 X21.205 Y47.853 E33.63995
G0 F9000 X19.397 Y46.045
G1 F1800 X18.577 Y45.225 E33.77911
G0 F9000 X18.759 Y42.177
G1 F1800 X18.577 Y41.995 E33.80999
G0 F9000 X19.277 Y41.080
G1 F1800 X18.577 Y40.380 E33.92879
G0 F9000 X20.539 Y39.112
G1 F1800 X20.991 Y39.564 E34.00550
G0 F9000 X23.746 Y39.309
G0 X59.301 Y39.113
G1 F1800 X59.590 Y39.402 E34.05454
G0 F9000 X60.916 Y39.113
G1 F1800 X62.366 Y40.563 E34.30061
G0 F9000 X62.076 Y41.889
G1 F1800 X62.366 Y42.178 E34.34974
G0 F9000 X62.064 Y45.106
G1 F1800 X62.366 Y45.408 E34.40099
G0 F9000 X61.480 Y46.137
G1 F1800 X62.269 Y46.926 E34.53489
G0 F9000 X61.461 Y47.733
G1 F1800 X60.678 Y46.951 E34.66769
G0 F9000 X59.966 Y47.853
G1 F1800 X59.659 Y47.546 E34.71979
G0 F9000 X59.629 Y47.409
;TYPE:WALL-INNER
G1 F1800 X60.185 Y47.129 E34.79449
G1 X60.693 Y46.770 E34.86914
G1 X61.123 Y46.363 E34.94018
G1 X61.523 Y45.860 E35.01730
G1 X61.837 Y45.308 E35.09351
G1 X62.043 Y44.780 E35.16152
G1 X62.076 Y44.680 E35.17416
G1 X62.204 Y44.108 E35.24450
G1 X62.250 Y43.485 E35.31946
G1 X62.207 Y42.889 E35.39117
G1 X62.075 Y42.280 E35.46594
G1 X61.855 Y41.694 E35.54105
G1 X61.568 Y41.178 E35.61191
G1 X61.196 Y40.684 E35.68612
G1 X60.738 Y40.234 E35.76317
G1 X60.257 Y39.884 E35.83455
G1 X59.697 Y39.588 E35.91056
G1 X59.100 Y39.378 E35.98650
G1 X58.514 Y39.267 E36.05807
G1 X57.925 Y39.236 E36.12885
G1 X57.821 Y39.234 E36.14133
G1 X57.232 Y39.302 E36.21248
G1 X56.677 Y39.443 E36.28120
G1 X56.050 Y39.703 E36.36265
G1 X55.546 Y40.010 E36.43347
G1 X55.059 Y40.410 E36.50909
G1 X54.672 Y40.836 E36.57816
G1 X54.283 Y41.414 E36.66176
G1 X54.031 Y41.950 E36.73284
G1 X53.857 Y42.518 E36.80412
G1 X53.760 Y43.138 E36.87943
G1 X53.755 Y43.764 E36.95455
G1 X53.841 Y44.385 E37.02978
G1 X54.018 Y44.985 E37.10485
G1 X54.267 Y45.523 E37.17599
G1 X54.591 Y46.026 E37.24779
G1 X54.671 Y46.130 E37.26353
G1 X55.057 Y46.555 E37.33243
G1 X55.512 Y46.934 E37.40349
G1 X56.014 Y47.243 E37.47422
G1 X56.592 Y47.495 E37.54989
G1 X57.200 Y47.659 E37.62546
G1 X57.803 Y47.729 E37.69830
G1 X57.876 Y47.731 E37.70707
G1 X58.421 Y47.711 E37.77251
G1 X58.491 Y47.706 E37.78093
G1 X59.068 Y47.598 E37.85137
G1 X59.629 Y47.409 E37.92241
G0 F9000 X61.400 Y47.994
G1 F1800 X52.060 Y47.994 E39.04321
G1 X52.060 Y49.193 E39.18709
G1 X53.746 Y52.114 E39.59181
G1 X53.746 Y52.471 E39.63465
G1 X27.200 Y52.471 E42.82017
G1 X27.200 Y52.114 E42.86301
G1 X28.797 Y49.347 E43.24639
G1 X28.886 Y49.198 E43.26721
G1 X28.886 Y47.994 E43.41169
G1 X19.546 Y47.994 E44.53249
G1 X18.438 Y46.886 E44.72053
G1 X18.438 Y40.081 E45.53713
G1 X19.546 Y38.973 E45.72516
G1 X61.400 Y38.973 E50.74764
G1 X62.508 Y40.081 E50.93568
G1 X62.508 Y46.886 E51.75228
G1 X61.400 Y47.994 E51.94031
G0 F9000 X56.592 Y47.494
G0 X54.592 Y46.026
G0 X53.280 Y44.780
G1 F1800 X53.442 Y44.108 E52.02326
G1 X53.488 Y43.485 E52.09822
G1 X53.445 Y42.889 E52.16993
G1 X53.313 Y42.279 E52.24482
G1 X53.092 Y41.694 E52.31987
G1 X52.807 Y41.179 E52.39050
G1 X52.434 Y40.684 E52.46487
G1 X51.976 Y40.234 E52.54192
G1 X51.495 Y39.884 E52.61331
G1 X50.935 Y39.588 E52.68932
G1 X50.338 Y39.378 E52.76526
G1 X49.752 Y39.267 E52.83683
G1 X49.162 Y39.236 E52.90773
G1 X49.058 Y39.234 E52.92021
G1 X48.470 Y39.302 E52.99124
G1 X47.915 Y39.443 E53.05996
G1 X47.288 Y39.703 E53.14141
G1 X46.784 Y40.010 E53.21222
G1 X46.297 Y40.410 E53.28785
G1 X45.910 Y40.836 E53.35691
G1 X45.521 Y41.414 E53.44052
G1 X45.269 Y41.950 E53.51159
G1 X45.095 Y42.518 E53.58288
G1 X44.998 Y43.138 E53.65819
G1 X44.993 Y43.764 E53.73331
G1 X45.079 Y44.385 E53.80854
G1 X45.256 Y44.985 E53.88361
G1 X45.505 Y45.523 E53.95475
G1 X45.829 Y46.026 E54.02654
G1 X45.909 Y46.130 E54.04229
G1 X46.295 Y46.555 E54.11118
G1 X46.750 Y46.934 E54.18225
G1 X47.252 Y47.243 E54.25298
G1 X47.830 Y47.495 E54.32865
G1 X48.438 Y47.659 E54.40422
G1 X49.040 Y47.729 E54.47694
G1 X49.113 Y47.731 E54.48571
G1 X49.659 Y47.711 E54.55127
G1 X49.729 Y47.706 E54.55969
G1 X50.306 Y47.598 E54.63013
G1 X50.867 Y47.409 E54.70117
G1 X51.423 Y47.129 E54.77587
G1 X51.932 Y46.770 E54.85062
G1 X52.360 Y46.362 E54.92158
G1 X52.760 Y45.860 E54.99860
G1 X53.074 Y45.309 E55.07470
G1 X53.280 Y44.780 E55.14283
G0 F9000 X51.930 Y46.769
G0 X49.658 Y47.710
G0 X47.252 Y47.243
G0 X45.506 Y45.522
G0 X44.710 Y43.830
G1 F1800 X44.715 Y43.203 E55.21807
G1 X44.628 Y42.583 E55.29320
G1 X44.452 Y41.983 E55.36823
G1 X44.202 Y41.445 E55.43942
G1 X43.867 Y40.925 E55.51365
G1 X43.451 Y40.451 E55.58933
G1 X43.019 Y40.084 E55.65735
G1 X42.419 Y39.703 E55.74264
G1 X41.875 Y39.471 E55.81361
G1 X41.270 Y39.308 E55.88880
G1 X40.667 Y39.237 E55.96166
G1 X40.593 Y39.235 E55.97054
G1 X40.048 Y39.256 E56.03599
G1 X39.979 Y39.261 E56.04429
G1 X39.402 Y39.369 E56.11473
G1 X38.842 Y39.558 E56.18566
G1 X38.287 Y39.837 E56.26020
G1 X37.777 Y40.197 E56.33511
G1 X37.348 Y40.604 E56.40607
G1 X36.947 Y41.107 E56.48326
G1 X36.634 Y41.658 E56.55931
G1 X36.428 Y42.188 E56.62754
G1 X36.267 Y42.861 E56.71058
G1 X36.221 Y43.483 E56.78543
G1 X36.263 Y44.078 E56.85700
G1 X36.395 Y44.688 E56.93190
G1 X36.616 Y45.273 E57.00694
G1 X36.903 Y45.789 E57.07779
G1 X37.273 Y46.281 E57.15167
G1 X37.732 Y46.733 E57.22897
G1 X38.214 Y47.082 E57.30038
G1 X38.774 Y47.379 E57.37645
G1 X39.369 Y47.589 E57.45216
G1 X39.987 Y47.707 E57.52766
G1 X40.591 Y47.732 E57.60020
G1 X40.665 Y47.730 E57.60909
G1 X41.238 Y47.666 E57.67827
G1 X41.812 Y47.517 E57.74944
G1 X42.386 Y47.279 E57.82400
G1 X42.922 Y46.959 E57.89891
G1 X43.410 Y46.557 E57.97478
G1 X43.797 Y46.131 E58.04385
G1 X44.186 Y45.555 E58.12726
G1 X44.439 Y45.017 E58.19860
G1 X44.612 Y44.448 E58.26996
G1 X44.710 Y43.830 E58.34505
G0 F9000 X43.796 Y46.131
G0 X41.811 Y47.516
G0 X39.370 Y47.588
G0 X37.274 Y46.280
G0 X36.264 Y44.076
G0 X35.948 Y43.829
G1 F1800 X35.953 Y43.203 E58.42017
G1 X35.867 Y42.583 E58.49529
G1 X35.690 Y41.983 E58.57035
G1 X35.441 Y41.445 E58.64149
G1 X35.106 Y40.925 E58.71572
G1 X34.690 Y40.451 E58.79140
G1 X34.258 Y40.084 E58.85942
G1 X33.658 Y39.703 E58.94471
G1 X33.114 Y39.471 E59.01568
G1 X32.508 Y39.308 E59.09098
G1 X31.906 Y39.237 E59.16372
G1 X31.832 Y39.235 E59.17261
G1 X31.286 Y39.256 E59.23818
G1 X31.217 Y39.261 E59.24648
G1 X30.640 Y39.369 E59.31692
G1 X30.079 Y39.558 E59.38796
G1 X29.523 Y39.837 E59.46261
G1 X29.014 Y40.197 E59.53742
G1 X28.586 Y40.604 E59.60830
G1 X28.185 Y41.107 E59.68549
G1 X27.872 Y41.658 E59.76153
G1 X27.666 Y42.188 E59.82977
G1 X27.504 Y42.860 E59.91272
G1 X27.458 Y43.483 E59.98768
G1 X27.501 Y44.078 E60.05927
G1 X27.633 Y44.689 E60.13428
G1 X27.854 Y45.273 E60.20921
G1 X28.140 Y45.789 E60.28000
G1 X28.512 Y46.282 E60.35412
G1 X28.970 Y46.733 E60.43125
G1 X29.451 Y47.082 E60.50256
G1 X30.011 Y47.379 E60.57863
G1 X30.607 Y47.589 E60.65446
G1 X31.225 Y47.707 E60.72996
G1 X31.830 Y47.732 E60.80262
G1 X31.904 Y47.730 E60.81150
G1 X32.476 Y47.666 E60.88057
G1 X33.051 Y47.517 E60.95185
G1 X33.625 Y47.279 E61.02642
G1 X34.161 Y46.959 E61.10133
G1 X34.649 Y46.557 E61.17720
G1 X35.036 Y46.131 E61.24626
G1 X35.425 Y45.554 E61.32977
G1 X35.677 Y45.017 E61.40095
G1 X35.851 Y44.449 E61.47224
G1 X35.948 Y43.829 E61.54754
G0 F9000 X35.035 Y46.131
G0 X33.050 Y47.516
G0 X30.609 Y47.588
G0 X28.512 Y46.280
G0 X27.501 Y44.078
G0 X27.186 Y43.829
G1 F1800 X27.191 Y43.203 E61.62267
G1 X27.105 Y42.583 E61.69778
G1 X26.928 Y41.983 E61.77285
G1 X26.679 Y41.445 E61.84398
G1 X26.344 Y40.925 E61.91821
G1 X25.928 Y40.451 E61.99389
G1 X25.496 Y40.084 E62.06191
G1 X24.896 Y39.703 E62.14720
G1 X24.352 Y39.471 E62.21817
G1 X23.746 Y39.308 E62.29348
G1 X23.143 Y39.237 E62.36634
G1 X23.069 Y39.235 E62.37522
G1 X22.524 Y39.256 E62.44067
G1 X22.455 Y39.261 E62.44897
G1 X21.878 Y39.369 E62.51941
G1 X21.317 Y39.558 E62.59045
G1 X20.761 Y39.837 E62.66510
G1 X20.253 Y40.197 E62.73981
G1 X19.823 Y40.603 E62.81078
G1 X19.422 Y41.107 E62.88807
G1 X19.109 Y41.659 E62.96422
G1 X18.903 Y42.189 E63.03245
G1 X18.870 Y42.288 E63.04497
G1 X18.742 Y42.860 E63.11531
G1 X18.696 Y43.483 E63.19027
G1 X18.739 Y44.078 E63.26186
G1 X18.871 Y44.688 E63.33675
G1 X19.091 Y45.273 E63.41175
G1 X19.378 Y45.789 E63.48261
G1 X19.750 Y46.282 E63.55672
G1 X20.208 Y46.733 E63.63385
G1 X20.689 Y47.082 E63.70517
G1 X21.249 Y47.379 E63.78123
G1 X21.845 Y47.589 E63.85706
G1 X22.463 Y47.707 E63.93256
G1 X23.067 Y47.732 E64.00510
G1 X23.141 Y47.730 E64.01399
G1 X23.714 Y47.666 E64.08318
G1 X24.289 Y47.517 E64.15445
G1 X24.863 Y47.279 E64.22902
G1 X25.399 Y46.959 E64.30393
G1 X25.887 Y46.557 E64.37980
G1 X26.274 Y46.131 E64.44887
G1 X26.663 Y45.554 E64.53237
G1 X26.915 Y45.017 E64.60356
G1 X27.089 Y44.449 E64.67484
G1 X27.186 Y43.829 E64.75015
G0 F9000 X26.786 Y43.796
;TYPE:WALL-OUTER
G1 F1800 X26.791 Y43.229 E64.81819
G1 X26.713 Y42.668 E64.88616
G1 X26.553 Y42.124 E64.95420
G1 X26.328 Y41.638 E65.01847
G1 X26.024 Y41.166 E65.08584
G1 X25.647 Y40.737 E65.15437
G1 X25.245 Y40.396 E65.21763
G1 X25.166 Y40.336 E65.22954
G1 X24.713 Y40.060 E65.29319
G1 X24.221 Y39.850 E65.35738
G1 X23.671 Y39.702 E65.42573
G1 X23.112 Y39.636 E65.49328
G1 X23.070 Y39.635 E65.49832
G1 X22.547 Y39.655 E65.56112
G1 X22.507 Y39.658 E65.56594
G1 X21.979 Y39.757 E65.63040
G1 X21.472 Y39.928 E65.69461
G1 X20.968 Y40.181 E65.76228
G1 X20.507 Y40.507 E65.83004
G1 X20.118 Y40.874 E65.89421
G1 X19.755 Y41.332 E65.96434
G1 X19.471 Y41.831 E66.03324
G1 X19.280 Y42.324 E66.09668
G1 X19.139 Y42.919 E66.17006
G1 X19.097 Y43.484 E66.23805
G1 X19.136 Y44.021 E66.30266
G1 X19.256 Y44.575 E66.37068
G1 X19.455 Y45.104 E66.43850
G1 X19.714 Y45.570 E66.50248
G1 X20.051 Y46.017 E66.56966
G1 X20.467 Y46.427 E66.63975
G1 X20.901 Y46.742 E66.70410
G1 X21.410 Y47.012 E66.77324
G1 X21.950 Y47.202 E66.84193
G1 X22.509 Y47.308 E66.91021
G1 X23.068 Y47.332 E66.97735
G1 X23.111 Y47.331 E66.98251
G1 X23.641 Y47.271 E67.04652
G1 X24.162 Y47.137 E67.11107
G1 X24.683 Y46.921 E67.17875
G1 X25.168 Y46.631 E67.24656
G1 X25.610 Y46.266 E67.31535
G1 X25.967 Y45.874 E67.37898
G1 X26.026 Y45.797 E67.39062
G1 X26.313 Y45.359 E67.45345
G1 X26.541 Y44.873 E67.51787
G1 X26.698 Y44.359 E67.58237
G1 X26.786 Y43.796 E67.65075
G0 F9000 X27.859 Y43.484
G1 F1800 X27.898 Y44.021 E67.71536
G1 X28.018 Y44.575 E67.78338
G1 X28.218 Y45.104 E67.85124
G1 X28.476 Y45.570 E67.91516
G1 X28.813 Y46.017 E67.98234
G1 X29.229 Y46.427 E68.05243
G1 X29.663 Y46.742 E68.11678
G1 X30.172 Y47.012 E68.18592
G1 X30.712 Y47.202 E68.25462
G1 X31.271 Y47.308 E68.32289
G1 X31.831 Y47.332 E68.39015
G1 X31.874 Y47.331 E68.39531
G1 X32.403 Y47.271 E68.45920
G1 X32.924 Y47.137 E68.52376
G1 X33.445 Y46.921 E68.59144
G1 X33.930 Y46.631 E68.65925
G1 X34.372 Y46.266 E68.72803
G1 X34.729 Y45.874 E68.79166
G1 X34.788 Y45.797 E68.80330
G1 X35.075 Y45.359 E68.86614
G1 X35.303 Y44.873 E68.93056
G1 X35.460 Y44.359 E68.99505
G1 X35.548 Y43.796 E69.06343
G1 X35.553 Y43.229 E69.13147
G1 X35.475 Y42.668 E69.19944
G1 X35.315 Y42.124 E69.26749
G1 X35.090 Y41.638 E69.33175
G1 X34.786 Y41.166 E69.39912
G1 X34.409 Y40.737 E69.46766
G1 X34.007 Y40.396 E69.53091
G1 X33.928 Y40.336 E69.54282
G1 X33.475 Y40.060 E69.60647
G1 X32.983 Y39.850 E69.67067
G1 X32.433 Y39.702 E69.73901
G1 X31.875 Y39.636 E69.80644
G1 X31.833 Y39.635 E69.81148
G1 X31.309 Y39.655 E69.87441
G1 X31.269 Y39.658 E69.87922
G1 X30.741 Y39.757 E69.94369
G1 X30.234 Y39.928 E70.00789
G1 X29.730 Y40.181 E70.07557
G1 X29.269 Y40.507 E70.14332
G1 X28.881 Y40.875 E70.20749
G1 X28.518 Y41.332 E70.27753
G1 X28.234 Y41.831 E70.34643
G1 X28.042 Y42.324 E70.40991
G1 X27.901 Y42.919 E70.48329
G1 X27.859 Y43.484 E70.55128
G0 F9000 X27.562 Y43.463
G0 X27.634 Y44.688
G0 X28.786 Y48.394
G0 X28.486 Y48.394
G1 F1800 X19.380 Y48.394 E71.64400
G1 X18.038 Y47.052 E71.87174
G1 X18.038 Y39.915 E72.72818
G1 X19.380 Y38.573 E72.95593
G1 X61.566 Y38.573 E78.01825
G1 X62.908 Y39.915 E78.24599
G1 X62.908 Y47.052 E79.10243
G1 X61.566 Y48.394 E79.33018
G1 X52.460 Y48.394 E80.42290
G1 X52.460 Y49.086 E80.50594
G1 X54.146 Y52.006 E80.91055
G1 X54.146 Y52.871 E81.01435
G1 X26.800 Y52.871 E84.29587
G1 X26.800 Y52.006 E84.39967
G1 X28.448 Y49.150 E84.79536
G1 X28.486 Y49.087 E84.80419
G1 X28.486 Y48.394 E84.88735
G10
G0 F9000 X36.980 Y45.104
G11
G1 F1800 X37.239 Y45.570 E84.95132
G1 X37.575 Y46.017 E85.01843
G1 X37.991 Y46.427 E85.08852
G1 X38.426 Y46.742 E85.15297
G1 X38.935 Y47.012 E85.22211
G1 X39.474 Y47.202 E85.29069
G1 X40.033 Y47.308 E85.35896
G1 X40.592 Y47.332 E85.42611
G1 X40.635 Y47.331 E85.43127
G1 X41.165 Y47.271 E85.49527
G1 X41.685 Y47.137 E85.55971
G1 X42.206 Y46.921 E85.62739
G1 X42.691 Y46.631 E85.69520
G1 X43.133 Y46.266 E85.76399
G1 X43.490 Y45.874 E85.82761
G1 X43.549 Y45.797 E85.83925
G1 X43.836 Y45.359 E85.90209
G1 X44.065 Y44.873 E85.96656
G1 X44.221 Y44.359 E86.03102
G1 X44.310 Y43.797 E86.09930
G1 X44.315 Y43.229 E86.16746
G1 X44.236 Y42.668 E86.23545
G1 X44.077 Y42.124 E86.30346
G1 X43.851 Y41.638 E86.36778
G1 X43.547 Y41.166 E86.43515
G1 X43.170 Y40.737 E86.50368
G1 X42.768 Y40.396 E86.56694
G1 X42.689 Y40.336 E86.57884
G1 X42.236 Y40.060 E86.64250
G1 X41.744 Y39.850 E86.70669
G1 X41.195 Y39.702 E86.77492
G1 X40.636 Y39.636 E86.84247
G1 X40.594 Y39.635 E86.84751
G1 X40.071 Y39.655 E86.91032
G1 X40.031 Y39.658 E86.91513
G1 X39.503 Y39.757 E86.97959
G1 X38.997 Y39.928 E87.04369
G1 X38.493 Y40.181 E87.11136
G1 X38.031 Y40.507 E87.17921
G1 X37.643 Y40.875 E87.24338
G1 X37.280 Y41.332 E87.31342
G1 X36.996 Y41.831 E87.38232
G1 X36.804 Y42.324 E87.44581
G1 X36.664 Y42.919 E87.51916
G1 X36.622 Y43.484 E87.58714
G1 X36.660 Y44.021 E87.65174
G1 X36.780 Y44.575 E87.71977
G1 X36.980 Y45.104 E87.78763
G0 F9000 X36.700 Y45.210
G0 X37.733 Y46.732
G0 X39.988 Y47.705
G0 X42.385 Y47.278
G0 X44.185 Y45.554
G0 X45.094 Y43.736
G0 X45.393 Y43.738
G1 F1800 X45.471 Y44.300 E87.85572
G1 X45.631 Y44.844 E87.92376
G1 X45.856 Y45.330 E87.98803
G1 X46.156 Y45.795 E88.05443
G1 X46.572 Y46.266 E88.12984
G1 X46.984 Y46.609 E88.19417
G1 X47.437 Y46.888 E88.25802
G1 X47.963 Y47.116 E88.32681
G1 X48.513 Y47.265 E88.39519
G1 X49.071 Y47.330 E88.46260
G1 X49.113 Y47.331 E88.46765
G1 X49.636 Y47.312 E88.53045
G1 X49.677 Y47.309 E88.53538
G1 X50.205 Y47.210 E88.59984
G1 X50.712 Y47.039 E88.66405
G1 X51.216 Y46.785 E88.73178
G1 X51.677 Y46.460 E88.79946
G1 X52.065 Y46.091 E88.86372
G1 X52.428 Y45.635 E88.93366
G1 X52.712 Y45.136 E89.00256
G1 X52.904 Y44.644 E89.06593
G1 X53.045 Y44.049 E89.13931
G1 X53.087 Y43.484 E89.20730
G1 X53.048 Y42.946 E89.27203
G1 X52.928 Y42.393 E89.33993
G1 X52.728 Y41.863 E89.40791
G1 X52.470 Y41.397 E89.47183
G1 X52.133 Y40.949 E89.53910
G1 X51.717 Y40.540 E89.60911
G1 X51.283 Y40.224 E89.67353
G1 X50.774 Y39.955 E89.74261
G1 X50.234 Y39.765 E89.81131
G1 X49.704 Y39.665 E89.87603
G1 X49.148 Y39.636 E89.94284
G1 X49.077 Y39.635 E89.95136
G1 X48.543 Y39.696 E90.01586
G1 X48.029 Y39.827 E90.07951
G1 X47.471 Y40.060 E90.15207
G1 X47.016 Y40.337 E90.21600
G1 X46.574 Y40.701 E90.28471
G1 X46.217 Y41.093 E90.34833
G1 X46.158 Y41.170 E90.35997
G1 X45.871 Y41.609 E90.42291
G1 X45.643 Y42.095 E90.48733
G1 X45.486 Y42.608 E90.55171
G1 X45.398 Y43.171 E90.62009
G1 X45.393 Y43.738 E90.68813
G0 F9000 X45.094 Y43.736
G0 X45.270 Y41.951
G0 X46.785 Y40.010
G0 X49.161 Y39.236
G0 X51.494 Y39.885
