;FLAVOR:UltiGCode
;TIME:524
;MATERIAL:1331
;MATERIAL2:0

;Layer count: 10
;LAYER:0
M107
G0 F9000 X92.445 Y112.134 Z0.300
;TYPE:SKIRT
G1 F1800 X130.144 Y112.134 E5.65485
G1 X130.144 Y149.834 E11.30985
G1 X92.445 Y149.834 E16.96470
G1 X92.445 Y112.134 E22.61970
G10
G0 F9000 X96.445 Y116.134
;TYPE:WALL-INNER
G11
G1 F1800 X126.144 Y116.134 E27.07455
G1 X126.144 Y145.834 E31.52955
G1 X96.445 Y145.834 E35.98440
G1 X96.445 Y116.134 E40.43940
G0 F9000 X120.544 Y136.234
G1 F1800 X120.544 Y138.534 E40.78440
G1 X125.244 Y138.534 E41.48940
G1 X125.244 Y136.234 E41.83440
G1 X120.544 Y136.234 E42.53940
G0 F9000 X121.044 Y136.734
;TYPE:WALL-OUTER
G1 F1800 X121.044 Y138.034 E42.73440
G1 X124.744 Y138.034 E43.28940
G1 X124.744 Y136.734 E43.48440
G1 X121.044 Y136.734 E44.03940
G0 F9000 X121.044 Y136.384
G0 X125.135 Y136.343
G0 X125.135 Y138.425
G0 X126.294 Y146.074
G0 X126.644 Y146.334
G1 F1800 X95.945 Y146.334 E48.64425
G1 X95.945 Y115.634 E53.24925
G1 X126.644 Y115.634 E57.85410
G1 X126.644 Y146.334 E62.45910
G0 F9000 X125.969 Y145.415
;TYPE:SKIN
G1 F1800 X96.863 Y116.309 E68.63341
G0 F9000 X96.619 Y116.772
G1 F1800 X125.505 Y145.658 E74.76106
G0 F9000 X124.798 Y145.658
G1 F1800 X96.619 Y117.479 E80.73873
G0 F9000 X96.619 Y118.186
G1 F1800 X124.091 Y145.658 E86.56642
G0 F9000 X123.384 Y145.658
G1 F1800 X96.619 Y118.893 E92.24413
G0 F9000 X96.619 Y119.600
G1 F1800 X122.677 Y145.658 E97.77187
G0 F9000 X121.970 Y145.658
G1 F1800 X96.619 Y120.307 E103.14963
G0 F9000 X96.619 Y121.014
G1 F1800 X121.263 Y145.658 E108.37741
G0 F9000 X120.556 Y145.658
G1 F1800 X96.619 Y121.722 E113.45511
G0 F9000 X96.619 Y122.429
G1 F1800 X119.848 Y145.658 E118.38273
G0 F9000 X119.141 Y145.658
G1 F1800 X96.619 Y123.136 E123.16036
G0 F9000 X96.619 Y123.843
G1 F1800 X118.434 Y145.658 E127.78802
G0 F9000 X117.727 Y145.658
G1 F1800 X96.619 Y124.550 E132.26571
G0 F9000 X96.619 Y125.257
G1 F1800 X117.020 Y145.658 E136.59341
G0 F9000 X116.313 Y145.658
G1 F1800 X96.619 Y125.964 E140.77114
G0 F9000 X96.619 Y126.671
G1 F1800 X115.606 Y145.658 E144.79889
G0 F9000 X114.899 Y145.658
G1 F1800 X96.619 Y127.378 E148.67667
G0 F9000 X96.619 Y128.086
G1 F1800 X114.192 Y145.658 E152.40436
G0 F9000 X113.484 Y145.658
G1 F1800 X96.619 Y128.793 E155.98196
G0 F9000 X96.619 Y129.500
G1 F1800 X112.777 Y145.658 E159.40959
G0 F9000 X112.070 Y145.658
G1 F1800 X96.619 Y130.207 E162.68724
G0 F9000 X96.619 Y130.914
G1 F1800 X111.363 Y145.658 E165.81492
G0 F9000 X110.656 Y145.658
G1 F1800 X96.619 Y131.621 E168.79262
G0 F9000 X96.619 Y132.328
G1 F1800 X109.949 Y145.658 E171.62034
G0 F9000 X109.242 Y145.658
G1 F1800 X96.619 Y133.035 E174.29808
G0 F9000 X96.619 Y133.742
G1 F1800 X108.535 Y145.658 E176.82584
G0 F9000 X107.828 Y145.658
G1 F1800 X96.619 Y134.449 E179.20363
G0 F9000 X96.619 Y135.157
G1 F1800 X107.121 Y145.658 E181.43134
G0 F9000 X106.413 Y145.658
G1 F1800 X96.619 Y135.864 E183.50896
G0 F9000 X96.619 Y136.571
G1 F1800 X105.706 Y145.658 E185.43660
G0 F9000 X104.999 Y145.658
G1 F1800 X96.619 Y137.278 E187.21427
G0 F9000 X96.619 Y137.985
G1 F1800 X104.292 Y145.658 E188.84196
G0 F9000 X103.585 Y145.658
G1 F1800 X96.619 Y138.692 E190.31967
G0 F9000 X96.619 Y139.399
G1 F1800 X102.878 Y145.658 E191.64740
G0 F9000 X102.171 Y145.658
G1 F1800 X96.619 Y140.106 E192.82516
G0 F9000 X96.619 Y140.813
G1 F1800 X101.464 Y145.658 E193.85294
G0 F9000 X100.757 Y145.658
G1 F1800 X96.619 Y141.521 E194.73064
G0 F9000 X96.619 Y142.228
G1 F1800 X100.049 Y145.658 E195.45825
G0 F9000 X99.342 Y145.658
G1 F1800 X96.619 Y142.935 E196.03588
G0 F9000 X96.619 Y143.642
G1 F1800 X98.635 Y145.658 E196.46354
G0 F9000 X97.928 Y145.658
G1 F1800 X96.619 Y144.349 E196.74122
G0 F9000 X96.619 Y145.056
G1 F1800 X97.221 Y145.658 E196.86893
G0 F9000 X120.368 Y138.399
G1 F1800 X98.277 Y116.309 E201.55503
G0 F9000 X97.570 Y116.309
G1 F1800 X125.969 Y144.707 E207.57926
G0 F9000 X125.969 Y144.000
G1 F1800 X120.676 Y138.708 E208.70197
G0 F9000 X121.384 Y138.708
G1 F1800 X125.969 Y143.293 E209.67460
G0 F9000 X125.969 Y142.586
G1 F1800 X122.091 Y138.708 E210.49724
G0 F9000 X122.798 Y138.708
G1 F1800 X125.969 Y141.879 E211.16991
G0 F9000 X125.969 Y141.172
G1 F1800 X123.505 Y138.708 E211.69261
G0 F9000 X124.212 Y138.708
G1 F1800 X125.969 Y140.465 E212.06532
G0 F9000 X125.969 Y139.758
G1 F1800 X124.919 Y138.708 E212.28806
G0 F9000 X125.418 Y138.500
G1 F1800 X125.969 Y138.697 E212.40480
G1 X125.693 Y137.714 E212.52150
G1 X125.693 Y137.007 E212.63816
G1 X125.418 Y136.378 E212.74113
G0 F9000 X125.097 Y136.057
G1 F1800 X105.349 Y116.309 E216.93031
G0 F9000 X106.056 Y116.309
G1 F1800 X125.969 Y136.222 E221.15450
G0 F9000 X125.969 Y135.515
G1 F1800 X106.763 Y116.309 E225.22871
G0 F9000 X107.470 Y116.309
G1 F1800 X125.969 Y134.808 E229.15294
G0 F9000 X125.969 Y134.101
G1 F1800 X108.177 Y116.309 E232.92719
G0 F9000 X108.884 Y116.309
G1 F1800 X125.969 Y133.394 E236.55147
G0 F9000 X125.969 Y132.687
G1 F1800 X109.591 Y116.309 E240.02577
G0 F9000 X110.298 Y116.309
G1 F1800 X125.969 Y131.980 E243.35009
G0 F9000 X125.969 Y131.272
G1 F1800 X111.005 Y116.309 E246.52432
G0 F9000 X111.712 Y116.309
G1 F1800 X125.968 Y130.565 E249.54848
G0 F9000 X125.968 Y129.858
G1 F1800 X112.420 Y116.309 E252.42255
G0 F9000 X113.127 Y116.309
G1 F1800 X125.968 Y129.150 E255.14654
G0 F9000 X125.968 Y128.443
G1 F1800 X113.834 Y116.309 E257.72055
G0 F9000 X114.541 Y116.309
G1 F1800 X125.968 Y127.736 E260.14458
G0 F9000 X125.968 Y127.029
G1 F1800 X115.248 Y116.309 E262.41863
G0 F9000 X115.955 Y116.309
G1 F1800 X125.968 Y126.322 E264.54271
G0 F9000 X125.968 Y125.615
G1 F1800 X116.662 Y116.309 E266.51681
G0 F9000 X117.369 Y116.309
G1 F1800 X125.968 Y124.908 E268.34094
G0 F9000 X125.968 Y124.201
G1 F1800 X118.076 Y116.309 E270.01508
G0 F9000 X118.784 Y116.309
G1 F1800 X125.968 Y123.494 E271.53915
G0 F9000 X125.968 Y122.786
G1 F1800 X119.491 Y116.309 E272.91312
G0 F9000 X104.641 Y116.309
G1 F1800 X124.390 Y136.057 E277.10241
G0 F9000 X123.683 Y136.057
G1 F1800 X103.934 Y116.309 E281.29170
G0 F9000 X103.227 Y116.309
G1 F1800 X122.976 Y136.057 E285.48099
G0 F9000 X122.269 Y136.057
G1 F1800 X102.520 Y116.309 E289.67028
G0 F9000 X101.813 Y116.309
G1 F1800 X121.562 Y136.057 E293.85957
G0 F9000 X120.855 Y136.057
G1 F1800 X101.106 Y116.309 E298.04886
G0 F9000 X100.399 Y116.309
G1 F1800 X120.368 Y136.278 E302.28493
G0 F9000 X120.368 Y136.985
G1 F1800 X99.692 Y116.309 E306.67097
G0 F9000 X98.985 Y116.309
G1 F1800 X120.368 Y137.692 E311.20699
G0 F9000 X120.653 Y136.343
G0 X125.968 Y122.079
G1 F1800 X120.198 Y116.309 E312.43099
G0 F9000 X120.905 Y116.309
G1 F1800 X125.968 Y121.372 E313.50501
G0 F9000 X125.968 Y120.665
G1 F1800 X121.612 Y116.309 E314.42906
G0 F9000 X122.319 Y116.309
G1 F1800 X125.968 Y119.958 E315.20313
G0 F9000 X125.968 Y119.251
G1 F1800 X123.026 Y116.309 E315.82722
G0 F9000 X123.733 Y116.309
G1 F1800 X125.968 Y118.544 E316.30134
G0 F9000 X125.968 Y117.837
G1 F1800 X124.440 Y116.309 E316.62548
G0 F9000 X125.148 Y116.309
G1 F1800 X125.968 Y117.130 E316.79953
G0 F9000 X125.968 Y116.423
G1 F1800 X125.855 Y116.309 E316.82361
;LAYER:1
M106 S127
G0 F9000 X126.144 Y116.134 Z0.450
;TYPE:WALL-INNER
G1 F2520 X126.144 Y145.834 E319.05111
G1 X96.445 Y145.834 E321.27853
G1 X96.445 Y116.134 E323.50603
G1 X126.144 Y116.134 E325.73346
G0 F9000 X125.244 Y136.234
G1 F2520 X120.544 Y136.234 E326.08596
G1 X120.544 Y138.534 E326.25846
G1 X125.244 Y138.534 E326.61096
G1 X125.244 Y136.234 E326.78346
G0 F9000 X124.744 Y136.734
;TYPE:WALL-OUTER
G1 F1920 X121.044 Y136.734 E327.06096
G1 X121.044 Y138.034 E327.15846
G1 X124.744 Y138.034 E327.43596
G1 X124.744 Y136.734 E327.53346
G0 F9000 X124.744 Y136.384
G0 X125.135 Y136.343
G0 X126.294 Y146.074
G0 X126.644 Y146.334
G1 F1920 X95.945 Y146.334 E329.83588
G1 X95.945 Y115.634 E332.13838
G1 X126.644 Y115.634 E334.44081
G1 X126.644 Y146.334 E336.74331
G0 F9000 X125.517 Y145.658
;TYPE:SKIN
G1 F1740 X125.968 Y145.206 E336.79120
G0 F9000 X125.968 Y144.499
G1 F1740 X124.810 Y145.658 E336.91407
G0 F9000 X124.102 Y145.658
G1 F1740 X125.968 Y143.792 E337.11199
G0 F9000 X125.968 Y143.085
G1 F1740 X123.395 Y145.658 E337.38490
G0 F9000 X122.688 Y145.658
G1 F1740 X125.968 Y142.378 E337.73280
G0 F9000 X125.968 Y141.670
G1 F1740 X121.981 Y145.658 E338.15574
G0 F9000 X121.274 Y145.658
G1 F1740 X125.968 Y140.963 E338.65366
G0 F9000 X125.968 Y140.256
G1 F1740 X120.567 Y145.658 E339.22658
G0 F9000 X119.860 Y145.658
G1 F1740 X125.968 Y139.549 E339.87448
G0 F9000 X125.968 Y138.842
G1 F1740 X119.153 Y145.658 E340.59738
G0 F9000 X118.446 Y145.658
G1 F1740 X125.396 Y138.708 E341.33453
G0 F9000 X125.418 Y138.685
G1 F1740 X125.693 Y138.056 E341.39282
G1 X125.693 Y137.349 E341.45104
G1 X125.693 Y136.642 E341.50926
G1 X125.968 Y136.014 E341.56068
G0 F9000 X125.968 Y135.307
G1 F1740 X125.218 Y136.057 E341.64023
G0 F9000 X124.510 Y136.057
G1 F1740 X125.968 Y134.599 E341.79487
G0 F9000 X125.968 Y133.892
G1 F1740 X123.803 Y136.057 E342.02450
G0 F9000 X123.096 Y136.057
G1 F1740 X125.968 Y133.185 E342.32913
G0 F9000 X125.968 Y132.478
G1 F1740 X122.389 Y136.057 E342.70874
G0 F9000 X121.682 Y136.057
G1 F1740 X125.968 Y131.771 E343.16334
G0 F9000 X125.968 Y131.064
G1 F1740 X120.975 Y136.057 E343.69292
G0 F9000 X120.368 Y136.664
G1 F1740 X111.374 Y145.658 E344.64688
G0 F9000 X110.667 Y145.658
G1 F1740 X125.968 Y130.357 E346.26980
G0 F9000 X125.968 Y129.650
G1 F1740 X109.960 Y145.658 E347.96770
G0 F9000 X109.253 Y145.658
G1 F1740 X125.968 Y128.943 E349.74060
G0 F9000 X125.968 Y128.236
G1 F1740 X108.546 Y145.658 E351.58848
G0 F9000 X107.839 Y145.658
G1 F1740 X125.968 Y127.529 E353.51135
G0 F9000 X125.968 Y126.822
G1 F1740 X107.132 Y145.658 E355.50921
G0 F9000 X106.425 Y145.658
G1 F1740 X125.968 Y126.115 E357.58206
G0 F9000 X125.968 Y125.408
G1 F1740 X105.718 Y145.658 E359.72989
G0 F9000 X105.011 Y145.658
G1 F1740 X125.968 Y124.701 E361.95272
G0 F9000 X125.968 Y123.994
G1 F1740 X104.303 Y145.658 E364.25059
G0 F9000 X103.596 Y145.658
G1 F1740 X125.968 Y123.286 E366.62349
G0 F9000 X125.968 Y122.579
G1 F1740 X102.889 Y145.658 E369.07139
G0 F9000 X102.182 Y145.658
G1 F1740 X125.968 Y121.872 E371.59428
G0 F9000 X125.968 Y121.165
G1 F1740 X101.475 Y145.658 E374.19215
G0 F9000 X100.768 Y145.658
G1 F1740 X125.968 Y120.458 E376.86502
G0 F9000 X120.368 Y137.371
G1 F1740 X112.082 Y145.658 E377.74393
G0 F9000 X112.789 Y145.658
G1 F1740 X120.368 Y138.078 E378.54786
G0 F9000 X120.446 Y138.708
G1 F1740 X113.496 Y145.658 E379.28502
G0 F9000 X114.203 Y145.658
G1 F1740 X121.153 Y138.708 E380.02218
G0 F9000 X121.860 Y138.708
G1 F1740 X114.910 Y145.658 E380.75934
G0 F9000 X115.617 Y145.658
G1 F1740 X122.567 Y138.708 E381.49650
G0 F9000 X123.274 Y138.708
G1 F1740 X116.324 Y145.658 E382.23365
G0 F9000 X117.031 Y145.658
G1 F1740 X123.981 Y138.708 E382.97081
G0 F9000 X124.689 Y138.708
G1 F1740 X117.738 Y145.658 E383.70803
G0 F9000 X100.061 Y145.658
G1 F1740 X125.968 Y119.751 E386.45588
G0 F9000 X125.968 Y119.044
G1 F1740 X99.354 Y145.658 E389.27872
G0 F9000 X98.647 Y145.658
G1 F1740 X125.968 Y118.337 E392.17655
G0 F9000 X125.968 Y117.630
G1 F1740 X97.939 Y145.658 E395.14942
G0 F9000 X97.232 Y145.658
G1 F1740 X125.968 Y116.922 E398.19733
G0 F9000 X125.875 Y116.308
G1 F1740 X96.620 Y145.563 E401.30029
G0 F9000 X96.620 Y144.856
G1 F1740 X125.168 Y116.308 E404.32827
G0 F9000 X124.461 Y116.308
G1 F1740 X96.620 Y144.149 E407.28125
G0 F9000 X96.620 Y143.442
G1 F1740 X123.754 Y116.308 E410.15925
G0 F9000 X123.047 Y116.308
G1 F1740 X96.620 Y142.735 E412.96225
G0 F9000 X96.620 Y142.028
G1 F1740 X122.340 Y116.308 E415.69027
G0 F9000 X121.632 Y116.308
G1 F1740 X96.620 Y141.320 E418.34319
G0 F9000 X96.620 Y140.613
G1 F1740 X120.925 Y116.308 E420.92113
G0 F9000 X120.218 Y116.308
G1 F1740 X96.620 Y139.906 E423.42407
G0 F9000 X96.620 Y139.199
G1 F1740 X119.511 Y116.308 E425.85203
G0 F9000 X118.804 Y116.308
G1 F1740 X96.620 Y138.492 E428.20500
G0 F9000 X96.620 Y137.785
G1 F1740 X118.097 Y116.308 E430.48298
G0 F9000 X117.390 Y116.308
G1 F1740 X96.620 Y137.078 E432.68597
G0 F9000 X96.620 Y136.371
G1 F1740 X116.683 Y116.308 E434.81397
G0 F9000 X115.976 Y116.308
G1 F1740 X96.620 Y135.664 E436.86699
G0 F9000 X96.620 Y134.956
G1 F1740 X115.269 Y116.308 E438.84496
G0 F9000 X114.561 Y116.308
G1 F1740 X96.620 Y134.249 E440.74789
G0 F9000 X96.620 Y133.542
G1 F1740 X113.854 Y116.308 E442.57583
G0 F9000 X113.147 Y116.308
G1 F1740 X96.620 Y132.835 E444.32878
G0 F9000 X96.620 Y132.128
G1 F1740 X112.440 Y116.308 E446.00675
G0 F9000 X111.733 Y116.308
G1 F1740 X96.620 Y131.421 E447.60972
G0 F9000 X96.620 Y130.714
G1 F1740 X111.026 Y116.308 E449.13771
G0 F9000 X110.319 Y116.308
G1 F1740 X96.620 Y130.007 E450.59071
G0 F9000 X96.620 Y129.300
G1 F1740 X109.612 Y116.308 E451.96872
G0 F9000 X108.905 Y116.308
G1 F1740 X96.620 Y128.593 E453.27174
G0 F9000 X96.620 Y127.885
G1 F1740 X108.197 Y116.308 E454.49967
G0 F9000 X107.490 Y116.308
G1 F1740 X96.620 Y127.178 E455.65260
G0 F9000 X96.620 Y126.471
G1 F1740 X106.783 Y116.308 E456.73055
G0 F9000 X106.076 Y116.308
G1 F1740 X96.620 Y125.764 E457.73351
G0 F9000 X96.620 Y125.057
G1 F1740 X105.369 Y116.308 E458.66149
G0 F9000 X104.662 Y116.308
G1 F1740 X96.620 Y124.350 E459.51447
G0 F9000 X96.620 Y123.643
G1 F1740 X103.955 Y116.308 E460.29246
G0 F9000 X103.248 Y116.308
G1 F1740 X96.620 Y122.936 E460.99547
G0 F9000 X96.620 Y122.229
G1 F1740 X102.541 Y116.308 E461.62349
G0 F9000 X101.833 Y116.308
G1 F1740 X96.620 Y121.521 E462.17641
G0 F9000 X96.620 Y120.814
G1 F1740 X101.126 Y116.308 E462.65434
G0 F9000 X100.419 Y116.308
G1 F1740 X96.620 Y120.107 E463.05729
G0 F9000 X96.620 Y119.400
G1 F1740 X99.712 Y116.308 E463.38524
G0 F9000 X99.005 Y116.308
G1 F1740 X96.620 Y118.693 E463.63821
G0 F9000 X96.620 Y117.986
G1 F1740 X98.298 Y116.308 E463.81619
G0 F9000 X97.591 Y116.308
G1 F1740 X96.620 Y117.279 E463.91918
G0 F9000 X96.620 Y116.572
G1 F1740 X96.884 Y116.308 E463.94718
;LAYER:2
M106 S255
G0 F9000 X96.445 Y116.134 Z0.600
;TYPE:WALL-INNER
G1 F3300 X126.144 Y116.134 E466.17460
G1 X126.144 Y145.834 E468.40210
G1 X96.445 Y145.834 E470.62953
G1 X96.445 Y116.134 E472.85703
G0 F9000 X120.544 Y136.234
G1 F3300 X120.544 Y138.534 E473.02953
G1 X125.244 Y138.534 E473.38203
G1 X125.244 Y136.234 E473.55453
G1 X120.544 Y136.234 E473.90703
G0 F9000 X121.044 Y136.734
;TYPE:WALL-OUTER
G1 F2100 X121.044 Y138.034 E474.00453
G1 X124.744 Y138.034 E474.28203
G1 X124.744 Y136.734 E474.37953
G1 X121.044 Y136.734 E474.65703
G0 F9000 X121.044 Y136.384
G0 X125.135 Y136.343
G0 X125.135 Y138.425
G0 X126.294 Y146.074
G0 X126.644 Y146.334
G1 F2100 X95.945 Y146.334 E476.95945
G1 X95.945 Y115.634 E479.26195
G1 X126.644 Y115.634 E481.56438
G1 X126.644 Y146.334 E483.86688
G0 F9000 X125.969 Y145.415
;TYPE:SKIN
G1 F1800 X96.863 Y116.309 E486.95404
G0 F9000 X96.619 Y116.772
G1 F1800 X125.505 Y145.658 E490.01786
G0 F9000 X124.798 Y145.658
G1 F1800 X96.619 Y117.479 E493.00669
G0 F9000 X96.619 Y118.186
G1 F1800 X124.091 Y145.658 E495.92054
G0 F9000 X123.384 Y145.658
G1 F1800 X96.619 Y118.893 E498.75940
G0 F9000 X96.619 Y119.600
G1 F1800 X122.677 Y145.658 E501.52327
G0 F9000 X121.970 Y145.658
G1 F1800 X96.619 Y120.307 E504.21214
G0 F9000 X96.619 Y121.014
G1 F1800 X121.263 Y145.658 E506.82604
G0 F9000 X120.556 Y145.658
G1 F1800 X96.619 Y121.722 E509.36488
G0 F9000 X96.619 Y122.429
G1 F1800 X119.848 Y145.658 E511.82869
G0 F9000 X119.141 Y145.658
G1 F1800 X96.619 Y123.136 E514.21751
G0 F9000 X96.619 Y123.843
G1 F1800 X118.434 Y145.658 E516.53134
G0 F9000 X117.727 Y145.658
G1 F1800 X96.619 Y124.550 E518.77018
G0 F9000 X96.619 Y125.257
G1 F1800 X117.020 Y145.658 E520.93404
G0 F9000 X116.313 Y145.658
G1 F1800 X96.619 Y125.964 E523.02290
G0 F9000 X96.619 Y126.671
G1 F1800 X115.606 Y145.658 E525.03678
G0 F9000 X114.899 Y145.658
G1 F1800 X96.619 Y127.378 E526.97566
G0 F9000 X96.619 Y128.086
G1 F1800 X114.192 Y145.658 E528.83951
G0 F9000 X113.484 Y145.658
G1 F1800 X96.619 Y128.793 E530.62831
G0 F9000 X96.619 Y129.500
G1 F1800 X112.777 Y145.658 E532.34213
G0 F9000 X112.070 Y145.658
G1 F1800 X96.619 Y130.207 E533.98095
G0 F9000 X96.619 Y130.914
G1 F1800 X111.363 Y145.658 E535.54479
G0 F9000 X110.656 Y145.658
G1 F1800 X96.619 Y131.621 E537.03364
